assets/luts/moa_warm_sunset.cube
TITLE "MOA Warm Sunset"
LUT_3D_SIZE 9
DOMAIN_MIN 0.0 0.0 0.0
DOMAIN_MAX 1.0 1.0 1.0
0.007608 0.005739 0.004511
0.158697 0.001000 0.001682
0.305954 0.001000 0.002319
0.453210 0.001000 0.002956
0.600466 0.001000 0.003593
0.747509 0.000155 0.003388
0.894528 0.000000 0.000594
1.000000 0.000000 0.000000
1.000000 0.000000 0.001351
0.001000 0.144651 0.001000
0.360770 0.294726 0.000000
0.527871 0.186245 0.000000
0.588998 0.143785 0.000000
0.699552 0.123931 0.000000
0.823721 0.111104 0.000000
0.957508 0.100322 0.000000
1.000000 0.089990 0.000000
1.000000 0.122882 0.004773
0.000000 0.283462 0.000000
0.137054 0.279158 0.000000
0.493552 0.398308 0.000000
0.721965 0.320178 0.000000
0.819918 0.265867 0.000000
0.918355 0.237373 0.000000
1.000000 0.218096 0.000000
1.000000 0.205290 0.000000
1.000000 0.258933 0.028739
0.000000 0.412414 0.000000
0.109831 0.406325 0.000000
0.299482 0.445538 0.000000
0.639764 0.514910 0.000000
0.880480 0.450122 0.000000
1.000000 0.393540 0.000000
1.000000 0.360218 0.000000
1.000000 0.359894 0.000000
1.000000 0.398128 0.069932
0.000000 0.545752 0.000000
0.079441 0.541314 0.000000
0.232302 0.537785 0.000000
0.502209 0.624627 0.000000
0.770157 0.623394 0.000000
0.995823 0.566130 0.000000
1.000000 0.518878 0.000000
1.000000 0.501984 0.019251
1.000000 0.516721 0.134765
0.000000 0.690899 0.000000
0.057426 0.687073 0.000000
0.215810 0.681527 0.000000
0.397704 0.693811 0.000000
0.668866 0.751114 0.000000
0.870482 0.707975 0.000000
1.000000 0.661190 0.000000
1.000000 0.611322 0.049075
1.000000 0.604740 0.175019
0.000000 0.828618 0.000000
0.051751 0.818146 0.000000
0.206629 0.806282 0.000000
0.357007 0.793821 0.000000
0.553436 0.809866 0.000000
0.805518 0.852642 0.000000
0.946492 0.787262 0.000000
0.971211 0.710789 0.035753
0.979962 0.677623 0.183671
0.000000 0.938485 0.000000
0.049113 0.922658 0.000000
0.195602 0.906970 0.000000
0.337254 0.891968 0.000000
0.488195 0.885806 0.000000
0.699256 0.918673 0.000000
0.932400 0.932400 0.000000
0.934630 0.836343 0.000000
0.949301 0.752540 0.161754
0.000000 0.997559 0.000000
0.047394 0.981149 0.000000
0.189087 0.966166 0.000000
0.327058 0.953211 0.000000
0.463108 0.942837 0.000000
0.630290 0.934307 0.000000
0.818201 0.932400 0.000000
0.932400 0.932400 0.056381
0.932499 0.854112 0.111980
0.001000 0.024028 0.242838
0.148256 0.001000 0.138985
0.295513 0.001000 0.138985
0.442769 0.001000 0.138985
0.590025 0.001000 0.138985
0.736903 0.000000 0.137743
0.883907 0.000000 0.134279
1.000000 0.000000 0.128935
1.000000 0.000000 0.125965
0.000000 0.275006 0.219270
0.193809 0.139228 0.103332
0.358701 0.094571 0.086459
0.522122 0.075090 0.069046
0.685312 0.055506 0.050733
0.849054 0.035135 0.031419
1.000000 0.013858 0.011113
1.000000 0.058657 0.056599
1.000000 0.112257 0.110520
0.000000 0.295565 0.131444
0.083691 0.324312 0.067761
0.589163 0.479026 0.000000
0.816271 0.265728 0.000000
0.878730 0.193901 0.000000
0.993793 0.157055 0.000000
1.000000 0.144934 0.000000
1.000000 0.212137 0.071067
1.000000 0.253111 0.125984
0.000000 0.410513 0.106489
0.033440 0.467503 0.019254
0.248029 0.460172 0.004373
0.766510 0.618817 0.000000
1.000000 0.452198 0.000000
1.000000 0.360218 0.000000
1.000000 0.327852 0.000000
1.000000 0.354798 0.056855
1.000000 0.408263 0.177343
0.000000 0.544307 0.075492
0.000000 0.622702 0.000000
0.197255 0.618492 0.000000
0.472868 0.674965 0.000000
0.868860 0.705859 0.000000
1.000000 0.591704 0.000000
1.000000 0.525936 0.028743
1.000000 0.516721 0.134765
1.000000 0.537632 0.239603
0.000000 0.689898 0.050593
0.000000 0.780076 0.000000
0.164018 0.768176 0.000000
0.367397 0.754336 0.000000
0.675193 0.825193 0.000000
0.949046 0.777510 0.000000
0.990649 0.670342 0.046133
1.000000 0.629897 0.181343
0.998383 0.630425 0.293736
0.000000 0.825465 0.042182
0.000000 0.908696 0.000000
0.136814 0.889040 0.000000
0.324732 0.869471 0.000000
0.527576 0.873386 0.000000
0.838029 0.932400 0.000000
0.934630 0.836343 0.000000
0.958557 0.726123 0.172423
0.962693 0.701989 0.312206
0.000000 0.933467 0.040142
0.000000 0.989367 0.000000
0.132523 0.970420 0.000000
0.300934 0.954196 0.000000
0.465977 0.941725 0.000000
0.674540 0.932858 0.000000
0.910958 0.932400 0.064483
0.932499 0.854112 0.111980
0.939898 0.773449 0.294243
0.000000 0.992219 0.038720
0.047155 0.976198 0.038095
0.188231 0.961795 0.037533
0.325823 0.949612 0.037058
0.461208 0.940252 0.036692
0.609534 0.933828 0.048482
0.797079 0.932400 0.104473
0.932400 0.932400 0.176670
0.932400 0.873695 0.240754
0.001000 0.037168 0.380823
0.149260 0.001000 0.280679
0.295513 0.001000 0.276970
0.442769 0.001000 0.276970
0.589962 0.000846 0.276858
0.736635 0.000000 0.275190
0.883704 0.000000 0.271747
1.000000 0.000000 0.266818
1.000000 0.000000 0.264153
0.000000 0.286693 0.425066
0.084801 0.114940 0.444149
0.347264 0.091262 0.315798
0.508375 0.074562 0.267109
0.669749 0.056584 0.238753
0.832043 0.037430 0.214846
0.995807 0.017201 0.192212
1.000000 0.046807 0.204234
1.000000 0.101057 0.240120
0.000000 0.401515 0.314555
0.022744 0.457490 0.361804
0.362764 0.252445 0.179892
0.533530 0.188140 0.166560
0.699735 0.161972 0.145456
0.867526 0.137629 0.123502
1.000000 0.134636 0.122204
1.000000 0.177652 0.167635
1.000000 0.236441 0.227781
0.000000 0.458613 0.241550
0.016029 0.483392 0.220708
0.169248 0.481847 0.126764
0.773568 0.642114 0.019652
1.000000 0.370237 0.000000
1.000000 0.285919 0.000000
1.000000 0.303219 0.096025
1.000000 0.359708 0.207904
1.000000 0.401446 0.270148
0.000000 0.557591 0.215468
0.000000 0.623153 0.171136
0.122409 0.641471 0.088045
0.388086 0.632751 0.082443
0.904396 0.744605 0.000000
1.000000 0.575052 0.115652
1.000000 0.528107 0.195460
1.000000 0.514831 0.226053
1.000000 0.547246 0.331784
0.000000 0.690547 0.199943
0.000000 0.778263 0.135679
0.095700 0.788307 0.065392
0.328778 0.770465 0.063912
0.597615 0.799103 0.036528
0.942060 0.788889 0.049728
0.980630 0.673235 0.213758
0.990100 0.645751 0.300312
0.981909 0.652269 0.395940
0.000000 0.822139 0.190710
0.000000 0.904076 0.110596
0.084524 0.897705 0.057948
0.288547 0.876373 0.056571
0.483991 0.857109 0.055381
0.768612 0.894521 0.072570
0.936110 0.805245 0.181877
0.947568 0.743401 0.305889
0.948043 0.729055 0.433029
0.000000 0.928425 0.181239
0.000000 0.983384 0.110497
0.104490 0.968624 0.081955
0.278666 0.952271 0.080571
0.448809 0.940128 0.079544
0.637901 0.932886 0.099940
0.869791 0.932400 0.193785
0.932400 0.873695 0.240754
0.933845 0.799141 0.425949
0.000000 0.986982 0.174841
0.046924 0.971410 0.172082
0.187420 0.957648 0.169644
0.324686 0.946298 0.167634
0.460086 0.937963 0.166157
0.595857 0.933231 0.165787
0.774532 0.932400 0.211130
0.932400 0.932400 0.293719
0.932400 0.893369 0.369540
0.001000 0.050307 0.518807
0.146533 0.001000 0.443567
0.295513 0.001000 0.414955
0.442769 0.001000 0.414955
0.589780 0.000403 0.414605
0.736302 0.000000 0.412773
0.883477 0.000000 0.409579
1.000000 0.000000 0.405257
1.000000 0.000000 0.402973
0.000000 0.261383 0.552512
0.052677 0.102881 0.613022
0.303088 0.078880 0.483542
0.507337 0.072609 0.466777
0.668881 0.054107 0.427222
0.831524 0.034457 0.398006
0.995792 0.013783 0.372542
1.000000 0.043276 0.366062
1.000000 0.098026 0.383064
0.000000 0.476061 0.549089
0.000000 0.447005 0.662179
0.170999 0.205060 0.626105
0.519879 0.175780 0.457918
0.684558 0.155763 0.377733
0.850994 0.134528 0.336636
0.999918 0.129494 0.314390
1.000000 0.164553 0.324959
1.000000 0.225002 0.362919
0.000000 0.534395 0.413660
0.000000 0.635376 0.492043
0.088273 0.645692 0.513350
0.533187 0.360817 0.247456
0.712261 0.276424 0.236681
0.865496 0.263061 0.234011
0.996492 0.276401 0.253184
1.000000 0.312984 0.294045
1.000000 0.376476 0.360815
0.000000 0.620534 0.355267
0.000000 0.695797 0.368545
0.097296 0.661035 0.329986
0.286412 0.655307 0.209169
0.859303 0.733361 0.152989
1.000000 0.534191 0.219789
1.000000 0.488983 0.269126
1.000000 0.510452 0.357424
1.000000 0.541057 0.414967
0.000000 0.723768 0.335747
0.000000 0.793212 0.325740
0.081573 0.786481 0.280268
0.248307 0.783406 0.194476
0.517248 0.759729 0.188498
0.902654 0.779897 0.216696
0.971565 0.677540 0.357569
0.981909 0.652269 0.395940
0.972120 0.664376 0.476209
0.000000 0.830941 0.327864
0.000000 0.899801 0.293603
0.078208 0.890356 0.249173
0.248949 0.866210 0.208084
0.454308 0.845753 0.203170
0.692727 0.854327 0.208164
0.933029 0.821543 0.309340
0.939020 0.763341 0.435398
0.937785 0.758773 0.543504
0.000000 0.926387 0.316875
0.000000 0.977305 0.273880
0.099415 0.963594 0.244581
0.255016 0.943927 0.221029
0.429240 0.931526 0.218125
0.602830 0.924954 0.216716
0.841022 0.932400 0.295956
0.932400 0.886582 0.378767
0.932400 0.832076 0.558564
0.000000 0.981828 0.309202
0.046701 0.966806 0.304805
0.186656 0.953746 0.300687
0.323654 0.943290 0.297391
0.459143 0.936040 0.295105
0.594923 0.932599 0.294020
0.750774 0.932400 0.314300
0.932400 0.932400 0.405563
0.932400 0.913043 0.498326
0.001000 0.063446 0.656792
0.134464 0.001000 0.599567
0.295555 0.001000 0.556648
0.442769 0.001000 0.552939
0.589485 0.000000 0.552350
0.735907 0.000000 0.550600
0.883228 0.000000 0.547866
1.000000 0.000000 0.544326
1.000000 0.000000 0.542492
0.000000 0.255863 0.684098
0.024003 0.093233 0.778678
0.264604 0.055475 0.670253
0.476236 0.061959 0.629334
0.667895 0.051288 0.616550
0.830957 0.031205 0.582188
0.995777 0.010140 0.554040
1.000000 0.039661 0.529065
1.000000 0.094992 0.526985
0.000000 0.452415 0.690419
0.000000 0.378412 0.828891
0.140466 0.195424 0.795726
0.446505 0.165928 0.650604
0.682821 0.151114 0.617467
0.850232 0.130101 0.554560
0.999917 0.125425 0.513566
1.000000 0.161467 0.497869
1.000000 0.222983 0.511909
0.000000 0.661112 0.681376
0.000000 0.720917 0.828065
0.035503 0.604226 0.855391
0.242677 0.281533 0.813727
0.697748 0.254437 0.593742
0.850796 0.251891 0.489208
0.984219 0.268979 0.460180
1.000000 0.298287 0.461545
1.000000 0.365051 0.497881
0.000000 0.678758 0.524283
0.000000 0.796515 0.615358
0.046725 0.798388 0.632950
0.188933 0.791114 0.640735
0.703452 0.489318 0.347007
0.840153 0.428287 0.377436
0.964375 0.436212 0.401001
1.000000 0.455452 0.427610
1.000000 0.509986 0.488399
0.000000 0.772057 0.474414
0.000000 0.862511 0.503307
0.055307 0.840361 0.487434
0.226037 0.785542 0.441459
0.436326 0.752232 0.345667
0.878660 0.781898 0.366876
0.972774 0.664185 0.464302
0.982229 0.641915 0.492153
0.970815 0.660308 0.544244
0.000000 0.857931 0.450709
0.000000 0.931477 0.450111
0.080970 0.890739 0.434486
0.237318 0.858875 0.400307
0.410290 0.836010 0.352432
0.625867 0.817395 0.344555
0.932400 0.839546 0.437269
0.933988 0.784554 0.555614
0.933244 0.785482 0.634121
0.000000 0.938457 0.434075
0.000000 0.970303 0.425009
0.100626 0.958148 0.409227
0.249325 0.937953 0.383891
0.407006 0.919540 0.361373
0.583456 0.912119 0.358456
0.802673 0.932400 0.383619
0.932400 0.897017 0.520114
0.932400 0.871182 0.689900
0.000000 0.975741 0.430180
0.050826 0.962075 0.433593
0.185944 0.950107 0.430772
0.322733 0.940606 0.426464
0.458389 0.934503 0.423697
0.594796 0.932400 0.422743
0.732672 0.932400 0.423212
0.921252 0.932400 0.508671
0.932400 0.932400 0.627112
0.001000 0.076585 0.794777
0.119699 0.001000 0.749226
0.291622 0.001000 0.707337
0.442705 0.000886 0.690889
0.589082 0.000000 0.690213
0.735453 0.000000 0.688773
0.882957 0.000000 0.686692
1.000000 0.000000 0.684094
1.000000 0.000000 0.682770
0.000000 0.258191 0.819116
0.001000 0.088078 0.938779
0.217781 0.028586 0.852798
0.448359 0.047101 0.787521
0.643766 0.041211 0.780274
0.830345 0.027703 0.767560
0.995761 0.006299 0.736838
1.000000 0.035980 0.693292
1.000000 0.091966 0.671887
0.000000 0.439340 0.829324
0.000000 0.346841 0.967944
0.111780 0.186359 0.963367
0.390154 0.143231 0.844808
0.633985 0.141970 0.798518
0.849458 0.125609 0.774720
0.999917 0.121367 0.714629
1.000000 0.158466 0.672103
1.000000 0.221066 0.661725
0.000000 0.649278 0.833103
0.000000 0.641517 0.983299
0.025159 0.507372 1.000000
0.278777 0.324818 0.908874
0.592667 0.252356 0.814627
0.850011 0.247954 0.758602
0.984165 0.266448 0.677129
1.000000 0.296482 0.646055
1.000000 0.363722 0.647342
0.000000 0.814550 0.790256
0.000000 0.880055 0.902891
0.021128 0.837002 0.935300
0.249771 0.705269 0.895553
0.435307 0.454570 0.883731
0.824841 0.404130 0.704212
0.950594 0.424399 0.620821
1.000000 0.442726 0.600730
1.000000 0.498838 0.619793
0.000000 0.805942 0.626436
0.000000 0.906390 0.703575
0.025584 0.906824 0.719440
0.238997 0.841887 0.694245
0.397771 0.814467 0.688854
0.768501 0.628289 0.506630
0.895496 0.583927 0.534758
0.999539 0.586205 0.550801
0.987058 0.621915 0.595370
0.000000 0.885987 0.573432
0.000000 0.970802 0.604811
0.097027 0.912362 0.591369
0.248902 0.876162 0.580344
0.393901 0.835410 0.550547
0.576726 0.807416 0.491597
0.929257 0.855526 0.568811
0.932844 0.790072 0.654111
0.932857 0.786745 0.684498
0.000000 0.958177 0.543208
0.010669 0.962107 0.550837
0.133746 0.950997 0.552329
0.254636 0.939171 0.543730
0.398944 0.914064 0.523725
0.559209 0.899719 0.500588
0.744366 0.898248 0.499879
0.932400 0.909957 0.658055
0.932400 0.915611 0.812242
0.000000 0.968991 0.534099
0.075750 0.956217 0.544835
0.199628 0.945889 0.552389
0.323671 0.938188 0.554512
0.457834 0.933372 0.552104
0.594796 0.932400 0.551529
0.732235 0.932400 0.551529
0.898177 0.932400 0.597488
0.932400 0.932400 0.755897
0.001000 0.089725 0.932762
0.104374 0.001000 0.895142
0.282656 0.001000 0.857522
0.441558 0.000479 0.832531
0.588576 0.000000 0.828304
0.734944 0.000000 0.827387
0.882667 0.000000 0.826137
1.000000 0.000000 0.824621
1.000000 0.000000 0.823860
0.000000 0.264102 0.956735
0.000686 0.101273 1.000000
0.168982 0.001627 1.000000
0.417963 0.026258 0.960670
0.617755 0.028223 0.933960
0.810713 0.018043 0.933268
0.995743 0.002288 0.921050
1.000000 0.032252 0.858781
1.000000 0.088959 0.817769
0.000000 0.434526 0.970104
0.000000 0.335059 1.000000
0.168660 0.243274 1.000000
0.354406 0.153751 0.990757
0.589108 0.134246 0.954711
0.810026 0.120449 0.950754
0.999916 0.117348 0.917573
1.000000 0.155566 0.847611
1.000000 0.219258 0.812311
0.000000 0.637271 0.979271
0.000000 0.590378 1.000000
0.129179 0.488013 1.000000
0.312035 0.366028 1.000000
0.528735 0.278857 0.957851
0.778495 0.262204 0.933430
0.984026 0.264124 0.895541
1.000000 0.294738 0.830306
1.000000 0.362458 0.795890
0.000000 0.811498 0.934492
0.000000 0.818351 1.000000
0.123229 0.738424 1.000000
0.299412 0.642491 1.000000
0.473541 0.503149 0.980805
0.731112 0.420302 0.911028
0.945317 0.422043 0.851092
1.000000 0.440213 0.785302
1.000000 0.496277 0.760593
0.000000 0.915819 0.857106
0.000000 0.954669 0.925660
0.118401 0.913509 0.919309
0.282231 0.851125 0.905763
0.446195 0.772617 0.898813
0.617929 0.618809 0.908273
0.883432 0.563949 0.775905
0.988887 0.575393 0.720468
0.986105 0.611260 0.719500
0.000000 0.904865 0.707051
0.000000 0.961231 0.758664
0.115028 0.930587 0.753000
0.273516 0.903604 0.753771
0.428603 0.879526 0.755130
0.580256 0.859417 0.755261
0.815915 0.731430 0.639617
0.927619 0.705598 0.662557
0.940947 0.728164 0.696924
0.000000 0.969102 0.658701
0.054691 0.954561 0.661717
0.185106 0.944060 0.671654
0.308912 0.936869 0.679980
0.425249 0.931304 0.681445
0.555492 0.900276 0.666374
0.717656 0.885132 0.641301
0.932400 0.927908 0.789184
0.932400 0.932400 0.891119
0.000000 0.962397 0.626514
0.112485 0.950288 0.640520
0.237227 0.941081 0.654738
0.356506 0.935130 0.668170
0.471728 0.932535 0.678049
0.594796 0.932400 0.680315
0.732235 0.932400 0.680315
0.870018 0.932400 0.680783
0.932400 0.932400 0.884683
0.000661 0.102560 1.000000
0.089081 0.001000 1.000000
0.270825 0.001000 1.000000
0.436563 0.000000 0.978878
0.587949 0.000000 0.966809
0.734384 0.000000 0.966529
0.882359 0.000000 0.966269
1.000000 0.000000 0.965962
1.000000 0.000000 0.965810
0.000000 0.270860 1.000000
0.105391 0.196645 1.000000
0.200452 0.076798 1.000000
0.393445 0.036951 1.000000
0.593604 0.018622 1.000000
0.784321 0.007711 1.000000
0.977015 0.000000 1.000000
1.000000 0.028495 1.000000
1.000000 0.085981 0.964623
0.000000 0.435162 1.000000
0.086351 0.382411 1.000000
0.225790 0.302140 1.000000
0.344923 0.187552 1.000000
0.554035 0.156657 1.000000
0.757230 0.139703 1.000000
0.959222 0.128053 1.000000
1.000000 0.152783 1.000000
1.000000 0.217560 0.963560
0.000000 0.627865 1.000000
0.070875 0.572210 1.000000
0.222228 0.511263 1.000000
0.359608 0.418964 1.000000
0.505947 0.311823 1.000000
0.725815 0.285104 1.000000
0.939096 0.276806 1.000000
1.000000 0.293080 1.000000
1.000000 0.361209 0.943298
0.000000 0.793438 1.000000
0.079069 0.745661 1.000000
0.226545 0.695287 1.000000
0.370220 0.635472 1.000000
0.513893 0.549883 1.000000
0.681612 0.455327 1.000000
0.893504 0.434419 1.000000
1.000000 0.437590 0.967485
1.000000 0.493680 0.899843
0.000000 0.915233 0.976942
0.080194 0.874733 0.974577
0.222809 0.835635 0.972854
0.362188 0.791758 0.974130
0.496763 0.736574 0.982326
0.646603 0.657721 0.972289
0.824113 0.575678 0.950185
0.981846 0.571297 0.896594
0.981013 0.608104 0.851285
0.000000 0.958665 0.920654
0.091360 0.944976 0.908802
0.239943 0.936491 0.908607
0.356456 0.932891 0.927818
0.490994 0.904122 0.932465
0.637941 0.848511 0.917944
0.765590 0.752170 0.899359
0.918577 0.692664 0.831764
0.940469 0.718206 0.816103
0.000000 0.964551 0.790180
0.083894 0.948926 0.774905
0.226663 0.939167 0.784713
0.363130 0.933607 0.800229
0.500261 0.932400 0.818544
0.637808 0.932400 0.836163
0.780068 0.927580 0.848456
0.897732 0.851645 0.790640
0.932400 0.855625 0.818785
0.014000 0.956578 0.714890
0.149089 0.945217 0.728777
0.280299 0.937167 0.744853
0.408234 0.932954 0.763602
0.532299 0.932400 0.784538
0.647357 0.932400 0.803136
0.746538 0.932400 0.811391
0.869675 0.932400 0.809101
0.932400 0.932400 0.932400
0.097287 0.191313 1.000000
0.144554 0.078914 1.000000
0.284884 0.047393 1.000000
0.433346 0.018815 1.000000
0.585263 0.000000 1.000000
0.733802 0.000000 1.000000
0.882048 0.000000 1.000000
1.000000 0.000000 1.000000
1.000000 0.000000 1.000000
0.084972 0.334210 1.000000
0.216892 0.296973 1.000000
0.278866 0.194946 1.000000
0.420058 0.158010 1.000000
0.571360 0.126121 1.000000
0.725477 0.106427 1.000000
0.878088 0.096871 1.000000
1.000000 0.087396 1.000000
1.000000 0.083168 1.000000
0.067402 0.471298 1.000000
0.214323 0.450278 1.000000
0.348917 0.413648 1.000000
0.412271 0.307807 1.000000
0.557176 0.265491 1.000000
0.714954 0.234612 1.000000
0.874142 0.224222 1.000000
1.000000 0.218359 1.000000
1.000000 0.215984 1.000000
0.063586 0.619525 1.000000
0.214441 0.592637 1.000000
0.361353 0.571133 1.000000
0.491596 0.537414 1.000000
0.559040 0.435045 1.000000
0.705249 0.387449 1.000000
0.863412 0.365901 1.000000
1.000000 0.361814 1.000000
1.000000 0.359936 1.000000
0.071431 0.747164 1.000000
0.218347 0.717889 1.000000
0.359696 0.690644 1.000000
0.494216 0.667551 1.000000
0.612743 0.638780 1.000000
0.687623 0.552396 1.000000
0.828482 0.506276 1.000000
0.969643 0.494922 1.000000
1.000000 0.491169 1.000000
0.073695 0.847603 0.990628
0.216094 0.818888 0.982946
0.354067 0.791887 0.975335
0.486091 0.767382 0.967779
0.609930 0.747029 0.960037
0.716043 0.724454 0.956176
0.785377 0.641563 0.987489
0.917266 0.609598 0.983424
0.976273 0.605166 0.976273
0.069812 0.937204 0.948356
0.209544 0.911456 0.943444
0.347354 0.887607 0.939186
0.482678 0.866488 0.935716
0.613944 0.849581 0.933289
0.737346 0.839348 0.932400
0.835678 0.828250 0.932400
0.878589 0.722186 0.940918
0.938240 0.716504 0.938240
0.059882 0.947489 0.900389
0.199659 0.938320 0.911954
0.338489 0.933211 0.926637
0.478289 0.932400 0.932400
0.618394 0.932400 0.932400
0.757161 0.932400 0.932400
0.888238 0.932400 0.932400
0.932400 0.932400 0.932400
0.932400 0.846118 0.932400
0.039309 0.951701 0.805402
0.177637 0.941332 0.817947
0.314152 0.934666 0.833322
0.450830 0.932400 0.852418
0.588269 0.932400 0.873534
0.725708 0.932400 0.894651
0.863147 0.932400 0.915767
0.932400 0.932400 0.932400
0.932400 0.932400 0.932400
