assets/luts/moa_warm_sunset.cube
TITLE "MOA Warm Sunset"
LUT_3D_SIZE 33
DOMAIN_MIN 0.0 0.0 0.0
DOMAIN_MAX 1.0 1.0 1.0
0.007608 0.005739 0.004511
0.048255 0.001000 0.001204
0.085069 0.001000 0.001364
0.121883 0.001000 0.001523
0.158697 0.001000 0.001682
0.195511 0.001000 0.001841
0.232326 0.001000 0.002001
0.269140 0.001000 0.002160
0.305954 0.001000 0.002319
0.342768 0.001000 0.002478
0.379582 0.001000 0.002638
0.416396 0.001000 0.002797
0.453210 0.001000 0.002956
0.490024 0.001000 0.003115
0.526838 0.001000 0.003275
0.563652 0.001000 0.003434
0.600466 0.001000 0.003593
0.637280 0.001000 0.003752
0.674061 0.000896 0.003808
0.710796 0.000613 0.003685
0.747509 0.000155 0.003388
0.784220 0.000000 0.002924
0.820947 0.000000 0.002300
0.857711 0.000000 0.001521
0.894528 0.000000 0.000594
0.931416 0.000000 0.000000
0.968391 0.000000 0.000000
1.000000 0.000000 0.000000
1.000000 0.000000 0.000000
1.000000 0.000000 0.000000
1.000000 0.000000 0.000000
1.000000 0.000000 0.000000
1.000000 0.000000 0.001351
0.001000 0.036913 0.001000
0.264677 0.218910 0.000000
0.315405 0.118294 0.000618
0.263098 0.069057 0.001000
0.262558 0.051894 0.001000
0.275277 0.043841 0.001000
0.296071 0.039533 0.001000
0.321740 0.036977 0.001000
0.350465 0.035331 0.001000
0.381194 0.034196 0.001000
0.413292 0.033369 0.001000
0.446360 0.032735 0.001000
0.480137 0.032228 0.001000
0.514444 0.031809 0.001000
0.549151 0.031434 0.000983
0.584122 0.030974 0.000834
0.619297 0.030395 0.000528
0.654644 0.029691 0.000069
0.690144 0.028857 0.000000
0.725784 0.027894 0.000000
0.761560 0.026802 0.000000
0.797471 0.025582 0.000000
0.833517 0.024239 0.000000
0.869702 0.022774 0.000000
0.906032 0.021192 0.000000
0.942513 0.019498 0.000000
0.979151 0.017696 0.000000
1.000000 0.015791 0.000000
1.000000 0.013787 0.000000
1.000000 0.011690 0.000000
1.000000 0.010970 0.000000
1.000000 0.010826 0.000000
1.000000 0.024952 0.000000
0.001000 0.072825 0.001000
0.038107 0.073348 0.001000
0.296979 0.244621 0.000000
0.402374 0.193090 0.000000
0.387021 0.142978 0.000000
0.370629 0.114048 0.000073
0.373372 0.097493 0.000733
0.389487 0.087249 0.000868
0.409746 0.080441 0.000884
0.433204 0.075737 0.000836
0.459197 0.072335 0.000722
0.487140 0.069745 0.000526
0.516583 0.067661 0.000230
0.547192 0.065883 0.000000
0.578719 0.064285 0.000000
0.610986 0.062780 0.000000
0.643857 0.061310 0.000000
0.677236 0.059834 0.000000
0.711048 0.058327 0.000000
0.745240 0.056769 0.000000
0.779772 0.055148 0.000000
0.814615 0.053456 0.000000
0.849746 0.051689 0.000000
0.885150 0.049845 0.000000
0.920816 0.047921 0.000000
0.956736 0.045920 0.000000
0.992904 0.043843 0.000000
1.000000 0.041692 0.000000
1.000000 0.039471 0.000000
1.000000 0.037269 0.000000
1.000000 0.037103 0.000000
1.000000 0.036942 0.000000
1.000000 0.057468 0.000000
0.001000 0.108738 0.001000
0.037814 0.108738 0.001000
0.115102 0.159990 0.000987
0.328888 0.269773 0.000000
0.440068 0.237562 0.000000
0.458321 0.194842 0.000000
0.457536 0.165393 0.000000
0.457285 0.145553 0.000000
0.465223 0.132046 0.000000
0.481608 0.122393 0.000000
0.504122 0.115009 0.000000
0.528695 0.109252 0.000000
0.554809 0.104651 0.000000
0.582317 0.100854 0.000000
0.611039 0.097613 0.000000
0.640803 0.094756 0.000000
0.671462 0.092160 0.000000
0.702892 0.089738 0.000000
0.734995 0.087427 0.000000
0.767690 0.085183 0.000000
0.800914 0.082971 0.000000
0.834615 0.080769 0.000000
0.868753 0.078559 0.000000
0.903295 0.076330 0.000000
0.938215 0.074072 0.000000
0.973492 0.071782 0.000000
1.000000 0.069455 0.000000
1.000000 0.067091 0.000000
1.000000 0.064688 0.000000
1.000000 0.063203 0.000000
1.000000 0.062979 0.000000
1.000000 0.066704 0.000000
1.000000 0.090050 0.001474
0.001000 0.144651 0.001000
0.037814 0.144651 0.001000
0.074946 0.145173 0.001000
0.193797 0.234140 0.000000
0.360770 0.294726 0.000000
0.468731 0.271759 0.000000
0.505755 0.235298 0.000000
0.519861 0.206960 0.000000
0.527871 0.186245 0.000000
0.536288 0.171045 0.000000
0.548962 0.159709 0.000000
0.566698 0.150934 0.000000
0.588998 0.143785 0.000000
0.614917 0.137651 0.000000
0.642221 0.132416 0.000000
0.670440 0.127904 0.000000
0.699552 0.123931 0.000000
0.729501 0.120355 0.000000
0.760222 0.117075 0.000000
0.791649 0.114010 0.000000
0.823721 0.111104 0.000000
0.856387 0.108311 0.000000
0.889598 0.105599 0.000000
0.923317 0.102942 0.000000
0.957508 0.100322 0.000000
0.992143 0.097726 0.000000
1.000000 0.095142 0.000000
1.000000 0.092565 0.000000
1.000000 0.089990 0.000000
1.000000 0.089357 0.000000
1.000000 0.089021 0.000000
1.000000 0.101045 0.000000
1.000000 0.122882 0.004773
0.001000 0.180563 0.001000
0.037812 0.180561 0.000998
0.074514 0.180462 0.000876
0.126771 0.201702 0.000000
0.258186 0.288278 0.000000
0.392938 0.319800 0.000000
0.496140 0.301800 0.000000
0.544039 0.270218 0.000000
0.568976 0.243256 0.000000
0.585216 0.222298 0.000000
0.598778 0.206172 0.000000
0.612624 0.193661 0.000000
0.628996 0.183785 0.000000
0.648657 0.175746 0.000000
0.671551 0.168947 0.000000
0.697341 0.162956 0.000000
0.725587 0.157474 0.000000
0.754955 0.152529 0.000000
0.784962 0.148089 0.000000
0.815620 0.144043 0.000000
0.846918 0.140305 0.000000
0.878829 0.136809 0.000000
0.911327 0.133501 0.000000
0.944379 0.130341 0.000000
0.977957 0.127299 0.000000
1.000000 0.124349 0.000000
1.000000 0.121473 0.000000
1.000000 0.118658 0.000000
1.000000 0.116692 0.000000
1.000000 0.116119 0.000000
1.000000 0.115926 0.000000
1.000000 0.135560 0.000000
1.000000 0.156116 0.009153
0.000460 0.216053 0.000460
0.036792 0.215644 0.000000
0.073011 0.215107 0.000000
0.109435 0.214927 0.000000
0.182571 0.258793 0.000000
0.314672 0.333294 0.000000
0.425657 0.345272 0.000000
0.524291 0.330171 0.000000
0.578760 0.302349 0.000000
0.611589 0.276781 0.000000
0.634584 0.255855 0.000000
0.653406 0.239130 0.000000
0.670840 0.225753 0.000000
0.688496 0.214957 0.000000
0.707808 0.206101 0.000000
0.729408 0.198649 0.000000
0.753397 0.192186 0.000000
0.779649 0.186401 0.000000
0.807950 0.181064 0.000000
0.838060 0.176006 0.000000
0.869178 0.171280 0.000000
0.900798 0.166941 0.000000
0.932939 0.162916 0.000000
0.965603 0.159150 0.000000
0.998783 0.155596 0.000000
1.000000 0.152217 0.000000
1.000000 0.148986 0.000000
1.000000 0.145879 0.000000
1.000000 0.144715 0.000000
1.000000 0.143848 0.000000
1.000000 0.152108 0.000000
1.000000 0.170431 0.000000
1.000000 0.189851 0.014640
0.000000 0.250252 0.000000
0.034063 0.249475 0.000000
0.069926 0.248590 0.000000
0.105752 0.247601 0.000000
0.149837 0.258251 0.000000
0.236478 0.309495 0.000000
0.367155 0.374346 0.000000
0.459140 0.371377 0.000000
0.553767 0.358079 0.000000
0.612346 0.333176 0.000000
0.651010 0.308936 0.000000
0.679502 0.288215 0.000000
0.702947 0.271104 0.000000
0.724101 0.257065 0.000000
0.744472 0.245501 0.000000
0.765039 0.235899 0.000000
0.786782 0.227808 0.000000
0.810208 0.220845 0.000000
0.835470 0.214707 0.000000
0.862541 0.209156 0.000000
0.891313 0.204014 0.000000
0.921644 0.199142 0.000000
0.953380 0.194440 0.000000
0.986056 0.189944 0.000000
1.000000 0.185767 0.000000
1.000000 0.181862 0.000000
1.000000 0.178189 0.000000
1.000000 0.175563 0.000000
1.000000 0.174139 0.000000
1.000000 0.172878 0.000000
1.000000 0.188646 0.000000
1.000000 0.205772 0.000000
1.000000 0.224129 0.021204
0.000000 0.283462 0.000000
0.029837 0.282401 0.000000
0.065462 0.281252 0.000000
0.101102 0.280019 0.000000
0.137054 0.279158 0.000000
0.194263 0.304739 0.000000
0.288909 0.355856 0.000000
0.417827 0.413940 0.000000
0.493552 0.398308 0.000000
0.584731 0.386187 0.000000
0.645944 0.363583 0.000000
0.688994 0.340577 0.000000
0.721965 0.320178 0.000000
0.749420 0.302850 0.000000
0.773979 0.288313 0.000000
0.797176 0.276126 0.000000
0.819918 0.265867 0.000000
0.842848 0.257170 0.000000
0.866668 0.249704 0.000000
0.891784 0.243183 0.000000
0.918355 0.237373 0.000000
0.946403 0.232089 0.000000
0.975880 0.227186 0.000000
1.000000 0.222551 0.000000
1.000000 0.218096 0.000000
1.000000 0.213754 0.000000
1.000000 0.209544 0.000000
1.000000 0.207280 0.000000
1.000000 0.205290 0.000000
1.000000 0.211047 0.000000
1.000000 0.225652 0.000000
1.000000 0.241622 0.000000
1.000000 0.258933 0.028739
0.000000 0.316006 0.000000
0.024325 0.314740 0.000000
0.059825 0.313403 0.000000
0.095384 0.312001 0.000000
0.131018 0.310537 0.000000
0.172230 0.316800 0.000000
0.240508 0.350460 0.000000
0.340866 0.400059 0.000000
0.467056 0.452523 0.000000
0.529005 0.426217 0.000000
0.617204 0.414892 0.000000
0.680114 0.394130 0.000000
0.726502 0.372256 0.000000
0.763135 0.352261 0.000000
0.794047 0.334854 0.000000
0.821675 0.319963 0.000000
0.847520 0.307286 0.000000
0.872518 0.296482 0.000000
0.897255 0.287239 0.000000
0.922178 0.279289 0.000000
0.947807 0.272378 0.000000
0.974468 0.266284 0.000000
1.000000 0.260823 0.000000
1.000000 0.255845 0.000000
1.000000 0.251230 0.000000
1.000000 0.246882 0.000000
1.000000 0.243513 0.000000
1.000000 0.240920 0.000000
1.000000 0.238443 0.000000
1.000000 0.249840 0.000000
1.000000 0.263155 0.000000
1.000000 0.277953 0.006893
1.000000 0.294194 0.037072
0.000000 0.348178 0.000000
0.017739 0.346776 0.000000
0.053217 0.345322 0.000000
0.088794 0.343817 0.000000
0.124484 0.342268 0.000000
0.160586 0.341122 0.000000
0.211447 0.358248 0.000000
0.288385 0.395414 0.000000
0.393099 0.443557 0.000000
0.509128 0.484582 0.000000
0.565561 0.455213 0.000000
0.651137 0.444438 0.000000
0.715116 0.425178 0.000000
0.764061 0.404340 0.000000
0.803694 0.384804 0.000000
0.837572 0.367433 0.000000
0.867934 0.352317 0.000000
0.896216 0.339270 0.000000
0.923347 0.328028 0.000000
0.949937 0.318330 0.000000
0.976389 0.309941 0.000000
1.000000 0.302653 0.000000
1.000000 0.296270 0.000000
1.000000 0.290612 0.000000
1.000000 0.285531 0.000000
1.000000 0.281234 0.000000
1.000000 0.278068 0.000000
1.000000 0.275202 0.000000
1.000000 0.278753 0.000000
1.000000 0.289137 0.000000
1.000000 0.301128 0.000000
1.000000 0.314672 0.014873
1.000000 0.329565 0.045927
0.000000 0.380238 0.000000
0.010292 0.378764 0.000000
0.045843 0.377252 0.000000
0.081528 0.375707 0.000000
0.117359 0.374131 0.000000
0.153346 0.372528 0.000000
0.193789 0.376798 0.000000
0.253910 0.401298 0.000000
0.338093 0.440278 0.000000
0.446052 0.487214 0.000000
0.550846 0.516709 0.000000
0.603054 0.485220 0.000000
0.685764 0.474501 0.000000
0.750238 0.456467 0.000000
0.801309 0.436726 0.000000
0.843630 0.417836 0.000000
0.880227 0.400700 0.000000
0.913116 0.385527 0.000000
0.943661 0.372246 0.000000
0.972791 0.360677 0.000000
1.000000 0.350616 0.000000
1.000000 0.341861 0.000000
1.000000 0.334233 0.000000
1.000000 0.327568 0.000000
1.000000 0.321843 0.000000
1.000000 0.317466 0.000000
1.000000 0.313648 0.000000
1.000000 0.312365 0.000000
1.000000 0.319703 0.000000
1.000000 0.328674 0.000000
1.000000 0.339161 0.000000
1.000000 0.351061 0.025614
1.000000 0.364282 0.056305
0.000000 0.412414 0.000000
0.002195 0.410924 0.000000
0.037907 0.409410 0.000000
0.073782 0.407876 0.000000
0.109831 0.406325 0.000000
0.146062 0.404761 0.000000
0.182794 0.403643 0.000000
0.231211 0.416516 0.000000
0.299482 0.445538 0.000000
0.389765 0.485628 0.000000
0.499398 0.530935 0.000000
0.590741 0.547560 0.000000
0.639764 0.514910 0.000000
0.719296 0.503972 0.000000
0.783582 0.486935 0.000000
0.836038 0.468241 0.000000
0.880480 0.450122 0.000000
0.919452 0.433450 0.000000
0.954700 0.418486 0.000000
0.987438 0.405223 0.000000
1.000000 0.393540 0.000000
1.000000 0.383275 0.000000
1.000000 0.374264 0.000000
1.000000 0.366355 0.000000
1.000000 0.360218 0.000000
1.000000 0.354913 0.000000
1.000000 0.350316 0.000000
1.000000 0.354180 0.000000
1.000000 0.359894 0.000000
1.000000 0.367264 0.000000
1.000000 0.376167 0.010138
1.000000 0.386489 0.039714
1.000000 0.398128 0.069932
0.000000 0.444903 0.000000
0.000000 0.443447 0.000000
0.029612 0.441978 0.000000
0.065751 0.440502 0.000000
0.102087 0.439020 0.000000
0.138626 0.437537 0.000000
0.175372 0.436056 0.000000
0.216091 0.439472 0.000000
0.272593 0.458917 0.000000
0.348123 0.491018 0.000000
0.443269 0.531659 0.000000
0.550294 0.571987 0.000000
0.628795 0.577157 0.000000
0.675113 0.543866 0.000000
0.751465 0.532732 0.000000
0.815018 0.516526 0.000000
0.868134 0.498777 0.000000
0.913957 0.481415 0.000000
0.954625 0.465254 0.000000
0.991638 0.450583 0.000000
1.000000 0.437440 0.000000
1.000000 0.425748 0.000000
1.000000 0.415386 0.000000
1.000000 0.406797 0.000000
1.000000 0.399538 0.000000
1.000000 0.393203 0.000000
1.000000 0.392063 0.000000
1.000000 0.394348 0.000000
1.000000 0.398506 0.000000
1.000000 0.404364 0.000000
1.000000 0.411777 0.027026
1.000000 0.420621 0.056256
1.000000 0.430782 0.086016
0.000000 0.477872 0.000000
0.000000 0.476490 0.000000
0.021163 0.475107 0.000000
0.057632 0.473727 0.000000
0.094316 0.472352 0.000000
0.131218 0.470986 0.000000
0.168341 0.469631 0.000000
0.206043 0.468772 0.000000
0.253846 0.479405 0.000000
0.317832 0.503495 0.000000
0.399674 0.537759 0.000000
0.495843 0.575490 0.000000
0.598121 0.610081 0.000000
0.664825 0.605332 0.000000
0.708911 0.571978 0.000000
0.782052 0.560629 0.000000
0.844432 0.545099 0.000000
0.897628 0.528223 0.000000
0.944213 0.511629 0.000000
0.985981 0.496041 0.000000
1.000000 0.481748 0.000000
1.000000 0.468818 0.000000
1.000000 0.457337 0.000000
1.000000 0.447914 0.000000
1.000000 0.439573 0.000000
1.000000 0.433565 0.000000
1.000000 0.431982 0.000000
1.000000 0.432653 0.000000
1.000000 0.435310 0.000000
1.000000 0.439733 0.016464
1.000000 0.445737 0.045186
1.000000 0.453116 0.074085
1.000000 0.461709 0.103172
0.000000 0.511454 0.000000
0.000000 0.510181 0.000000
0.012763 0.508917 0.000000
0.049620 0.507664 0.000000
0.086704 0.506426 0.000000
0.124018 0.505205 0.000000
0.161560 0.504004 0.000000
0.199333 0.502827 0.000000
0.240887 0.505985 0.000000
0.295958 0.522467 0.000000
0.366723 0.549923 0.000000
0.451682 0.582891 0.000000
0.546000 0.615971 0.000000
0.641773 0.644390 0.000000
0.698217 0.631384 0.000000
0.740661 0.598608 0.000000
0.810617 0.586896 0.000000
0.871584 0.571873 0.000000
0.924477 0.555762 0.000000
0.971380 0.539905 0.000000
1.000000 0.524929 0.000000
1.000000 0.511094 0.000000
1.000000 0.499027 0.000000
1.000000 0.488917 0.000000
1.000000 0.479787 0.000000
1.000000 0.473361 0.000000
1.000000 0.469925 0.000000
1.000000 0.468899 0.000000
1.000000 0.469966 0.004902
1.000000 0.472859 0.033760
1.000000 0.477344 0.062480
1.000000 0.483221 0.091095
1.000000 0.490324 0.119671
0.000000 0.545752 0.000000
0.000000 0.544615 0.000000
0.004617 0.543494 0.000000
0.041911 0.542393 0.000000
0.079441 0.541314 0.000000
0.117205 0.540260 0.000000
0.155202 0.539233 0.000000
0.193431 0.538237 0.000000
0.232302 0.537785 0.000000
0.280382 0.547195 0.000000
0.342114 0.567808 0.000000
0.416907 0.595002 0.000000
0.502209 0.624627 0.000000
0.592456 0.652438 0.000000
0.681124 0.674902 0.000000
0.729120 0.655423 0.000000
0.770157 0.623394 0.000000
0.837166 0.611413 0.000000
0.896612 0.596810 0.000000
0.948935 0.581346 0.000000
0.995823 0.566130 0.000000
1.000000 0.551698 0.000000
1.000000 0.539206 0.000000
1.000000 0.528650 0.000000
1.000000 0.518878 0.000000
1.000000 0.510586 0.000000
1.000000 0.505272 0.000000
1.000000 0.502520 0.000000
1.000000 0.501984 0.019251
1.000000 0.503370 0.048531
1.000000 0.506427 0.077522
1.000000 0.510941 0.106260
1.000000 0.516721 0.134765
0.000000 0.580836 0.000000
0.000000 0.579854 0.000000
0.000000 0.578896 0.000000
0.034701 0.577964 0.000000
0.072713 0.577060 0.000000
0.110959 0.576186 0.000000
0.149438 0.575346 0.000000
0.188144 0.574541 0.000000
0.227071 0.573774 0.000000
0.269694 0.576923 0.000000
0.323891 0.590613 0.000000
0.389951 0.611736 0.000000
0.466552 0.636889 0.000000
0.549764 0.662288 0.000000
0.634411 0.684553 0.000000
0.716859 0.702329 0.000000
0.757825 0.677705 0.000000
0.797586 0.646481 0.000000
0.861886 0.634329 0.000000
0.919772 0.620092 0.000000
0.971346 0.605184 0.000000
1.000000 0.590526 0.000000
1.000000 0.577644 0.000000
1.000000 0.566883 0.000000
1.000000 0.556047 0.000000
1.000000 0.545586 0.000000
1.000000 0.538343 0.000000
1.000000 0.533849 0.000412
1.000000 0.531720 0.030840
1.000000 0.531633 0.060728
1.000000 0.533313 0.090162
1.000000 0.536530 0.119202
1.000000 0.541081 0.147886
0.000000 0.616744 0.000000
0.000000 0.615931 0.000000
0.000000 0.615147 0.000000
0.028186 0.614393 0.000000
0.066708 0.613672 0.000000
0.105461 0.612986 0.000000
0.144431 0.612301 0.000000
0.183570 0.611510 0.000000
0.222843 0.610611 0.000000
0.262684 0.610124 0.000000
0.310617 0.617368 0.000000
0.369307 0.632559 0.000000
0.438050 0.652818 0.000000
0.513861 0.674725 0.000000
0.593012 0.695347 0.000000
0.672509 0.713133 0.000000
0.748806 0.726500 0.000000
0.784693 0.698541 0.000000
0.823211 0.668081 0.000000
0.885045 0.655851 0.000000
0.941387 0.641948 0.000000
0.992103 0.627527 0.000000
1.000000 0.614207 0.000000
1.000000 0.603497 0.000000
1.000000 0.591704 0.000000
1.000000 0.578910 0.000000
1.000000 0.569631 0.000000
1.000000 0.563333 0.008227
1.000000 0.559584 0.039664
1.000000 0.558022 0.070355
1.000000 0.558348 0.100414
1.000000 0.560307 0.129924
1.000000 0.563683 0.158947
0.000000 0.653485 0.000000
0.000000 0.652846 0.000000
0.000000 0.652239 0.000000
0.022559 0.651590 0.000000
0.061584 0.650814 0.000000
0.100778 0.649919 0.000000
0.140105 0.648912 0.000000
0.179529 0.647802 0.000000
0.219015 0.646596 0.000000
0.258527 0.645302 0.000000
0.301318 0.647064 0.000000
0.353765 0.656730 0.000000
0.415491 0.672007 0.000000
0.484151 0.689890 0.000000
0.557276 0.707966 0.000000
0.632462 0.724630 0.000000
0.707563 0.739090 0.000000
0.775658 0.746080 0.000000
0.810154 0.718302 0.000000
0.847372 0.688467 0.000000
0.906985 0.676248 0.000000
0.961845 0.662664 0.000000
1.000000 0.648858 0.000000
1.000000 0.638470 0.000000
1.000000 0.626507 0.000000
1.000000 0.611128 0.000000
1.000000 0.599639 0.000000
1.000000 0.591423 0.013077
1.000000 0.585982 0.045735
1.000000 0.582910 0.077429
1.000000 0.581870 0.108299
1.000000 0.582583 0.138455
1.000000 0.584812 0.167982
0.000000 0.690899 0.000000
0.000000 0.690131 0.000000
0.000000 0.689232 0.000000
0.017984 0.688210 0.000000
0.057426 0.687073 0.000000
0.096965 0.685829 0.000000
0.136566 0.684485 0.000000
0.176192 0.683048 0.000000
0.215810 0.681527 0.000000
0.255383 0.679929 0.000000
0.295392 0.678726 0.000000
0.342431 0.683423 0.000000
0.397704 0.693811 0.000000
0.459764 0.707553 0.000000
0.526884 0.722600 0.000000
0.597172 0.737414 0.000000
0.668866 0.751114 0.000000
0.740542 0.763435 0.000000
0.801740 0.765239 0.000000
0.834712 0.737417 0.000000
0.870482 0.707975 0.000000
0.928127 0.695850 0.000000
0.981604 0.682581 0.000000
0.997435 0.671876 0.000000
1.000000 0.661190 0.000000
1.000000 0.642849 0.000000
1.000000 0.628892 0.000000
1.000000 0.618577 0.014985
1.000000 0.611322 0.049075
1.000000 0.606660 0.081973
1.000000 0.604209 0.113844
1.000000 0.603656 0.144823
1.000000 0.604740 0.175019
0.000000 0.727503 0.000000
0.000000 0.726333 0.000000
0.000000 0.725043 0.000000
0.014669 0.723642 0.000000
0.054442 0.722138 0.000000
0.094241 0.720537 0.000000
0.134030 0.718849 0.000000
0.173774 0.717079 0.000000
0.213439 0.715236 0.000000
0.252945 0.713309 0.000000
0.292191 0.711278 0.000000
0.334178 0.711602 0.000000
0.383685 0.717526 0.000000
0.439805 0.727285 0.000000
0.501235 0.739141 0.000000
0.566508 0.751695 0.000000
0.634208 0.764060 0.000000
0.703172 0.775895 0.000000
0.772559 0.787275 0.000000
0.827726 0.784585 0.000000
0.858940 0.756378 0.000000
0.893034 0.727007 0.000000
0.948969 0.715047 0.000000
0.981010 0.703861 0.000000
0.985785 0.694387 0.000000
0.994044 0.674755 0.000000
1.000000 0.657949 0.000000
1.000000 0.645272 0.013984
1.000000 0.636018 0.049715
1.000000 0.629638 0.084014
1.000000 0.625691 0.117074
1.000000 0.623820 0.149054
1.000000 0.623731 0.180087
0.000000 0.762770 0.000000
0.000000 0.761191 0.000000
0.000000 0.759505 0.000000
0.012818 0.757719 0.000000
0.052833 0.755842 0.000000
0.092801 0.753880 0.000000
0.132597 0.751816 0.000000
0.172147 0.749644 0.000000
0.211438 0.747370 0.000000
0.250454 0.745001 0.000000
0.289183 0.742542 0.000000
0.328124 0.740398 0.000000
0.372624 0.742470 0.000000
0.423467 0.748588 0.000000
0.479662 0.757319 0.000000
0.540077 0.767452 0.000000
0.603594 0.778153 0.000000
0.669281 0.789049 0.000000
0.736503 0.800183 0.000000
0.804861 0.811814 0.000000
0.854356 0.804773 0.000000
0.883487 0.775735 0.000000
0.915595 0.746026 0.000000
0.966421 0.734599 0.000000
0.970378 0.725903 0.000000
0.977842 0.707666 0.000000
0.985811 0.687442 0.000000
0.991657 0.672021 0.010113
0.995656 0.660503 0.047685
0.998082 0.652217 0.083579
0.999177 0.646642 0.118013
0.999142 0.643361 0.151171
0.998145 0.642039 0.183208
0.000000 0.796538 0.000000
0.000000 0.794546 0.000000
0.000000 0.792457 0.000000
0.012438 0.790253 0.000000
0.052302 0.787937 0.000000
0.091919 0.785516 0.000000
0.131274 0.782996 0.000000
0.170354 0.780384 0.000000
0.209147 0.777688 0.000000
0.247641 0.774913 0.000000
0.285828 0.772068 0.000000
0.323700 0.769158 0.000000
0.363888 0.768055 0.000000
0.410072 0.770972 0.000000
0.461531 0.776804 0.000000
0.517392 0.784538 0.000000
0.576784 0.793438 0.000000
0.638976 0.803140 0.000000
0.703495 0.813662 0.000000
0.770141 0.825292 0.000000
0.838831 0.838357 0.000000
0.882432 0.826513 0.000000
0.909073 0.796103 0.000000
0.938809 0.765559 0.000000
0.957119 0.756740 0.000000
0.962358 0.742654 0.000000
0.971277 0.718132 0.000000
0.978200 0.699408 0.003414
0.983233 0.685247 0.043020
0.986591 0.674790 0.080697
0.988508 0.667395 0.116685
0.989195 0.662568 0.151193
0.988836 0.659917 0.184398
0.000000 0.828618 0.000000
0.000000 0.826156 0.000000
0.000000 0.823585 0.000000
0.012312 0.820913 0.000000
0.051751 0.818146 0.000000
0.090912 0.815293 0.000000
0.129786 0.812359 0.000000
0.168361 0.809353 0.000000
0.206629 0.806282 0.000000
0.244583 0.803152 0.000000
0.282217 0.799971 0.000000
0.319527 0.796747 0.000000
0.357007 0.793821 0.000000
0.399083 0.794021 0.000000
0.446296 0.797272 0.000000
0.497972 0.802759 0.000000
0.553436 0.809866 0.000000
0.612132 0.818271 0.000000
0.673721 0.827985 0.000000
0.738137 0.839301 0.000000
0.805518 0.852642 0.000000
0.875984 0.868311 0.000000
0.912828 0.850571 0.000000
0.936495 0.818156 0.000000
0.946492 0.787262 0.000000
0.948997 0.779290 0.000000
0.957608 0.751010 0.000000
0.965276 0.728139 0.000000
0.971211 0.710789 0.035753
0.975466 0.697785 0.075393
0.978214 0.688306 0.113111
0.979650 0.681742 0.149137
0.979962 0.677623 0.183671
0.000000 0.858750 0.000000
0.000000 0.855827 0.000000
0.000000 0.852814 0.000000
0.012171 0.849721 0.000000
0.051140 0.846553 0.000000
0.089810 0.843319 0.000000
0.128172 0.840026 0.000000
0.166221 0.836682 0.000000
0.203951 0.833294 0.000000
0.241358 0.829869 0.000000
0.278440 0.826416 0.000000
0.315195 0.822942 0.000000
0.351624 0.819453 0.000000
0.390088 0.817424 0.000000
0.433513 0.818455 0.000000
0.481387 0.821929 0.000000
0.533197 0.827355 0.000000
0.588527 0.834473 0.000000
0.647153 0.843309 0.000000
0.709107 0.854156 0.000000
0.774664 0.867484 0.000000
0.844211 0.883758 0.000000
0.917643 0.902870 0.000000
0.932440 0.877812 0.000000
0.934691 0.843471 0.000000
0.940261 0.810920 0.000000
0.945627 0.787293 0.000000
0.953310 0.759123 0.000000
0.959824 0.737778 0.025915
0.964835 0.721699 0.067695
0.968363 0.709769 0.107310
0.970540 0.701205 0.145016
0.971535 0.695426 0.181036
0.000000 0.886997 0.000000
0.000000 0.883667 0.000000
0.000000 0.880269 0.000000
0.012019 0.876812 0.000000
0.050486 0.873304 0.000000
0.088640 0.869752 0.000000
0.126474 0.866164 0.000000
0.163987 0.862549 0.000000
0.201177 0.858913 0.000000
0.238042 0.855265 0.000000
0.274585 0.851613 0.000000
0.310806 0.847965 0.000000
0.346710 0.844328 0.000000
0.382796 0.841006 0.000000
0.422840 0.840182 0.000000
0.467287 0.841916 0.000000
0.515745 0.845838 0.000000
0.567913 0.851763 0.000000
0.623664 0.859742 0.000000
0.683106 0.870074 0.000000
0.746599 0.883253 0.000000
0.814693 0.899840 0.000000
0.887228 0.919538 0.000000
0.932400 0.932400 0.000000
0.932400 0.906947 0.000000
0.932626 0.870470 0.000000
0.936671 0.828286 0.000000
