assets/luts/moa_city_night_warm.cube
TITLE "MOA City Night Warm"
LUT_3D_SIZE 5
DOMAIN_MIN 0.0 0.0 0.0
DOMAIN_MAX 1.0 1.0 1.0
0.000000 0.000000 0.000000
0.210428 0.000000 0.000000
0.512594 0.000000 0.000000
0.816624 0.000000 0.000000
1.000000 0.000000 0.000000
0.000000 0.153466 0.000000
0.324982 0.263676 0.000000
0.713567 0.209528 0.000000
1.000000 0.171924 0.000000
1.000000 0.240040 0.000000
0.000000 0.484586 0.000000
0.185180 0.499191 0.000000
0.695668 0.584773 0.000000
1.000000 0.532648 0.000000
1.000000 0.526018 0.045395
0.000000 0.841376 0.000000
0.184634 0.823771 0.000000
0.545071 0.823253 0.000000
0.947637 0.805860 0.000000
1.000000 0.717689 0.046914
0.000000 1.000000 0.000000
0.171448 1.000000 0.000000
0.479005 1.000000 0.000000
0.847761 1.000000 0.000000
1.000000 0.948404 0.000000
0.000000 0.000000 0.145659
0.164566 0.000000 0.145659
0.466732 0.000000 0.145659
0.771886 0.000000 0.146225
1.000000 0.000000 0.148143
0.000000 0.154074 0.138098
0.283900 0.098394 0.080572
0.649301 0.040100 0.037670
0.987906 0.044618 0.046937
1.000000 0.224007 0.226807
0.000000 0.489445 0.160704
0.105301 0.605333 0.071422
0.850343 0.726277 0.000000
1.000000 0.534259 0.121779
1.000000 0.563975 0.326361
0.000000 0.836357 0.165918
0.071741 0.916990 0.043688
0.502007 0.885121 0.042169
1.000000 0.886432 0.060163
1.000000 0.760150 0.343734
0.000000 1.000000 0.154086
0.170437 1.000000 0.150855
0.477936 1.000000 0.149155
0.814393 1.000000 0.176628
1.000000 0.976757 0.283341
0.000000 0.000000 0.428918
0.164566 0.000000 0.428918
0.466732 0.000000 0.428918
0.775373 0.000000 0.432530
1.000000 0.000000 0.439556
0.000000 0.215601 0.440818
0.035394 0.052809 0.558621
0.639277 0.006884 0.578975
0.946205 0.046010 0.450418
1.000000 0.172891 0.484642
0.000000 0.493864 0.458540
0.063531 0.636968 0.592804
0.738593 0.381998 0.344990
1.000000 0.424649 0.409135
1.000000 0.537436 0.527820
0.000000 0.830749 0.485298
0.065490 0.905470 0.455278
0.430066 0.861738 0.369045
0.995347 0.891410 0.373773
1.000000 0.817654 0.621390
0.000000 1.000000 0.450338
0.169601 1.000000 0.442040
0.477586 1.000000 0.438892
0.786779 1.000000 0.438892
1.000000 1.000000 0.573187
0.000000 0.000000 0.712176
0.156666 0.000000 0.712176
0.467085 0.000000 0.712715
0.779999 0.000000 0.722458
1.000000 0.000000 0.736096
0.000000 0.249276 0.745402
0.000000 0.037719 0.881599
0.500712 0.038078 0.865223
1.000000 0.000000 0.940435
1.000000 0.174224 0.810905
0.000000 0.589663 0.815601
0.000000 0.627642 1.000000
0.389845 0.390235 0.951369
1.000000 0.355283 0.948760
1.000000 0.491788 0.789498
0.000000 0.825228 0.771733
0.030191 0.922357 0.863628
0.382053 0.871114 0.820675
0.898445 0.736080 0.694220
1.000000 0.797011 0.776614
0.000000 1.000000 0.739925
0.168965 1.000000 0.731215
0.477586 1.000000 0.728739
0.786779 1.000000 0.728739
1.000000 1.000000 0.863033
0.000000 0.000000 0.995435
0.142500 0.000000 0.995435
0.468307 0.000000 0.998795
0.785619 0.000000 1.000000
1.000000 0.000000 1.000000
0.000000 0.275990 1.000000
0.174910 0.216013 1.000000
0.500363 0.164713 1.000000
0.866790 0.169831 1.000000
1.000000 0.175383 1.000000
0.000000 0.642748 1.000000
0.186169 0.605859 1.000000
0.528548 0.539908 1.000000
0.862728 0.495081 1.000000
1.000000 0.487670 1.000000
0.000000 0.887295 1.000000
0.172548 0.857076 1.000000
0.484247 0.825024 1.000000
0.792121 0.773039 1.000000
1.000000 0.752909 1.000000
0.000000 1.000000 0.997133
0.168582 1.000000 0.993566
0.477586 1.000000 1.000000
0.786779 1.000000 1.000000
1.000000 1.000000 1.000000
