assets/luts/moa_clear_sky.cube
TITLE "MOA Clear Sky"
LUT_3D_SIZE 9
DOMAIN_MIN 0.0 0.0 0.0
DOMAIN_MAX 1.0 1.0 1.0
0.076000 0.076000 0.076000
0.204566 0.076000 0.076000
0.333132 0.076000 0.076000
0.461698 0.076000 0.076000
0.590264 0.076000 0.076000
0.718533 0.075023 0.075023
0.846482 0.070464 0.070464
0.975615 0.062648 0.062648
1.000000 0.053941 0.053941
0.112902 0.390650 0.031116
0.308216 0.297155 0.048811
0.335727 0.207073 0.073031
0.456638 0.200430 0.067314
0.582371 0.192616 0.058200
0.709878 0.182655 0.046580
0.840290 0.170989 0.032971
0.974451 0.158062 0.017892
1.000000 0.146549 0.004463
0.092204 0.500219 0.000000
0.220782 0.376419 0.021154
0.402853 0.385024 0.000000
0.473434 0.316103 0.012600
0.565934 0.293531 0.009718
0.694018 0.281488 0.000000
0.831205 0.269701 0.000000
0.972991 0.258140 0.000000
1.000000 0.248869 0.000000
0.081133 0.628982 0.000000
0.218712 0.542708 0.000000
0.311677 0.472102 0.000000
0.516163 0.490848 0.000000
0.611115 0.427780 0.000000
0.705573 0.398210 0.000000
0.828134 0.386387 0.000000
0.971484 0.379782 0.000000
1.000000 0.374766 0.000000
0.098127 0.764647 0.000000
0.239700 0.709648 0.000000
0.304651 0.614081 0.000000
0.451863 0.614224 0.000000
0.644988 0.613316 0.000000
0.757121 0.561876 0.000000
0.857825 0.531395 0.000000
0.971497 0.518045 0.000000
1.000000 0.512510 0.000000
0.127483 0.879450 0.000000
0.267981 0.841229 0.000000
0.342767 0.774667 0.000000
0.426368 0.728068 0.000000
0.597965 0.743339 0.000000
0.754217 0.718100 0.000000
0.870142 0.678140 0.000000
0.970847 0.650539 0.000000
1.000000 0.631017 0.000000
0.153180 0.976860 0.000000
0.288696 0.947232 0.000000
0.371374 0.898137 0.000000
0.435857 0.846876 0.000000
0.545522 0.830303 0.000000
0.718748 0.845898 0.000000
0.848892 0.808948 0.000000
0.962857 0.775474 0.000000
0.980218 0.729258 0.000000
0.226371 0.972281 0.000000
0.335179 0.964275 0.000000
0.404688 0.960495 0.000000
0.460430 0.957333 0.000000
0.536953 0.932775 0.000000
0.664221 0.933838 0.000000
0.852539 0.946000 0.000000
0.946000 0.917079 0.000000
0.952267 0.822289 0.028888
0.326302 0.961126 0.134466
0.408869 0.956235 0.119300
0.462169 0.953986 0.082397
0.504069 0.952712 0.033633
0.554204 0.951132 0.000000
0.641906 0.948147 0.000000
0.763778 0.946041 0.000000
0.904222 0.946000 0.028698
0.946000 0.930760 0.045010
0.076000 0.115963 0.379565
0.204566 0.076000 0.209295
0.333132 0.076000 0.209295
0.461698 0.076000 0.209295
0.590262 0.075995 0.209290
0.718167 0.073822 0.207431
0.846084 0.068057 0.202498
0.975526 0.059218 0.194934
1.000000 0.049792 0.186867
0.041676 0.364352 0.310775
0.167270 0.221631 0.244928
0.381005 0.159236 0.161748
0.519894 0.145305 0.147399
0.658825 0.129443 0.131406
0.798755 0.111786 0.113693
0.940508 0.092483 0.094364
1.000000 0.076822 0.078671
1.000000 0.141616 0.143153
0.026258 0.409831 0.178674
0.131156 0.557434 0.015141
0.431735 0.422437 0.060137
0.494839 0.299227 0.092224
0.637237 0.267434 0.074854
0.785535 0.240845 0.053393
0.936657 0.215761 0.030501
1.000000 0.195366 0.013273
1.000000 0.245161 0.096014
0.000000 0.554204 0.071165
0.111295 0.737292 0.000000
0.300320 0.549684 0.000000
0.581220 0.560985 0.000000
0.664954 0.436937 0.000000
0.776672 0.390553 0.000000
0.932506 0.363917 0.000000
1.000000 0.342754 0.000000
1.000000 0.372810 0.063391
0.000000 0.721290 0.000000
0.124122 0.880408 0.000000
0.322172 0.778966 0.000000
0.453388 0.681525 0.000000
0.719809 0.691636 0.000000
0.836271 0.597758 0.000000
0.941735 0.544423 0.000000
1.000000 0.515311 0.000000
1.000000 0.510822 0.056777
0.000000 0.868527 0.000000
0.151047 0.977505 0.000000
0.332037 0.925107 0.000000
0.432184 0.828332 0.000000
0.608224 0.810025 0.000000
0.831720 0.797293 0.000000
0.955091 0.723156 0.000000
1.000000 0.662054 0.000000
1.000000 0.632278 0.075270
0.000000 0.978683 0.000000
0.243331 0.969955 0.029798
0.374995 0.960678 0.010610
0.446971 0.957690 0.000000
0.551916 0.918012 0.000000
0.758346 0.937244 0.000000
0.946000 0.906024 0.000000
0.961011 0.782112 0.042632
0.973654 0.734233 0.118514
0.047514 0.988769 0.000000
0.332891 0.960380 0.147661
0.434598 0.954525 0.133603
0.491748 0.952233 0.099569
0.545285 0.950801 0.037377
0.657533 0.947299 0.027801
0.820587 0.946000 0.066787
0.946000 0.914316 0.068924
0.949039 0.830454 0.161213
0.195531 0.971315 0.121181
0.425043 0.952640 0.270705
0.500183 0.949719 0.251401
0.544665 0.948722 0.205749
0.581788 0.948188 0.148308
0.647117 0.946915 0.113415
0.757922 0.946000 0.122130
0.896297 0.946000 0.160697
0.946000 0.939762 0.181478
0.076000 0.133511 0.512860
0.207451 0.076000 0.353143
0.333132 0.076000 0.342589
0.461698 0.076000 0.342589
0.590119 0.075672 0.342356
0.717666 0.072175 0.339868
0.845624 0.065269 0.334954
0.975428 0.055471 0.327983
1.000000 0.045379 0.320803
0.034278 0.358473 0.526216
0.126397 0.190789 0.590985
0.373885 0.156928 0.390266
0.518384 0.142617 0.342051
0.657414 0.125842 0.313112
0.797750 0.107348 0.289373
0.940168 0.087298 0.266953
1.000000 0.071007 0.247711
1.000000 0.136648 0.283475
0.000000 0.470825 0.389905
0.000000 0.547939 0.457350
0.219400 0.334010 0.383129
0.529639 0.227184 0.234221
0.671412 0.206533 0.211798
0.816231 0.184917 0.189642
0.956211 0.168522 0.172924
1.000000 0.174691 0.178684
1.000000 0.241583 0.244842
0.000000 0.525655 0.281173
0.000000 0.598652 0.232612
0.212987 0.739953 0.077739
0.591181 0.586477 0.121217
0.644912 0.396930 0.130243
0.800957 0.351618 0.117064
0.952549 0.324033 0.108200
1.000000 0.320471 0.127687
1.000000 0.370970 0.218761
0.000000 0.653144 0.210320
0.000000 0.800563 0.094868
0.214407 0.884660 0.031993
0.424563 0.716879 0.081503
0.725746 0.709786 0.087845
0.827094 0.577866 0.079626
0.930596 0.520098 0.085567
1.000000 0.495559 0.110348
1.000000 0.508725 0.209440
0.000000 0.804902 0.152181
0.000000 0.959821 0.000000
0.266212 0.941563 0.082127
0.431830 0.894716 0.045389
0.571517 0.814349 0.067346
0.833941 0.810372 0.067336
0.898054 0.695336 0.124271
0.994001 0.651411 0.124553
1.000000 0.630659 0.205350
0.000000 0.935264 0.100586
0.007231 0.991363 0.014078
0.346297 0.958699 0.184219
0.467710 0.936257 0.152620
0.538102 0.893474 0.109131
0.692815 0.875874 0.123746
0.871492 0.851420 0.151402
0.957133 0.784466 0.170533
0.968146 0.738172 0.240790
0.000000 0.997310 0.064818
0.162432 0.973634 0.136277
0.437153 0.951696 0.294796
0.527561 0.948532 0.274019
0.570815 0.947920 0.208985
0.649062 0.946604 0.161265
0.805185 0.946000 0.193215
0.946000 0.924255 0.205503
0.946927 0.839702 0.290898
0.078516 0.980443 0.152471
0.294525 0.960525 0.254261
0.523781 0.947421 0.405895
0.589827 0.946390 0.380961
0.624085 0.946230 0.323231
0.662799 0.946092 0.261063
0.754979 0.946000 0.251456
0.888447 0.946000 0.290614
0.946000 0.946000 0.317946
0.076000 0.151059 0.646155
0.203485 0.076000 0.529363
0.333132 0.076000 0.475884
0.461698 0.076000 0.475884
0.589760 0.074862 0.475239
0.717037 0.070106 0.472541
0.845104 0.062122 0.468012
0.975323 0.051429 0.461947
1.000000 0.040726 0.455876
0.033175 0.346229 0.670132
0.087438 0.178799 0.764730
0.330329 0.143424 0.549426
0.511553 0.138489 0.532403
0.655759 0.121620 0.495987
0.796629 0.102402 0.466541
0.939801 0.081697 0.441308
1.000000 0.064884 0.418748
1.000000 0.131664 0.425457
0.000000 0.522344 0.635750
0.000000 0.500762 0.785150
0.176062 0.262004 0.775177
0.507877 0.218759 0.541510
0.668237 0.198867 0.453929
0.814596 0.177664 0.406394
0.955845 0.161587 0.374579
1.000000 0.168736 0.361702
1.000000 0.238149 0.395229
0.000000 0.594665 0.483848
0.000000 0.729433 0.593541
0.030701 0.740438 0.627911
0.260703 0.446689 0.526397
0.681255 0.281509 0.295849
0.824229 0.267553 0.277136
0.939762 0.279420 0.286899
1.000000 0.294797 0.301256
1.000000 0.369265 0.374282
0.000000 0.674441 0.395973
0.000000 0.779781 0.406798
0.055557 0.772918 0.351413
0.340012 0.835587 0.223585
0.726163 0.727382 0.219976
0.800258 0.526248 0.226437
0.920174 0.482025 0.252757
1.000000 0.472055 0.279323
1.000000 0.506558 0.360794
0.000000 0.786602 0.347261
0.000000 0.900490 0.305422
0.037105 0.926011 0.215298
0.399174 0.879813 0.286115
0.532155 0.804092 0.233556
0.784293 0.781090 0.266750
0.877434 0.677106 0.265175
0.977785 0.634169 0.267433
1.000000 0.627343 0.344411
0.000000 0.903689 0.302436
0.000000 0.990676 0.233870
0.143383 0.959325 0.215991
0.452348 0.937177 0.336211
0.557760 0.902749 0.290430
0.659020 0.861602 0.263713
0.857479 0.849487 0.301051
0.942017 0.778694 0.306136
0.964021 0.739727 0.357419
0.000000 0.992793 0.256827
0.096212 0.975451 0.268209
0.264933 0.961945 0.280099
0.540972 0.946829 0.439697
0.614865 0.946090 0.403379
0.652082 0.946060 0.310218
0.787096 0.946000 0.315645
0.943643 0.932452 0.344411
0.946031 0.849919 0.416989
0.035801 0.980301 0.282916
0.198959 0.966048 0.307947
0.391298 0.952424 0.383390
0.623909 0.946000 0.541754
0.677252 0.946000 0.507637
0.699814 0.946000 0.432580
0.757634 0.946000 0.384855
0.880480 0.946000 0.416976
0.946000 0.946000 0.454415
0.076000 0.168607 0.779449
0.186253 0.076000 0.691400
0.333896 0.076000 0.619732
0.461685 0.075977 0.609169
0.589195 0.073588 0.608159
0.716285 0.067636 0.605641
0.844529 0.058640 0.601836
0.975211 0.047115 0.596961
1.000000 0.035855 0.592199
0.024483 0.349350 0.812551
0.074676 0.186125 0.910471
0.290417 0.113761 0.756907
0.476842 0.127812 0.679642
0.648988 0.116115 0.675346
0.795405 0.096997 0.645526
0.939409 0.075729 0.617693
1.000000 0.058497 0.591976
1.000000 0.126682 0.569119
0.000000 0.502142 0.787817
0.000000 0.447727 0.944107
0.139546 0.252043 0.951209
0.433248 0.209142 0.710798
0.652977 0.191287 0.687836
0.812919 0.170226 0.627015
0.955477 0.154593 0.579654
1.000000 0.162860 0.547470
1.000000 0.234875 0.547099
0.000000 0.700824 0.768042
0.000000 0.745022 0.911637
0.000000 0.651666 0.999295
0.233734 0.337703 0.935304
0.641844 0.271811 0.700839
0.822358 0.259757 0.572804
0.939341 0.274385 0.517793
1.000000 0.291543 0.501208
1.000000 0.367712 0.529646
0.000000 0.731264 0.593487
0.000000 0.848999 0.693135
0.000000 0.886317 0.740718
0.142076 0.859811 0.748493
0.347598 0.584674 0.686278
0.800181 0.399287 0.419013
0.915460 0.420193 0.431715
1.000000 0.442605 0.451483
1.000000 0.504332 0.510785
0.000000 0.816571 0.518489
0.000000 0.912005 0.547941
0.012182 0.915881 0.530395
0.219271 0.846596 0.486121
0.502331 0.856346 0.438864
0.761959 0.777423 0.418620
0.857322 0.641860 0.401832
0.967709 0.611574 0.424757
1.000000 0.624311 0.487377
0.000000 0.903267 0.470887
0.000000 0.984984 0.460026
0.103010 0.939148 0.445263
0.277723 0.919976 0.417841
0.558087 0.916689 0.488102
0.637667 0.858661 0.412453
0.842578 0.847786 0.449683
0.923378 0.766684 0.435738
0.961464 0.737065 0.472486
0.000000 0.987264 0.428071
0.062409 0.973686 0.429003
0.210275 0.962243 0.428467
0.388096 0.951602 0.445456
0.645391 0.946000 0.583514
0.691734 0.946000 0.508512
0.764715 0.937684 0.445533
0.930318 0.930565 0.494188
0.946000 0.859981 0.536885
0.014514 0.978068 0.419909
0.157888 0.965938 0.433171
0.312760 0.955201 0.455901
0.487322 0.947447 0.509973
0.724823 0.946000 0.678223
0.758823 0.946000 0.627580
0.774254 0.946000 0.533974
0.873359 0.946000 0.539337
0.946000 0.946000 0.590883
0.074752 0.185055 0.912626
0.165859 0.076000 0.842960
0.328411 0.076000 0.775797
0.461467 0.075573 0.742588
0.588434 0.071872 0.741323
0.715419 0.064789 0.739349
0.843902 0.054844 0.736577
0.975092 0.042552 0.733151
1.000000 0.030789 0.729873
0.015337 0.353157 0.950657
0.070972 0.200020 1.000000
0.232760 0.079157 0.953847
0.453249 0.111957 0.842190
0.619501 0.105492 0.824102
0.788819 0.090412 0.821136
0.938997 0.069439 0.796333
1.000000 0.051890 0.767554
1.000000 0.121723 0.714464
0.000000 0.499314 0.940895
0.000000 0.434134 1.000000
0.139722 0.268290 1.000000
0.382262 0.181541 0.930955
0.594156 0.183414 0.843719
0.800003 0.162689 0.839752
0.955109 0.147597 0.788207
1.000000 0.157099 0.735945
1.000000 0.231779 0.700359
0.000000 0.684846 0.926140
0.000000 0.678473 1.000000
0.056833 0.569647 1.000000
0.278268 0.386934 1.000000
0.529940 0.279590 0.858362
0.791888 0.259080 0.842848
0.938951 0.269715 0.752085
1.000000 0.288465 0.702610
1.000000 0.366329 0.684543
0.000000 0.850042 0.875592
0.000000 0.908040 0.992109
0.041740 0.847129 1.000000
0.240125 0.729524 0.981454
0.417939 0.510608 0.979758
0.748379 0.400654 0.819667
0.911286 0.417561 0.698884
1.000000 0.440494 0.656902
1.000000 0.502055 0.659371
0.000000 0.849904 0.693079
0.000000 0.948374 0.776280
0.005982 0.967720 0.811673
0.208200 0.901737 0.794611
0.361992 0.874268 0.800922
0.514092 0.685139 0.758445
0.864208 0.564708 0.583673
0.962397 0.580497 0.591756
0.997784 0.621326 0.628986
0.000000 0.928016 0.620060
0.000000 0.976990 0.652315
0.089627 0.959927 0.650056
0.241783 0.922638 0.639217
0.400061 0.887922 0.614963
0.660281 0.901717 0.636097
0.822844 0.844931 0.597032
0.904769 0.741915 0.556996
0.958788 0.733884 0.604403
0.000000 0.982467 0.580428
0.060977 0.969515 0.582965
0.194251 0.959689 0.586695
0.325710 0.952251 0.587338
0.488163 0.946826 0.595788
0.748411 0.946000 0.724076
0.757892 0.932214 0.596961
0.914439 0.926431 0.643637
0.946000 0.866268 0.644687
0.015503 0.974180 0.549847
0.146394 0.963531 0.563113
0.279857 0.954748 0.577066
0.424554 0.948318 0.598172
0.602266 0.946000 0.654349
0.825737 0.946000 0.814691
0.829707 0.946000 0.732557
0.870067 0.946000 0.660861
0.946000 0.946000 0.727351
0.071053 0.199438 1.000000
0.145119 0.076000 0.988553
0.315932 0.076000 0.929247
0.459544 0.074633 0.886154
0.587487 0.069737 0.874926
0.714445 0.061587 0.873830
0.843227 0.050757 0.872374
0.974968 0.037763 0.870627
1.000000 0.025550 0.868985
0.005252 0.358310 1.000000
0.105661 0.241576 1.000000
0.213991 0.100794 1.000000
0.422004 0.087314 1.000000
0.597011 0.094202 0.972678
0.762210 0.079670 0.971850
0.932685 0.062027 0.971311
1.000000 0.045105 0.945608
1.000000 0.116806 0.861485
0.000000 0.506845 1.000000
0.036198 0.443750 1.000000
0.218951 0.341199 1.000000
0.354225 0.214119 1.000000
0.555921 0.185878 0.990703
0.742284 0.166229 0.980770
0.936228 0.147138 0.980329
1.000000 0.151492 0.927053
1.000000 0.228875 0.854905
0.000000 0.678719 1.000000
0.000000 0.637923 1.000000
0.209389 0.575294 1.000000
0.325027 0.439131 1.000000
0.489805 0.309543 1.000000
0.701488 0.284728 0.966071
0.916807 0.272200 0.965477
1.000000 0.285605 0.904806
1.000000 0.365134 0.838663
0.000000 0.840516 1.000000
0.000000 0.828371 1.000000
0.188357 0.746132 1.000000
0.338855 0.687540 1.000000
0.472014 0.565430 1.000000
0.649824 0.431629 0.954153
0.880886 0.421984 0.934269
1.000000 0.438238 0.860046
1.000000 0.499737 0.806521
0.000000 0.957062 0.949340
0.000000 0.965651 0.965651
0.175344 0.903291 0.967163
0.311007 0.857980 0.968877
0.448575 0.797385 0.976204
0.604599 0.674532 0.976005
0.819212 0.566349 0.883258
0.955687 0.576450 0.797747
0.993088 0.618402 0.769286
0.000000 0.948712 0.776263
0.000000 0.970465 0.844652
0.140483 0.957920 0.826851
0.271389 0.950777 0.845608
0.414189 0.935100 0.859450
0.563867 0.915047 0.871011
0.657610 0.767882 0.815142
0.899935 0.701471 0.717011
0.956019 0.731765 0.740571
0.000000 0.976640 0.715559
0.064244 0.965475 0.727051
0.206914 0.955862 0.733025
0.344455 0.949354 0.739749
0.461413 0.946432 0.749563
0.586617 0.946000 0.752534
0.847687 0.946000 0.857360
0.901003 0.925722 0.789037
0.946000 0.860916 0.737823
0.036606 0.969270 0.663759
0.161864 0.959707 0.681273
0.285021 0.952389 0.698517
0.408814 0.947654 0.716069
0.540547 0.946000 0.737416
0.704629 0.946000 0.784490
0.926652 0.946000 0.946000
0.885774 0.946000 0.806910
0.946000 0.946000 0.863820
0.094627 0.233676 1.000000
0.124705 0.076000 1.000000
0.299728 0.075985 1.000000
0.452137 0.073316 1.000000
0.586096 0.067187 1.000000
0.713369 0.058053 1.000000
0.842508 0.046402 1.000000
0.974838 0.032769 1.000000
1.000000 0.020161 1.000000
0.054828 0.385898 1.000000
0.179483 0.311448 1.000000
0.267775 0.203332 1.000000
0.417489 0.161677 1.000000
0.572069 0.116959 1.000000
0.727899 0.094412 1.000000
0.885215 0.077685 1.000000
1.000000 0.059731 1.000000
1.000000 0.111949 1.000000
0.009874 0.527308 1.000000
0.154345 0.486987 1.000000
0.285092 0.406388 1.000000
0.379658 0.294150 1.000000
0.531621 0.230676 1.000000
0.700994 0.189886 1.000000
0.872052 0.173900 1.000000
1.000000 0.159090 1.000000
1.000000 0.226148 1.000000
0.000000 0.667045 1.000000
0.137172 0.635444 1.000000
0.289087 0.602593 1.000000
0.423877 0.527039 1.000000
0.502580 0.389697 1.000000
0.667152 0.311967 1.000000
0.852937 0.298089 1.000000
1.000000 0.290395 1.000000
1.000000 0.363979 0.991699
0.000000 0.803580 1.000000
0.126158 0.767045 1.000000
0.270822 0.731351 1.000000
0.423538 0.700905 1.000000
0.559405 0.638682 1.000000
0.635567 0.492102 1.000000
0.813747 0.449358 1.000000
0.991811 0.443094 1.000000
1.000000 0.497385 0.952214
0.000000 0.921674 0.981930
0.119671 0.887965 0.979076
0.255302 0.853227 0.976839
0.397308 0.814917 0.975309
0.548829 0.781161 0.971063
0.673204 0.730948 0.976072
0.757807 0.594859 1.000000
0.930391 0.579501 0.978668
0.988506 0.615549 0.908337
0.000000 0.965894 0.965894
0.112473 0.956937 0.956937
0.245643 0.950377 0.950377
0.381475 0.946617 0.946617
0.529141 0.908435 0.946345
0.672851 0.872480 0.946126
0.787317 0.828034 0.946510
0.871850 0.704117 0.922924
0.953547 0.729873 0.876213
0.000000 0.970465 0.844652
0.094295 0.960162 0.859912
0.226030 0.952314 0.876913
0.368092 0.947237 0.888409
0.512745 0.946000 0.902015
0.654897 0.946000 0.918790
0.791086 0.946000 0.939586
0.810858 0.868925 0.893810
0.946000 0.859112 0.869279
0.069599 0.964216 0.761448
0.197882 0.955462 0.780408
0.322781 0.949379 0.801514
0.444117 0.946329 0.825112
0.562236 0.946000 0.850177
0.677990 0.946000 0.873928
0.803801 0.946000 0.903053
0.946000 0.946000 0.946000
0.946000 0.946000 0.946000
0.179483 0.311448 1.000000
0.209928 0.190232 1.000000
0.323392 0.146974 1.000000
0.448696 0.106179 1.000000
0.581354 0.074054 1.000000
0.712723 0.055929 1.000000
0.842086 0.043844 1.000000
0.974763 0.029881 1.000000
1.000000 0.017073 1.000000
0.158782 0.442982 1.000000
0.275134 0.399110 1.000000
0.307719 0.274061 1.000000
0.426216 0.225195 1.000000
0.558721 0.181197 1.000000
0.697220 0.150256 1.000000
0.833352 0.134977 1.000000
0.973322 0.120856 1.000000
1.000000 0.109253 1.000000
0.146521 0.567546 1.000000
0.285136 0.551730 1.000000
0.398819 0.509237 1.000000
0.416540 0.367409 1.000000
0.537200 0.306723 1.000000
0.678382 0.259843 1.000000
0.824436 0.240414 1.000000
0.972012 0.231255 1.000000
1.000000 0.224676 1.000000
0.133568 0.668886 1.000000
0.284947 0.662913 1.000000
0.422039 0.653103 1.000000
0.527401 0.617369 1.000000
0.546774 0.483435 1.000000
0.666513 0.409824 1.000000
0.813502 0.370626 1.000000
0.958391 0.366105 1.000000
1.000000 0.363295 1.000000
0.126158 0.767045 1.000000
0.268007 0.748782 1.000000
0.408484 0.738067 1.000000
0.542048 0.734663 0.990945
0.637307 0.707250 0.990542
0.664475 0.590741 1.000000
0.785739 0.518187 1.000000
0.922941 0.501651 1.000000
1.000000 0.496052 1.000000
0.121234 0.858439 0.991532
0.257038 0.835783 0.983795
0.390499 0.817156 0.975226
0.522465 0.806065 0.965193
0.656180 0.811372 0.953364
0.744359 0.796867 0.951217
0.758213 0.673020 0.989783
0.880385 0.620808 0.996952
0.985987 0.613980 0.985987
0.116130 0.947804 0.958999
0.249180 0.925003 0.954910
0.380963 0.905013 0.951196
0.511605 0.889603 0.948053
0.642116 0.882919 0.946096
0.778382 0.896757 0.946000
0.871904 0.909547 0.946000
0.847352 0.742529 0.955969
0.952295 0.728914 0.952295
0.109549 0.957109 0.957109
0.242416 0.950505 0.950505
0.374729 0.946726 0.946726
0.507766 0.946000 0.946000
0.641064 0.946000 0.946000
0.773764 0.946000 0.946000
0.905305 0.946000 0.946000
0.946000 0.946000 0.946000
0.946000 0.859112 0.946000
0.094295 0.960162 0.859912
0.226030 0.952314 0.876913
0.356698 0.947434 0.896325
0.487786 0.946000 0.918839
0.619413 0.946000 0.942710
0.751040 0.946000 0.946000
0.882667 0.946000 0.946000
0.946000 0.946000 0.946000
0.946000 0.946000 0.946000
