assets/luts/moa_film_green.cube
TITLE "MOA Film Green"
LUT_3D_SIZE 5
DOMAIN_MIN 0.0 0.0 0.0
DOMAIN_MAX 1.0 1.0 1.0
0.247710 0.247710 0.247710
0.386116 0.241372 0.241372
0.523546 0.227513 0.227513
0.665845 0.207907 0.207907
0.817181 0.184326 0.184326
0.212332 0.417485 0.127941
0.375039 0.351974 0.144201
0.491974 0.315701 0.145738
0.640366 0.298898 0.120550
0.812325 0.280996 0.096901
0.205966 0.564096 0.058647
0.317742 0.492457 0.068016
0.503873 0.459702 0.061792
0.661393 0.423952 0.059483
0.795534 0.424499 0.066195
0.241353 0.699541 0.052874
0.364557 0.660713 0.052945
0.449573 0.618989 0.053457
0.637237 0.578860 0.052971
0.750205 0.534954 0.106784
0.323280 0.713624 0.158411
0.409194 0.704755 0.133720
0.457724 0.701114 0.087605
0.570230 0.689856 0.076736
0.695353 0.638533 0.109692
0.244758 0.253857 0.417676
0.383048 0.237356 0.385182
0.520276 0.221317 0.372986
0.663580 0.200141 0.356883
0.816696 0.175600 0.338222
0.188854 0.351036 0.348608
0.292327 0.350611 0.321469
0.518690 0.288489 0.285015
0.687667 0.261534 0.258367
0.814182 0.273759 0.271094
0.085554 0.501354 0.247212
0.296596 0.609286 0.173292
0.532949 0.506343 0.198556
0.667326 0.435298 0.201360
0.788498 0.430722 0.238339
0.054535 0.687368 0.141205
0.350511 0.681734 0.220383
0.453752 0.644262 0.193575
0.633146 0.597297 0.208866
0.732696 0.552247 0.262658
0.137839 0.735825 0.148039
0.428095 0.695911 0.318033
0.493702 0.690611 0.279176
0.557398 0.686119 0.232533
0.684349 0.648932 0.268653
0.239791 0.256710 0.561312
0.379321 0.232508 0.530887
0.516684 0.214510 0.521109
0.661198 0.191975 0.509372
0.816201 0.166686 0.496200
0.160544 0.363690 0.523522
0.304411 0.324385 0.536076
0.511458 0.277418 0.518520
0.685077 0.252235 0.471873
0.813819 0.268503 0.452067
0.093406 0.463790 0.458244
0.212548 0.487916 0.480087
0.368710 0.496619 0.432664
0.654389 0.403500 0.395693
0.783623 0.426600 0.421213
0.055123 0.631762 0.416344
0.196548 0.664761 0.379305
0.463201 0.653509 0.396778
0.613486 0.603710 0.382673
0.718958 0.563526 0.398702
0.090491 0.733440 0.347506
0.283672 0.710794 0.347004
0.529664 0.681576 0.471483
0.568334 0.680331 0.404466
0.675843 0.661158 0.423888
0.232829 0.257773 0.706854
0.371855 0.227064 0.684480
0.512808 0.207166 0.672343
0.658721 0.183482 0.665681
0.815699 0.157655 0.658417
0.143427 0.366028 0.693824
0.300447 0.328165 0.687299
0.475423 0.270671 0.696331
0.679853 0.244523 0.689559
0.813466 0.263723 0.636542
0.074950 0.486434 0.655927
0.241605 0.484605 0.665145
0.425703 0.454708 0.657468
0.645531 0.399046 0.657036
0.777932 0.423484 0.603382
0.055010 0.618070 0.609640
0.185151 0.638867 0.628972
0.361174 0.616399 0.605885
0.529216 0.595021 0.562119
0.713159 0.558786 0.551350
0.055040 0.729097 0.560719
0.226152 0.709898 0.539318
0.405562 0.691092 0.524243
0.631004 0.672051 0.622512
0.669187 0.671100 0.580192
0.241846 0.273109 0.820315
0.363801 0.230909 0.820656
0.508474 0.200079 0.819928
0.656287 0.175138 0.818649
0.815218 0.148994 0.817273
0.165219 0.375689 0.815514
0.318814 0.351013 0.814679
0.459646 0.299232 0.815051
0.631224 0.275170 0.814127
0.810257 0.261458 0.812537
0.105197 0.499670 0.808714
0.291200 0.500643 0.795576
0.459010 0.487420 0.783273
0.603056 0.431761 0.787992
0.769545 0.422379 0.771752
0.074698 0.623441 0.774235
0.254438 0.611996 0.753213
0.426980 0.603505 0.727884
0.573891 0.595911 0.706039
0.704791 0.555670 0.706808
0.052366 0.722915 0.722915
0.214369 0.704852 0.704852
0.369110 0.689197 0.689197
0.519251 0.677204 0.677204
0.668230 0.670140 0.670140
