assets/luts/moa_city_night_warm.cube
TITLE "MOA City Night Warm"
LUT_3D_SIZE 33
DOMAIN_MIN 0.0 0.0 0.0
DOMAIN_MAX 1.0 1.0 1.0
0.000000 0.000000 0.000000
0.000000 0.000000 0.000000
0.000000 0.000000 0.000000
0.021574 0.000000 0.000000
0.059345 0.000000 0.000000
0.097116 0.000000 0.000000
0.134886 0.000000 0.000000
0.172657 0.000000 0.000000
0.210428 0.000000 0.000000
0.248199 0.000000 0.000000
0.285969 0.000000 0.000000
0.323740 0.000000 0.000000
0.361511 0.000000 0.000000
0.399282 0.000000 0.000000
0.437052 0.000000 0.000000
0.474823 0.000000 0.000000
0.512594 0.000000 0.000000
0.550365 0.000000 0.000000
0.588135 0.000000 0.000000
0.625906 0.000000 0.000000
0.663677 0.000000 0.000000
0.701534 0.000000 0.000000
0.739627 0.000000 0.000000
0.777982 0.000000 0.000000
0.816624 0.000000 0.000000
0.855574 0.000000 0.000000
0.894855 0.000000 0.000000
0.934484 0.000000 0.000000
0.974480 0.000000 0.000000
1.000000 0.000000 0.000000
1.000000 0.000000 0.000000
1.000000 0.000000 0.000000
1.000000 0.000000 0.000000
0.000000 0.000000 0.000000
0.040174 0.017074 0.000000
0.127891 0.000000 0.000000
0.136907 0.000000 0.000000
0.153708 0.000000 0.000000
0.174605 0.000000 0.000000
0.199954 0.000000 0.000000
0.228473 0.000000 0.000000
0.259171 0.000000 0.000000
0.291394 0.000000 0.000000
0.324714 0.000000 0.000000
0.358842 0.000000 0.000000
0.393582 0.000000 0.000000
0.428794 0.000000 0.000000
0.464378 0.000000 0.000000
0.500258 0.000000 0.000000
0.536380 0.000000 0.000000
0.572700 0.000000 0.000000
0.609224 0.000000 0.000000
0.646048 0.000000 0.000000
0.683183 0.000000 0.000000
0.720634 0.000000 0.000000
0.758411 0.000000 0.000000
0.796524 0.000000 0.000000
0.834982 0.000000 0.000000
0.873797 0.000000 0.000000
0.912977 0.000000 0.000000
0.952534 0.000000 0.000000
0.992476 0.000000 0.000000
1.000000 0.000000 0.000000
1.000000 0.000000 0.000000
1.000000 0.000000 0.000000
1.000000 0.000000 0.000000
0.000000 0.000000 0.000000
0.000000 0.000000 0.000000
0.077956 0.049944 0.000000
0.174723 0.034547 0.000000
0.203434 0.004271 0.000000
0.225372 0.000000 0.000000
0.250220 0.000000 0.000000
0.277297 0.000000 0.000000
0.304792 0.000000 0.000000
0.333494 0.000000 0.000000
0.363459 0.000000 0.000000
0.394545 0.000000 0.000000
0.426579 0.000000 0.000000
0.459429 0.000000 0.000000
0.493010 0.000000 0.000000
0.527239 0.000000 0.000000
0.562052 0.000000 0.000000
0.597402 0.000000 0.000000
0.633255 0.000000 0.000000
0.669586 0.000000 0.000000
0.706379 0.000000 0.000000
0.743621 0.000000 0.000000
0.781305 0.000000 0.000000
0.819426 0.000000 0.000000
0.857983 0.000000 0.000000
0.896975 0.000000 0.000000
0.936401 0.000000 0.000000
0.976263 0.000000 0.000000
1.000000 0.000000 0.000000
1.000000 0.000000 0.000000
1.000000 0.000000 0.000000
1.000000 0.000000 0.000000
1.000000 0.000000 0.000000
0.000000 0.000000 0.000000
0.000000 0.000000 0.000000
0.000000 0.000000 0.000000
0.116130 0.083096 0.000000
0.209112 0.077724 0.000000
0.250647 0.054924 0.000000
0.280024 0.035831 0.000000
0.307071 0.021016 0.000000
0.334653 0.009389 0.000000
0.364452 0.000100 0.000000
0.395275 0.000000 0.000000
0.426135 0.000000 0.000000
0.457494 0.000000 0.000000
0.489522 0.000000 0.000000
0.522264 0.000000 0.000000
0.555713 0.000000 0.000000
0.589841 0.000000 0.000000
0.624616 0.000000 0.000000
0.660008 0.000000 0.000000
0.695988 0.000000 0.000000
0.732533 0.000000 0.000000
0.769624 0.000000 0.000000
0.807244 0.000000 0.000000
0.845380 0.000000 0.000000
0.884022 0.000000 0.000000
0.923160 0.000000 0.000000
0.962787 0.000000 0.000000
1.000000 0.000000 0.000000
1.000000 0.000000 0.000000
1.000000 0.000000 0.000000
1.000000 0.000000 0.000000
1.000000 0.000000 0.000000
1.000000 0.017664 0.000000
0.000000 0.007706 0.000000
0.000000 0.007706 0.000000
0.000000 0.007706 0.000000
0.026722 0.062614 0.000000
0.155176 0.116936 0.000000
0.243425 0.115666 0.000000
0.292465 0.098529 0.000000
0.328080 0.081950 0.000000
0.359287 0.068025 0.000000
0.389345 0.056511 0.000000
0.419513 0.046877 0.000000
0.450646 0.038712 0.000000
0.483314 0.031659 0.000000
0.516661 0.025542 0.000000
0.550064 0.020318 0.000000
0.583804 0.015836 0.000000
0.618023 0.011965 0.000000
0.652792 0.008593 0.000000
0.688140 0.005628 0.000000
0.724075 0.002998 0.000000
0.760594 0.000644 0.000000
0.797690 0.000000 0.000000
0.835353 0.000000 0.000000
0.873570 0.000000 0.000000
0.912329 0.000000 0.000000
0.951620 0.000000 0.000000
0.991432 0.000000 0.000000
1.000000 0.000000 0.000000
1.000000 0.000000 0.000000
1.000000 0.000000 0.000000
1.000000 0.003194 0.000000
1.000000 0.031834 0.000000
1.000000 0.061774 0.000000
0.000000 0.044032 0.000000
0.000000 0.044032 0.000000
0.000000 0.044032 0.000000
0.000000 0.054925 0.000000
0.088430 0.117639 0.000000
0.195418 0.151757 0.000000
0.279668 0.152290 0.000000
0.333325 0.139196 0.000000
0.373879 0.124979 0.000000
0.409017 0.112252 0.000000
0.442030 0.101291 0.000000
0.474408 0.091868 0.000000
0.506846 0.083686 0.000000
0.539767 0.076495 0.000000
0.573645 0.070106 0.000000
0.608671 0.064328 0.000000
0.644250 0.059134 0.000000
0.679948 0.054564 0.000000
0.715948 0.050534 0.000000
0.752358 0.046965 0.000000
0.789241 0.043788 0.000000
0.826630 0.040944 0.000000
0.864545 0.038383 0.000000
0.902990 0.036063 0.000000
0.941966 0.033949 0.000000
0.981468 0.032012 0.000000
1.000000 0.030226 0.000000
1.000000 0.028564 0.000000
1.000000 0.026922 0.000000
1.000000 0.025388 0.000000
1.000000 0.050880 0.000000
1.000000 0.077927 0.000000
1.000000 0.106349 0.000000
0.000000 0.080359 0.000000
0.000000 0.080359 0.000000
0.000000 0.080359 0.000000
0.000000 0.080371 0.000000
0.037860 0.108428 0.000000
0.146840 0.168642 0.000000
0.237073 0.187760 0.000000
0.318176 0.189063 0.000000
0.374859 0.178853 0.000000
0.419324 0.166661 0.000000
0.457982 0.155163 0.000000
0.493918 0.144920 0.000000
0.528686 0.135908 0.000000
0.563098 0.127959 0.000000
0.597585 0.120887 0.000000
0.632393 0.114528 0.000000
0.667821 0.108759 0.000000
0.704098 0.103467 0.000000
0.741295 0.098535 0.000000
0.778979 0.094000 0.000000
0.816831 0.089935 0.000000
0.854974 0.086287 0.000000
0.893485 0.083003 0.000000
0.932416 0.080038 0.000000
0.971793 0.077351 0.000000
1.000000 0.074905 0.000000
1.000000 0.072670 0.000000
1.000000 0.070499 0.000000
1.000000 0.068353 0.000000
1.000000 0.075151 0.000000
1.000000 0.099005 0.000000
1.000000 0.124356 0.000000
1.000000 0.151132 0.000000
0.000000 0.116712 0.000000
0.000000 0.116774 0.000000
0.000000 0.116869 0.000000
0.000000 0.116997 0.000000
0.018114 0.123064 0.000000
0.093918 0.162014 0.000000
0.203866 0.218171 0.000000
0.280257 0.225059 0.000000
0.358900 0.226603 0.000000
0.417679 0.218463 0.000000
0.465274 0.207952 0.000000
0.507016 0.197602 0.000000
0.545698 0.188117 0.000000
0.582843 0.179608 0.000000
0.619306 0.171999 0.000000
0.655580 0.165165 0.000000
0.691951 0.158980 0.000000
0.728587 0.153331 0.000000
0.765651 0.148128 0.000000
0.803349 0.143296 0.000000
0.841780 0.138757 0.000000
0.880970 0.134438 0.000000
0.920592 0.130403 0.000000
0.960399 0.126739 0.000000
1.000000 0.123408 0.000000
1.000000 0.120375 0.000000
1.000000 0.117606 0.000000
1.000000 0.114738 0.000000
1.000000 0.112009 0.000000
1.000000 0.125376 0.000000
1.000000 0.147320 0.000000
1.000000 0.170833 0.000000
1.000000 0.195811 0.000000
0.000000 0.153466 0.000000
0.000000 0.153684 0.000000
0.000000 0.153940 0.000000
0.000000 0.154234 0.000000
0.013620 0.154563 0.000000
0.066873 0.172436 0.000000
0.151195 0.215344 0.000000
0.260629 0.267474 0.000000
0.324982 0.263676 0.000000
0.401662 0.265154 0.000000
0.461941 0.258500 0.000000
0.512060 0.249353 0.000000
0.556465 0.240026 0.000000
0.597647 0.231273 0.000000
0.637044 0.223291 0.000000
0.675510 0.216068 0.000000
0.713567 0.209528 0.000000
0.751533 0.203574 0.000000
0.789607 0.198115 0.000000
0.827913 0.193070 0.000000
0.866540 0.188369 0.000000
0.905633 0.183959 0.000000
0.945300 0.179783 0.000000
0.985585 0.175788 0.000000
1.000000 0.171924 0.000000
1.000000 0.168269 0.000000
1.000000 0.164869 0.000000
1.000000 0.161229 0.000000
1.000000 0.157862 0.000000
1.000000 0.175628 0.000000
1.000000 0.195504 0.000000
1.000000 0.217019 0.000000
1.000000 0.240040 0.000000
0.000000 0.190943 0.000000
0.000000 0.191359 0.000000
0.000000 0.191817 0.000000
0.000000 0.192314 0.000000
0.013733 0.192847 0.000000
0.055416 0.197284 0.000000
0.119631 0.224748 0.000000
0.209501 0.268752 0.000000
0.317664 0.317082 0.000000
0.371155 0.303543 0.000000
0.446204 0.304753 0.000000
0.507556 0.299145 0.000000
0.559701 0.291083 0.000000
0.606370 0.282632 0.000000
0.649762 0.274549 0.000000
0.691211 0.267074 0.000000
0.731543 0.260241 0.000000
0.771282 0.254008 0.000000
0.810765 0.248304 0.000000
0.850207 0.243055 0.000000
0.889751 0.238190 0.000000
0.929486 0.233649 0.000000
0.969470 0.229378 0.000000
1.000000 0.225333 0.000000
1.000000 0.221473 0.000000
1.000000 0.217759 0.000000
1.000000 0.213949 0.000000
1.000000 0.209751 0.000000
1.000000 0.209797 0.000000
1.000000 0.225556 0.000000
1.000000 0.243198 0.000000
1.000000 0.262557 0.000000
1.000000 0.283468 0.002714
0.000000 0.229357 0.000000
0.000000 0.230003 0.000000
0.000000 0.230689 0.000000
0.000000 0.231413 0.000000
0.013872 0.232173 0.000000
0.052912 0.232966 0.000000
0.102878 0.246176 0.000000
0.175312 0.278797 0.000000
0.268726 0.322420 0.000000
0.375090 0.367096 0.000000
0.418582 0.344503 0.000000
0.492196 0.345293 0.000000
0.554274 0.340387 0.000000
0.608010 0.333160 0.000000
0.656553 0.325433 0.000000
0.701839 0.317929 0.000000
0.745085 0.310910 0.000000
0.787075 0.304438 0.000000
0.828320 0.298495 0.000000
0.869160 0.293028 0.000000
0.909820 0.287978 0.000000
0.950452 0.283285 0.000000
0.991156 0.278893 0.000000
1.000000 0.274754 0.000000
1.000000 0.270826 0.000000
1.000000 0.267073 0.000000
1.000000 0.263102 0.000000
1.000000 0.258922 0.000000
1.000000 0.261453 0.000000
1.000000 0.274776 0.000000
1.000000 0.290039 0.000000
1.000000 0.306990 0.000000
1.000000 0.325355 0.011012
0.000000 0.268869 0.000000
0.000000 0.269761 0.000000
0.000000 0.270690 0.000000
0.000000 0.271653 0.000000
0.014032 0.272649 0.000000
0.053539 0.273673 0.000000
0.095640 0.277538 0.000000
0.154625 0.298740 0.000000
0.233219 0.333990 0.000000
0.328631 0.376273 0.000000
0.432715 0.417319 0.000000
0.466964 0.386308 0.000000
0.539229 0.386553 0.000000
0.601718 0.382067 0.000000
0.656642 0.375449 0.000000
0.706673 0.368288 0.000000
0.753510 0.361258 0.000000
0.798254 0.354619 0.000000
0.841636 0.348453 0.000000
0.884146 0.342755 0.000000
0.926116 0.337488 0.000000
0.967774 0.332602 0.000000
1.000000 0.328045 0.000000
1.000000 0.323767 0.000000
1.000000 0.319709 0.000000
1.000000 0.315824 0.000000
1.000000 0.311666 0.000000
1.000000 0.307502 0.000000
1.000000 0.311622 0.000000
1.000000 0.322438 0.000000
1.000000 0.335094 0.000000
1.000000 0.349369 0.000000
1.000000 0.365041 0.017685
0.000000 0.309583 0.000000
0.000000 0.310725 0.000000
0.000000 0.311898 0.000000
0.000000 0.313099 0.000000
0.014207 0.314326 0.000000
0.054219 0.315574 0.000000
0.094552 0.316841 0.000000
0.143447 0.327530 0.000000
0.209688 0.353625 0.000000
0.292708 0.389804 0.000000
0.388803 0.430002 0.000000
0.490094 0.467329 0.000000
0.515899 0.428620 0.000000
0.586812 0.428211 0.000000
0.649400 0.423902 0.000000
0.705120 0.417684 0.000000
0.756247 0.410932 0.000000
0.804238 0.404240 0.000000
0.850062 0.397853 0.000000
0.894384 0.391858 0.000000
0.937657 0.386261 0.000000
0.980187 0.381033 0.000000
1.000000 0.376129 0.000000
1.000000 0.371504 0.000000
1.000000 0.367111 0.000000
1.000000 0.362909 0.000000
1.000000 0.358694 0.000000
1.000000 0.354626 0.000000
1.000000 0.359001 0.000000
1.000000 0.367263 0.000000
1.000000 0.377366 0.000000
1.000000 0.389072 0.000000
1.000000 0.402149 0.024226
0.000000 0.351547 0.000000
0.000000 0.352929 0.000000
0.000000 0.354335 0.000000
0.000000 0.355760 0.000000
0.014392 0.357201 0.000000
0.054931 0.358655 0.000000
0.095801 0.360116 0.000000
0.138829 0.363752 0.000000
0.195277 0.380975 0.000000
0.267190 0.409824 0.000000
0.353067 0.445629 0.000000
0.448646 0.483088 0.000000
0.542564 0.512676 0.000000
0.564876 0.471007 0.000000
0.634180 0.469711 0.000000
0.696211 0.465155 0.000000
0.751937 0.458932 0.000000
0.803308 0.452220 0.000000
0.851610 0.445554 0.000000
0.897715 0.439160 0.000000
0.942216 0.433116 0.000000
0.985527 0.427430 0.000000
1.000000 0.422075 0.000000
1.000000 0.417014 0.000000
1.000000 0.412203 0.000000
1.000000 0.407611 0.000000
1.000000 0.403500 0.000000
1.000000 0.399566 0.000000
1.000000 0.402969 0.000000
1.000000 0.408757 0.000000
1.000000 0.416421 0.000000
1.000000 0.425696 0.000000
1.000000 0.436348 0.030638
0.000000 0.394753 0.000000
0.000000 0.396355 0.000000
0.000000 0.397968 0.000000
0.000000 0.399590 0.000000
0.014582 0.401216 0.000000
0.055657 0.402842 0.000000
0.097062 0.404463 0.000000
0.138794 0.406076 0.000000
0.187522 0.415076 0.000000
0.250153 0.436442 0.000000
0.326212 0.466390 0.000000
0.413462 0.500721 0.000000
0.506706 0.534116 0.000000
0.589518 0.552853 0.000000
0.612149 0.512002 0.000000
0.679069 0.509340 0.000000
0.739792 0.504180 0.000000
0.794843 0.497698 0.000000
0.845833 0.490844 0.000000
0.893860 0.484058 0.000000
0.939677 0.477528 0.000000
0.983812 0.471319 0.000000
1.000000 0.465436 0.000000
1.000000 0.459854 0.000000
1.000000 0.454537 0.000000
1.000000 0.449574 0.000000
1.000000 0.445622 0.000000
1.000000 0.442176 0.000000
1.000000 0.443375 0.000000
1.000000 0.446799 0.000000
1.000000 0.452210 0.000000
1.000000 0.459385 0.000000
1.000000 0.468123 0.036403
0.000000 0.439139 0.000000
0.000000 0.440925 0.000000
0.000000 0.442709 0.000000
0.000000 0.444488 0.000000
0.014773 0.446256 0.000000
0.056377 0.448009 0.000000
0.098302 0.449742 0.000000
0.140541 0.451451 0.000000
0.184593 0.454845 0.000000
0.239618 0.469030 0.000000
0.307050 0.492668 0.000000
0.385739 0.522316 0.000000
0.472050 0.553172 0.000000
0.560172 0.580329 0.000000
0.632365 0.589290 0.000000
0.656032 0.550172 0.000000
0.720264 0.546115 0.000000
0.779191 0.540203 0.000000
0.833018 0.533299 0.000000
0.883066 0.526150 0.000000
0.930312 0.519135 0.000000
0.975456 0.512426 0.000000
1.000000 0.506067 0.000000
1.000000 0.500060 0.000000
1.000000 0.494379 0.000000
1.000000 0.489231 0.000000
1.000000 0.485315 0.000000
1.000000 0.481817 0.000000
1.000000 0.480839 0.000000
1.000000 0.482213 0.000000
1.000000 0.485671 0.000000
1.000000 0.490980 0.003546
1.000000 0.497929 0.041326
0.000000 0.484586 0.000000
0.000000 0.486508 0.000000
0.000000 0.488413 0.000000
0.000000 0.490295 0.000000
0.014958 0.492149 0.000000
0.057071 0.493971 0.000000
0.099486 0.495756 0.000000
0.142193 0.497497 0.000000
0.185180 0.499191 0.000000
0.233960 0.506705 0.000000
0.294046 0.524073 0.000000
0.364750 0.548256 0.000000
0.443399 0.574899 0.000000
0.526003 0.600080 0.000000
0.607860 0.620738 0.000000
0.671162 0.622085 0.000000
0.695668 0.584773 0.000000
0.757131 0.579477 0.000000
0.814251 0.572996 0.000000
0.866942 0.565889 0.000000
0.916252 0.558703 0.000000
0.962963 0.551705 0.000000
1.000000 0.545012 0.000000
1.000000 0.538661 0.000000
1.000000 0.532648 0.000000
1.000000 0.527280 0.000000
1.000000 0.523372 0.000000
1.000000 0.519401 0.000000
1.000000 0.516301 0.000000
1.000000 0.515680 0.000000
1.000000 0.517253 0.000000
1.000000 0.520772 0.007643
1.000000 0.526018 0.045395
0.000000 0.530918 0.000000
0.000000 0.532917 0.000000
0.000000 0.534879 0.000000
0.000000 0.536799 0.000000
0.015133 0.538672 0.000000
0.057719 0.540491 0.000000
0.100581 0.542253 0.000000
0.143703 0.543951 0.000000
0.187069 0.545579 0.000000
0.231922 0.548485 0.000000
0.285783 0.559850 0.000000
0.349204 0.578036 0.000000
0.420428 0.599669 0.000000
0.496599 0.621432 0.000000
0.574277 0.640700 0.000000
0.651482 0.657263 0.000000
0.707673 0.652897 0.000000
0.732047 0.616617 0.000000
0.791432 0.610721 0.000000
0.847075 0.603964 0.000000
0.898730 0.596763 0.000000
0.947262 0.589557 0.000000
0.993347 0.582562 0.000000
1.000000 0.575875 0.000000
1.000000 0.569525 0.000000
1.000000 0.563866 0.000000
1.000000 0.559940 0.000000
1.000000 0.555326 0.000000
1.000000 0.550111 0.000000
1.000000 0.547521 0.000000
1.000000 0.547250 0.000000
1.000000 0.549033 0.010822
1.000000 0.552638 0.048606
0.000000 0.577907 0.000000
0.000000 0.579909 0.000000
0.000000 0.581852 0.000000
0.000000 0.583731 0.000000
0.015292 0.585540 0.000000
0.058302 0.587274 0.000000
0.101552 0.588926 0.000000
0.145022 0.590490 0.000000
0.188674 0.591908 0.000000
0.232444 0.593098 0.000000
0.280806 0.598483 0.000000
0.337816 0.610751 0.000000
0.402222 0.627118 0.000000
0.471887 0.644691 0.000000
0.544627 0.661670 0.000000
0.618854 0.677544 0.000000
0.692232 0.691176 0.000000
0.742180 0.681989 0.000000
0.766420 0.646747 0.000000
0.823863 0.640363 0.000000
0.878061 0.633372 0.000000
0.928666 0.626090 0.000000
0.976383 0.618866 0.000000
1.000000 0.611878 0.000000
1.000000 0.605203 0.000000
1.000000 0.599163 0.000000
1.000000 0.595193 0.000000
1.000000 0.589982 0.000000
1.000000 0.582621 0.000000
1.000000 0.578057 0.000000
1.000000 0.575954 0.000000
1.000000 0.576029 0.013077
1.000000 0.578033 0.050955
0.000000 0.625267 0.000000
0.000000 0.627185 0.000000
0.000000 0.629020 0.000000
0.000000 0.630767 0.000000
0.015430 0.632417 0.000000
0.058792 0.633878 0.000000
0.102314 0.635094 0.000000
0.145946 0.636064 0.000000
0.189636 0.636786 0.000000
0.233333 0.637258 0.000000
0.278002 0.638439 0.000000
0.329452 0.645270 0.000000
0.387742 0.656468 0.000000
0.451341 0.669718 0.000000
0.519105 0.684090 0.000000
0.589452 0.698414 0.000000
0.660549 0.711622 0.000000
0.730528 0.722915 0.000000
0.774964 0.709615 0.000000
0.798987 0.675327 0.000000
0.854643 0.668569 0.000000
0.907471 0.661402 0.000000
0.957057 0.654068 0.000000
1.000000 0.646847 0.000000
1.000000 0.639884 0.000000
1.000000 0.633371 0.000000
1.000000 0.629335 0.000000
1.000000 0.623775 0.000000
1.000000 0.614191 0.000000
1.000000 0.607606 0.000000
1.000000 0.603653 0.000000
1.000000 0.602020 0.014402
1.000000 0.602438 0.052442
0.000000 0.672656 0.000000
0.000000 0.674380 0.000000
0.000000 0.675876 0.000000
0.000000 0.677110 0.000000
0.015524 0.678082 0.000000
0.059074 0.678788 0.000000
0.102674 0.679228 0.000000
0.146274 0.679401 0.000000
0.189820 0.679303 0.000000
0.233260 0.678936 0.000000
0.276543 0.678297 0.000000
0.323156 0.680342 0.000000
0.376052 0.686791 0.000000
0.434484 0.696425 0.000000
0.497425 0.707992 0.000000
0.563584 0.720298 0.000000
0.631537 0.732369 0.000000
0.699807 0.743462 0.000000
0.766909 0.753016 0.000000
0.806382 0.736098 0.000000
0.830033 0.702596 0.000000
0.884077 0.695578 0.000000
0.935646 0.688304 0.000000
0.984287 0.680963 0.000000
1.000000 0.673780 0.000000
1.000000 0.666875 0.000000
1.000000 0.662595 0.000000
1.000000 0.657128 0.000000
1.000000 0.645186 0.000000
1.000000 0.636494 0.000000
1.000000 0.630635 0.000000
1.000000 0.627263 0.014794
1.000000 0.626083 0.053066
0.000000 0.719144 0.000000
0.000000 0.720109 0.000000
0.000000 0.720793 0.000000
0.000000 0.721193 0.000000
0.015554 0.721309 0.000000
0.059114 0.721138 0.000000
0.102611 0.720680 0.000000
0.145995 0.719934 0.000000
0.189213 0.718899 0.000000
0.232212 0.717575 0.000000
0.274966 0.716030 0.000000
0.318295 0.715031 0.000000
0.366805 0.717988 0.000000
0.420688 0.724423 0.000000
0.479122 0.733200 0.000000
0.541119 0.743290 0.000000
0.605573 0.753825 0.000000
0.671325 0.764131 0.000000
0.737208 0.773696 0.000000
0.802038 0.782119 0.000000
0.836878 0.761834 0.000000
0.859927 0.728863 0.000000
0.912555 0.721700 0.000000
0.963009 0.714397 0.000000
1.000000 0.707105 0.000000
1.000000 0.700009 0.000000
1.000000 0.695234 0.000000
1.000000 0.690502 0.000000
1.000000 0.675997 0.000000
1.000000 0.665054 0.000000
1.000000 0.657191 0.000000
1.000000 0.652015 0.014251
1.000000 0.649198 0.052826
0.000000 0.763150 0.000000
0.000000 0.763201 0.000000
0.000000 0.762949 0.000000
0.000000 0.762392 0.000000
0.015520 0.761531 0.000000
0.058907 0.760364 0.000000
0.102119 0.758891 0.000000
0.145127 0.757230 0.000000
0.187922 0.755475 0.000000
0.230489 0.753632 0.000000
0.272817 0.751707 0.000000
0.314892 0.749706 0.000000
0.359583 0.749746 0.000000
0.409403 0.753306 0.000000
0.463712 0.759452 0.000000
0.521745 0.767311 0.000000
0.582643 0.776132 0.000000
0.645504 0.785316 0.000000
0.709414 0.794408 0.000000
0.773462 0.803062 0.000000
0.836694 0.810965 0.000000
0.866976 0.787288 0.000000
0.889121 0.754514 0.000000
0.940548 0.747318 0.000000
0.990065 0.740071 0.000000
1.000000 0.732896 0.000000
1.000000 0.727545 0.000000
1.000000 0.723388 0.000000
1.000000 0.707047 0.000000
1.000000 0.693641 0.000000
1.000000 0.683625 0.000000
1.000000 0.676539 0.012771
1.000000 0.672012 0.051721
0.000000 0.804069 0.000000
0.000000 0.803084 0.000000
0.000000 0.801777 0.000000
0.000000 0.800158 0.000000
0.015424 0.798381 0.000000
0.058495 0.796508 0.000000
0.101351 0.794543 0.000000
0.143979 0.792492 0.000000
0.186367 0.790364 0.000000
0.228503 0.788163 0.000000
0.270379 0.785896 0.000000
0.311985 0.783570 0.000000
0.353982 0.781662 0.000000
0.400181 0.782715 0.000000
0.450755 0.786472 0.000000
0.505104 0.792210 0.000000
0.562559 0.799293 0.000000
0.622420 0.807201 0.000000
0.683980 0.815541 0.000000
0.746546 0.824021 0.000000
0.809410 0.832397 0.000000
0.871782 0.840399 0.000000
0.897273 0.812994 0.000000
0.918151 0.780003 0.000000
0.968616 0.772886 0.000000
1.000000 0.765785 0.000000
1.000000 0.759857 0.000000
1.000000 0.755537 0.000000
1.000000 0.738822 0.000000
1.000000 0.722644 0.000000
1.000000 0.710258 0.000000
1.000000 0.701109 0.010352
1.000000 0.694759 0.049751
0.000000 0.841376 0.000000
0.000000 0.839482 0.000000
0.000000 0.837488 0.000000
0.000000 0.835399 0.000000
0.015301 0.833222 0.000000
0.058006 0.830964 0.000000
0.100470 0.828632 0.000000
0.142682 0.826232 0.000000
0.184634 0.823771 0.000000
0.226318 0.821256 0.000000
0.267727 0.818694 0.000000
0.308857 0.816090 0.000000
0.349705 0.813453 0.000000
0.392676 0.812372 0.000000
0.439886 0.814027 0.000000
0.490858 0.817830 0.000000
0.545071 0.823253 0.000000
0.601982 0.829860 0.000000
0.661053 0.837320 0.000000
0.721763 0.845394 0.000000
0.783601 0.853898 0.000000
0.846013 0.862647 0.000000
0.908322 0.871370 0.000000
0.928453 0.839558 0.000000
0.947637 0.805860 0.000000
0.997398 0.798932 0.000000
1.000000 0.792535 0.000000
1.000000 0.788048 0.000000
1.000000 0.771903 0.000000
1.000000 0.752512 0.000000
1.000000 0.737450 0.000000
1.000000 0.726019 0.006990
1.000000 0.717689 0.046914
0.000000 0.876201 0.000000
0.000000 0.873895 0.000000
0.000000 0.871507 0.000000
0.000000 0.869042 0.000000
0.015162 0.866507 0.000000
0.057463 0.863911 0.000000
0.099503 0.861259 0.000000
0.141275 0.858559 0.000000
0.182774 0.855818 0.000000
0.223995 0.853043 0.000000
0.264936 0.850241 0.000000
0.305595 0.847419 0.000000
0.345971 0.844584 0.000000
0.386631 0.842103 0.000000
0.430817 0.841954 0.000000
0.478720 0.844048 0.000000
0.529932 0.847957 0.000000
0.584035 0.853325 0.000000
0.640623 0.859883 0.000000
0.699317 0.867445 0.000000
0.759761 0.875881 0.000000
0.821590 0.885075 0.000000
0.884361 0.894857 0.000000
0.946585 0.904088 0.000000
0.961282 0.867660 0.000000
0.978282 0.832688 0.000000
1.000000 0.826056 0.000000
1.000000 0.821338 0.000000
1.000000 0.807017 0.000000
1.000000 0.783779 0.000000
1.000000 0.765612 0.000000
1.000000 0.751598 0.002678
1.000000 0.741070 0.043206
0.000000 0.909392 0.000000
0.000000 0.906722 0.000000
0.000000 0.903989 0.000000
0.000000 0.901200 0.000000
0.015012 0.898362 0.000000
0.056881 0.895482 0.000000
0.098478 0.892569 0.000000
0.139797 0.889629 0.000000
0.180838 0.886671 0.000000
0.221598 0.883700 0.000000
0.262079 0.880725 0.000000
0.302283 0.877753 0.000000
0.342213 0.874792 0.000000
0.381873 0.871848 0.000000
0.423338 0.870183 0.000000
0.468465 0.870808 0.000000
0.516929 0.873385 0.000000
0.568412 0.877632 0.000000
0.622613 0.883340 0.000000
0.679268 0.890374 0.000000
0.738146 0.898653 0.000000
0.799027 0.908122 0.000000
0.861657 0.918692 0.000000
0.925665 0.930179 0.000000
0.985041 0.937029 0.000000
0.996608 0.898050 0.000000
1.000000 0.861162 0.000000
