assets/luts/moa_korean_travel_pop.cube
TITLE "MOA Korean Travel Pop"
LUT_3D_SIZE 5
DOMAIN_MIN 0.0 0.0 0.0
DOMAIN_MAX 1.0 1.0 1.0
0.026145 0.025777 0.025541
0.293501 0.023500 0.024242
0.558427 0.022675 0.024149
0.822975 0.017264 0.019480
1.000000 0.013789 0.016703
0.097834 0.437102 0.000000
0.410645 0.355400 0.000000
0.659226 0.268394 0.000000
0.882554 0.242886 0.000000
1.000000 0.256076 0.021028
0.138494 0.701230 0.000000
0.326236 0.586513 0.000000
0.673351 0.580000 0.000000
0.972407 0.505722 0.000000
1.000000 0.498867 0.075360
0.203385 0.959095 0.000000
0.419610 0.896549 0.000000
0.590274 0.835758 0.000000
0.927518 0.801552 0.000000
1.000000 0.698333 0.129693
0.356813 1.000000 0.125834
0.514198 1.000000 0.087997
0.618006 1.000000 0.013510
0.846801 0.998277 0.020169
0.999351 0.917451 0.100215
0.023500 0.066171 0.421475
0.288799 0.023500 0.286892
0.553166 0.021462 0.285404
0.817765 0.014683 0.280454
1.000000 0.006122 0.274202
0.000000 0.385206 0.315074
0.308287 0.265459 0.237952
0.589526 0.222424 0.220861
0.866023 0.208145 0.207601
1.000000 0.250735 0.250985
0.000000 0.615709 0.202094
0.311053 0.766382 0.157037
0.738049 0.663365 0.157310
0.939814 0.521314 0.215412
1.000000 0.530766 0.302137
0.000000 0.910667 0.110433
0.417840 0.932344 0.243646
0.592704 0.868514 0.196143
0.919372 0.830220 0.226245
1.000000 0.749747 0.389504
0.089952 1.000000 0.140631
0.558413 1.000000 0.394866
0.683866 0.998859 0.333594
0.825482 0.997803 0.273153
0.997593 0.950827 0.369120
0.023299 0.094225 0.684802
0.289354 0.023378 0.558571
0.552336 0.019643 0.548508
0.817187 0.011561 0.544786
1.000000 0.002258 0.540502
0.000000 0.445192 0.696239
0.193302 0.253678 0.754305
0.581670 0.218564 0.576451
0.861466 0.203490 0.527750
1.000000 0.243773 0.521813
0.000000 0.644550 0.520790
0.133456 0.736252 0.626254
0.588544 0.505765 0.452122
0.845593 0.479303 0.475093
1.000000 0.518092 0.515548
0.000000 0.874333 0.451453
0.200434 0.899849 0.456417
0.628998 0.908347 0.530737
0.897912 0.849009 0.514080
1.000000 0.797148 0.614135
0.040097 1.000000 0.413457
0.340709 1.000000 0.454760
0.760123 0.997541 0.662836
0.838649 0.997500 0.551568
0.997500 0.985726 0.638142
0.020957 0.120368 0.948125
0.274359 0.022694 0.855828
0.551281 0.017333 0.812500
0.816548 0.008105 0.810739
1.000000 0.000000 0.808848
0.000000 0.445991 0.979292
0.245049 0.321777 0.958167
0.537413 0.212250 0.864187
0.860813 0.199735 0.853688
1.000000 0.241520 0.801290
0.000000 0.785661 0.947244
0.223689 0.708995 0.966641
0.525192 0.568855 0.927270
0.839796 0.476011 0.831954
1.000000 0.511987 0.786522
0.000000 0.906619 0.735403
0.182008 0.939901 0.801903
0.480570 0.907863 0.826620
0.806502 0.784555 0.741481
1.000000 0.775505 0.770325
0.037026 1.000000 0.661140
0.304835 1.000000 0.702120
0.582053 0.998449 0.745791
0.963344 0.997500 0.931866
0.997500 0.997500 0.907199
0.138095 0.239085 1.000000
0.281522 0.082335 1.000000
0.547023 0.022561 1.000000
0.815940 0.004815 1.000000
1.000000 0.000000 1.000000
0.138262 0.503246 1.000000
0.383353 0.458584 1.000000
0.532480 0.293896 1.000000
0.808371 0.245385 1.000000
1.000000 0.239727 1.000000
0.121301 0.737981 1.000000
0.406996 0.715778 1.000000
0.648569 0.692583 1.000000
0.796221 0.522746 1.000000
1.000000 0.510709 1.000000
0.099647 0.975061 1.000000
0.379508 0.932238 1.000000
0.660900 0.905686 1.000000
0.904041 0.918150 0.997563
1.000000 0.769604 1.000000
0.070180 1.000000 0.871014
0.341689 1.000000 0.912203
0.611621 0.997709 0.955814
0.882496 0.997500 0.997500
0.997500 0.997500 0.997500
