assets/luts/moa_warm_sunset.cube
TITLE "MOA Warm Sunset"
LUT_3D_SIZE 5
DOMAIN_MIN 0.0 0.0 0.0
DOMAIN_MAX 1.0 1.0 1.0
0.007608 0.005739 0.004511
0.305954 0.001000 0.002319
0.600466 0.001000 0.003593
0.894528 0.000000 0.000594
1.000000 0.000000 0.001351
0.000000 0.283462 0.000000
0.493552 0.398308 0.000000
0.819918 0.265867 0.000000
1.000000 0.218096 0.000000
1.000000 0.258933 0.028739
0.000000 0.545752 0.000000
0.232302 0.537785 0.000000
0.770157 0.623394 0.000000
1.000000 0.518878 0.000000
1.000000 0.516721 0.134765
0.000000 0.828618 0.000000
0.206629 0.806282 0.000000
0.553436 0.809866 0.000000
0.946492 0.787262 0.000000
0.979962 0.677623 0.183671
0.000000 0.997559 0.000000
0.189087 0.966166 0.000000
0.463108 0.942837 0.000000
0.818201 0.932400 0.000000
0.932499 0.854112 0.111980
0.001000 0.037168 0.380823
0.295513 0.001000 0.276970
0.589962 0.000846 0.276858
0.883704 0.000000 0.271747
1.000000 0.000000 0.264153
0.000000 0.401515 0.314555
0.362764 0.252445 0.179892
0.699735 0.161972 0.145456
1.000000 0.134636 0.122204
1.000000 0.236441 0.227781
0.000000 0.557591 0.215468
0.122409 0.641471 0.088045
0.904396 0.744605 0.000000
1.000000 0.528107 0.195460
1.000000 0.547246 0.331784
0.000000 0.822139 0.190710
0.084524 0.897705 0.057948
0.483991 0.857109 0.055381
0.936110 0.805245 0.181877
0.948043 0.729055 0.433029
0.000000 0.986982 0.174841
0.187420 0.957648 0.169644
0.460086 0.937963 0.166157
0.774532 0.932400 0.211130
0.932400 0.893369 0.369540
0.001000 0.063446 0.656792
0.295555 0.001000 0.556648
0.589485 0.000000 0.552350
0.883228 0.000000 0.547866
1.000000 0.000000 0.542492
0.000000 0.452415 0.690419
0.140466 0.195424 0.795726
0.682821 0.151114 0.617467
0.999917 0.125425 0.513566
1.000000 0.222983 0.511909
0.000000 0.678758 0.524283
0.046725 0.798388 0.632950
0.703452 0.489318 0.347007
0.964375 0.436212 0.401001
1.000000 0.509986 0.488399
0.000000 0.857931 0.450709
0.080970 0.890739 0.434486
0.410290 0.836010 0.352432
0.932400 0.839546 0.437269
0.933244 0.785482 0.634121
0.000000 0.975741 0.430180
0.185944 0.950107 0.430772
0.458389 0.934503 0.423697
0.732672 0.932400 0.423212
0.932400 0.932400 0.627112
0.001000 0.089725 0.932762
0.282656 0.001000 0.857522
0.588576 0.000000 0.828304
0.882667 0.000000 0.826137
1.000000 0.000000 0.823860
0.000000 0.434526 0.970104
0.168660 0.243274 1.000000
0.589108 0.134246 0.954711
0.999916 0.117348 0.917573
1.000000 0.219258 0.812311
0.000000 0.811498 0.934492
0.123229 0.738424 1.000000
0.473541 0.503149 0.980805
0.945317 0.422043 0.851092
1.000000 0.496277 0.760593
0.000000 0.904865 0.707051
0.115028 0.930587 0.753000
0.428603 0.879526 0.755130
0.815915 0.731430 0.639617
0.940947 0.728164 0.696924
0.000000 0.962397 0.626514
0.237227 0.941081 0.654738
0.471728 0.932535 0.678049
0.732235 0.932400 0.680315
0.932400 0.932400 0.884683
0.097287 0.191313 1.000000
0.284884 0.047393 1.000000
0.585263 0.000000 1.000000
0.882048 0.000000 1.000000
1.000000 0.000000 1.000000
0.067402 0.471298 1.000000
0.348917 0.413648 1.000000
0.557176 0.265491 1.000000
0.874142 0.224222 1.000000
1.000000 0.215984 1.000000
0.071431 0.747164 1.000000
0.359696 0.690644 1.000000
0.612743 0.638780 1.000000
0.828482 0.506276 1.000000
1.000000 0.491169 1.000000
0.069812 0.937204 0.948356
0.347354 0.887607 0.939186
0.613944 0.849581 0.933289
0.835678 0.828250 0.932400
0.938240 0.716504 0.938240
0.039309 0.951701 0.805402
0.314152 0.934666 0.833322
0.588269 0.932400 0.873534
0.863147 0.932400 0.915767
0.932400 0.932400 0.932400
