assets/luts/moa_film_green.cube
TITLE "MOA Film Green"
LUT_3D_SIZE 33
DOMAIN_MIN 0.0 0.0 0.0
DOMAIN_MAX 1.0 1.0 1.0
0.247710 0.247710 0.247710
0.265305 0.247390 0.247390
0.282786 0.246928 0.246928
0.300167 0.246327 0.246327
0.317466 0.245592 0.245592
0.334696 0.244725 0.244725
0.351871 0.243731 0.243731
0.369007 0.242612 0.242612
0.386116 0.241372 0.241372
0.403212 0.240014 0.240014
0.420308 0.238543 0.238543
0.437416 0.236961 0.236961
0.454549 0.235272 0.235272
0.471717 0.233479 0.233479
0.488932 0.231586 0.231586
0.506205 0.229596 0.229596
0.523546 0.227513 0.227513
0.540966 0.225340 0.225340
0.558473 0.223081 0.223081
0.576077 0.220739 0.220739
0.593787 0.218318 0.218318
0.611611 0.215820 0.215820
0.629557 0.213250 0.213250
0.647633 0.210611 0.210611
0.665845 0.207907 0.207907
0.684200 0.205140 0.205140
0.702705 0.202315 0.202315
0.721366 0.199435 0.199435
0.740188 0.196502 0.196502
0.759176 0.193522 0.193522
0.778334 0.190497 0.190497
0.797668 0.187430 0.187430
0.817181 0.184326 0.184326
0.245428 0.330244 0.210539
0.301450 0.294028 0.227165
0.288973 0.265506 0.242878
0.297343 0.261795 0.243228
0.314345 0.260655 0.242053
0.331314 0.259400 0.240758
0.348264 0.258032 0.239348
0.365209 0.256555 0.237824
0.382160 0.254973 0.236192
0.399130 0.253288 0.234455
0.416130 0.251504 0.232615
0.433173 0.249625 0.230677
0.450268 0.247654 0.228644
0.467427 0.245593 0.226519
0.484660 0.243447 0.224306
0.501976 0.241219 0.222008
0.519385 0.238912 0.219629
0.536896 0.236530 0.217172
0.554516 0.234075 0.214640
0.572255 0.231552 0.212038
0.590121 0.228964 0.209368
0.608119 0.226313 0.206635
0.626257 0.223604 0.203840
0.644542 0.220839 0.200989
0.662980 0.218022 0.198084
0.681576 0.215157 0.195130
0.700336 0.212247 0.192128
0.719264 0.209295 0.189083
0.738364 0.206304 0.185999
0.757642 0.203278 0.182878
0.777100 0.200220 0.179724
0.796742 0.197134 0.176541
0.816570 0.194023 0.173333
0.241297 0.341580 0.200045
0.271160 0.300913 0.228632
0.312023 0.302613 0.217846
0.319912 0.284425 0.229953
0.318374 0.276000 0.235142
0.327861 0.273070 0.235199
0.343548 0.271334 0.233616
0.360374 0.269563 0.231731
0.377237 0.267700 0.229748
0.394149 0.265750 0.227672
0.411119 0.263716 0.225506
0.428159 0.261600 0.223253
0.445278 0.259406 0.220917
0.462486 0.257137 0.218501
0.479792 0.254797 0.216010
0.497204 0.252388 0.213445
0.514732 0.249914 0.210811
0.532381 0.247378 0.208111
0.550161 0.244784 0.205349
0.568079 0.242134 0.202528
0.586140 0.239433 0.199652
0.604351 0.236682 0.196723
0.622717 0.233886 0.193747
0.641245 0.231048 0.190725
0.659940 0.228170 0.187661
0.678805 0.225257 0.184559
0.697845 0.222311 0.181423
0.717064 0.219336 0.178255
0.736465 0.216335 0.175060
0.756052 0.213311 0.171840
0.775826 0.210267 0.168600
0.795789 0.207208 0.165342
0.815945 0.204135 0.162070
0.236662 0.352993 0.188808
0.268499 0.329274 0.204552
0.279844 0.303246 0.225127
0.322140 0.310667 0.207306
0.338712 0.297248 0.215541
0.340362 0.288628 0.222516
0.346343 0.284311 0.224498
0.357298 0.281801 0.223925
0.371759 0.279771 0.222134
0.388374 0.277643 0.219809
0.405376 0.275416 0.217358
0.422472 0.273120 0.214832
0.439671 0.270759 0.212235
0.456982 0.268338 0.209570
0.474412 0.265857 0.206841
0.491969 0.263322 0.204051
0.509661 0.260734 0.201204
0.527495 0.258098 0.198303
0.545475 0.255415 0.195352
0.563610 0.252690 0.192354
0.581903 0.249926 0.189312
0.600361 0.247125 0.186231
0.618988 0.244291 0.183112
0.637789 0.241427 0.179961
0.656766 0.238536 0.176780
0.675925 0.235621 0.173573
0.695268 0.232686 0.170344
0.714797 0.229733 0.167095
0.734516 0.226766 0.163830
0.754425 0.223788 0.160553
0.774527 0.220801 0.157267
0.794823 0.217810 0.153976
0.815312 0.214817 0.150683
0.231713 0.364686 0.177013
0.262225 0.348314 0.185454
0.275919 0.322748 0.208984
0.292928 0.315330 0.211316
0.332091 0.318471 0.195771
0.352571 0.307370 0.201270
0.358420 0.299116 0.208085
0.364590 0.294244 0.211105
0.373782 0.291144 0.211464
0.385858 0.288797 0.210246
0.400218 0.286640 0.208137
0.416307 0.284383 0.205548
0.433540 0.281928 0.202741
0.451003 0.279404 0.199869
0.468604 0.276835 0.196944
0.486352 0.274223 0.193971
0.504251 0.271571 0.190952
0.522307 0.268882 0.187891
0.540526 0.266160 0.184793
0.558912 0.263407 0.181659
0.577471 0.260626 0.178493
0.596205 0.257821 0.175300
0.615120 0.254994 0.172082
0.634218 0.252148 0.168843
0.653502 0.249288 0.165586
0.672974 0.246414 0.162316
0.692637 0.243531 0.159034
0.712492 0.240642 0.155745
0.732541 0.237750 0.152453
0.752784 0.234857 0.149160
0.773221 0.231967 0.145870
0.793854 0.229083 0.142587
0.814681 0.226208 0.139315
0.226632 0.376837 0.164845
0.255735 0.364365 0.169174
0.272253 0.343670 0.187366
0.282622 0.325732 0.203862
0.306459 0.327260 0.194463
0.342135 0.326282 0.183466
0.364617 0.316432 0.187117
0.373938 0.308454 0.193053
0.381433 0.303278 0.196356
0.390403 0.299780 0.197278
0.401468 0.297144 0.196554
0.414501 0.294871 0.194768
0.429204 0.292671 0.192323
0.445283 0.290379 0.189494
0.462483 0.287910 0.186461
0.480431 0.285276 0.183347
0.498575 0.282605 0.180198
0.516890 0.279909 0.177019
0.535379 0.277191 0.173814
0.554049 0.274453 0.170586
0.572900 0.271699 0.167338
0.591937 0.268931 0.164075
0.611163 0.266152 0.160799
0.630579 0.263366 0.157513
0.650187 0.260575 0.154223
0.669989 0.257782 0.150929
0.689986 0.254991 0.147638
0.710178 0.252203 0.144351
0.730565 0.249422 0.141072
0.751148 0.246651 0.137805
0.771925 0.243893 0.134553
0.792895 0.241151 0.131320
0.814058 0.238427 0.128108
0.221597 0.389601 0.152487
0.249619 0.379519 0.154361
0.267419 0.362127 0.167768
0.278466 0.343764 0.185133
0.291517 0.334263 0.191571
0.320263 0.338804 0.176504
0.352508 0.334334 0.170619
0.376160 0.325217 0.173012
0.388194 0.317402 0.177901
0.397288 0.311984 0.181042
0.406757 0.308175 0.182192
0.417616 0.305295 0.181790
0.430059 0.302896 0.180286
0.443997 0.300697 0.178036
0.459263 0.298525 0.175303
0.475677 0.296276 0.172276
0.493077 0.293890 0.169087
0.511320 0.291336 0.165831
0.530104 0.288664 0.162561
0.549083 0.285981 0.159280
0.568251 0.283292 0.155991
0.587612 0.280600 0.152699
0.607168 0.277907 0.149406
0.626919 0.275217 0.146116
0.646865 0.272532 0.142833
0.667008 0.269855 0.139559
0.687348 0.267189 0.136298
0.707883 0.264536 0.133055
0.728614 0.261900 0.129831
0.749538 0.259283 0.126631
0.770654 0.256689 0.123458
0.791960 0.254120 0.120316
0.813453 0.251578 0.117208
0.216776 0.403114 0.140124
0.244048 0.394659 0.140466
0.262544 0.379645 0.150145
0.274742 0.362687 0.164674
0.284636 0.348156 0.177936
0.301885 0.344635 0.176079
0.334482 0.350438 0.158549
0.363415 0.342836 0.157455
0.387846 0.334180 0.158983
0.402026 0.326457 0.162873
0.412710 0.320825 0.165632
0.423012 0.316748 0.166779
0.434132 0.313655 0.166538
0.446469 0.311138 0.165239
0.460090 0.308927 0.163175
0.474934 0.306843 0.160582
0.490892 0.304774 0.157640
0.507846 0.302645 0.154483
0.525680 0.300412 0.151212
0.544291 0.298047 0.147899
0.563582 0.295537 0.144596
0.583285 0.292955 0.141317
0.603185 0.290382 0.138049
0.623283 0.287820 0.134796
0.643578 0.285273 0.131561
0.664069 0.282744 0.128348
0.684757 0.280234 0.125160
0.705638 0.277746 0.122001
0.726711 0.275284 0.118874
0.747975 0.272851 0.115783
0.769425 0.270448 0.112731
0.791058 0.268078 0.109721
0.812872 0.265745 0.106758
0.212332 0.417485 0.127941
0.239122 0.410236 0.127310
0.258087 0.397038 0.134176
0.271056 0.381338 0.145771
0.280791 0.366038 0.158945
0.292556 0.356336 0.165864
0.313666 0.356082 0.159146
0.349339 0.362629 0.141187
0.375039 0.351974 0.144201
0.400052 0.343623 0.145129
0.415973 0.335958 0.148140
0.428152 0.330140 0.150435
0.439437 0.325830 0.151443
0.451091 0.322549 0.151249
0.463638 0.319928 0.150081
0.477258 0.317705 0.148177
0.491974 0.315701 0.145738
0.507737 0.313794 0.142928
0.524469 0.311903 0.139875
0.542085 0.309971 0.136678
0.560497 0.307962 0.133413
0.579623 0.305852 0.130135
0.599388 0.303627 0.126886
0.619717 0.301278 0.123695
0.640366 0.298898 0.120550
0.661210 0.296543 0.117439
0.682246 0.294216 0.114366
0.703471 0.291921 0.111333
0.724883 0.289658 0.108344
0.746479 0.287432 0.105403
0.768254 0.285244 0.102513
0.790204 0.283098 0.099678
0.812325 0.280996 0.096901
0.208423 0.432805 0.116122
0.234938 0.426509 0.114885
0.254290 0.414769 0.119643
0.267869 0.400208 0.128624
0.277979 0.385222 0.139829
0.287199 0.372142 0.150328
0.302209 0.366747 0.151311
0.327013 0.368627 0.141820
0.365208 0.375796 0.124667
0.387532 0.361909 0.131082
0.413018 0.353771 0.131596
0.430392 0.346150 0.133867
0.443953 0.340180 0.135690
0.456277 0.335672 0.136494
0.468624 0.332231 0.136275
0.481590 0.329523 0.135188
0.495432 0.327296 0.133420
0.510235 0.325373 0.131139
0.526003 0.323625 0.128491
0.542692 0.321963 0.125593
0.560243 0.320324 0.122539
0.578587 0.318663 0.119404
0.597654 0.316947 0.116243
0.617376 0.315156 0.113100
0.637690 0.313275 0.110008
0.658536 0.311292 0.106989
0.679848 0.309209 0.104060
0.701412 0.307128 0.101195
0.723155 0.305087 0.098386
0.745072 0.303089 0.095637
0.767158 0.301137 0.092950
0.789409 0.299234 0.090331
0.811818 0.297382 0.087781
0.205198 0.449139 0.104851
0.231597 0.443639 0.103266
0.251314 0.433116 0.106448
0.265437 0.419604 0.113229
0.275895 0.405080 0.122345
0.284615 0.391190 0.132284
0.295463 0.381368 0.138520
0.313713 0.378899 0.135686
0.342109 0.382462 0.124839
0.382272 0.390128 0.109334
0.401023 0.372777 0.118326
0.426913 0.364796 0.118556
0.445527 0.357218 0.120219
0.460360 0.351132 0.121605
0.473729 0.346463 0.122185
0.486858 0.342893 0.121907
0.500377 0.340118 0.120874
0.514593 0.337901 0.119229
0.529641 0.336064 0.117112
0.545563 0.334477 0.114651
0.562345 0.333044 0.111950
0.579952 0.331694 0.109096
0.598330 0.330377 0.106159
0.617423 0.329055 0.103195
0.637170 0.327698 0.100246
0.657514 0.326286 0.097345
0.678399 0.324805 0.094518
0.699773 0.323244 0.091781
0.721585 0.321595 0.089149
0.743773 0.319866 0.086626
0.766154 0.318167 0.084185
0.788685 0.316522 0.081823
0.811361 0.314935 0.079543
0.202801 0.466532 0.094313
0.229205 0.461720 0.092570
0.249287 0.452248 0.094585
0.263929 0.439717 0.099565
0.274755 0.425758 0.106721
0.283488 0.411818 0.115087
0.291972 0.399370 0.123129
0.305729 0.392976 0.125097
0.327227 0.392714 0.119949
0.359106 0.397780 0.108781
0.398451 0.403442 0.097255
0.415613 0.384693 0.106158
0.441855 0.376832 0.106201
0.461545 0.369301 0.107376
0.477543 0.363135 0.108378
0.491936 0.358346 0.108745
0.505889 0.354677 0.108401
0.520044 0.351860 0.107413
0.534738 0.349668 0.105891
0.550140 0.347928 0.103951
0.566323 0.346506 0.101701
0.583299 0.345304 0.099235
0.601050 0.344244 0.096631
0.619538 0.343270 0.093954
0.638718 0.342338 0.091256
0.658538 0.341415 0.088579
0.678946 0.340474 0.085955
0.699890 0.339496 0.083409
0.721320 0.338466 0.080959
0.743187 0.337374 0.078619
0.765401 0.336189 0.076394
0.787857 0.334884 0.074286
0.810486 0.333481 0.072294
0.201368 0.485005 0.084692
0.227868 0.480805 0.082941
0.248325 0.472263 0.084105
0.263477 0.460658 0.087638
0.274702 0.447337 0.093058
0.283536 0.433557 0.099775
0.291395 0.420390 0.107016
0.301417 0.410403 0.112102
0.318143 0.406654 0.111191
0.342889 0.408237 0.104832
0.378106 0.414729 0.094133
0.415778 0.417906 0.086354
0.431374 0.397745 0.094805
0.457924 0.389981 0.094730
0.478556 0.382505 0.095522
0.495619 0.376294 0.096203
0.510995 0.371422 0.096385
0.525784 0.367688 0.095987
0.540618 0.364852 0.095052
0.555853 0.362703 0.093665
0.571682 0.361071 0.091920
0.588198 0.359822 0.089911
0.605435 0.358853 0.087718
0.623391 0.358084 0.085412
0.642041 0.357453 0.083051
0.661348 0.356910 0.080685
0.681269 0.356417 0.078352
0.701698 0.355916 0.076077
0.722536 0.355360 0.073882
0.743726 0.354731 0.071785
0.765219 0.354018 0.069801
0.786966 0.353213 0.067940
0.808928 0.352317 0.066208
0.201017 0.504520 0.076168
0.227642 0.500798 0.074522
0.248493 0.493128 0.075093
0.264186 0.482477 0.077491
0.275845 0.469850 0.081424
0.284863 0.456394 0.086569
0.292557 0.443087 0.092457
0.300330 0.430958 0.098272
0.313132 0.423898 0.100325
0.332841 0.422302 0.097650
0.360793 0.425534 0.090937
0.399030 0.433336 0.081377
0.434291 0.433558 0.076820
0.448354 0.411998 0.084493
0.475168 0.404318 0.084353
0.496624 0.396906 0.084853
0.514657 0.390681 0.085277
0.530963 0.385762 0.085312
0.546573 0.381993 0.084885
0.562100 0.379163 0.084023
0.577909 0.377075 0.082791
0.594204 0.375563 0.081267
0.611098 0.374494 0.079530
0.628630 0.373759 0.077649
0.646759 0.373243 0.075682
0.665442 0.372867 0.073679
0.684636 0.372575 0.071685
0.704291 0.372322 0.069736
0.724354 0.372074 0.067861
0.744773 0.371803 0.066085
0.765497 0.371491 0.064423
0.786478 0.371121 0.062891
0.807691 0.370728 0.061486
0.201625 0.524381 0.068856
0.228329 0.520960 0.067409
0.249531 0.514076 0.067591
0.265800 0.504494 0.069124
0.278092 0.492963 0.071850
0.287517 0.480231 0.075602
0.295199 0.467055 0.080112
0.302318 0.454355 0.085005
0.311576 0.444229 0.088750
0.327227 0.439620 0.088726
0.349921 0.439888 0.085160
0.380976 0.444645 0.078787
0.421378 0.453169 0.070856
0.453368 0.449788 0.068777
0.466512 0.427437 0.075439
0.493532 0.419828 0.075273
0.515714 0.412502 0.075561
0.534628 0.406299 0.075791
0.551797 0.401364 0.075724
0.568171 0.397576 0.075298
0.584333 0.394744 0.074531
0.600629 0.392678 0.073474
0.617258 0.391209 0.072189
0.634322 0.390198 0.070741
0.651864 0.389531 0.069191
0.669887 0.389115 0.067593
0.688374 0.388879 0.065993
0.707289 0.388763 0.064432
0.726592 0.388720 0.062942
0.746238 0.388715 0.061550
0.766177 0.388718 0.060276
0.786365 0.388707 0.059137
0.804287 0.389102 0.060700
0.203235 0.544272 0.062947
0.229999 0.541099 0.061795
0.251483 0.534885 0.061756
0.268223 0.526238 0.062629
0.281071 0.515751 0.064353
0.291011 0.504020 0.066886
0.299046 0.491643 0.070125
0.306132 0.479220 0.073851
0.313347 0.467486 0.077647
0.325315 0.459972 0.079304
0.343791 0.457444 0.078057
0.369331 0.459270 0.074295
0.402812 0.464854 0.068765
0.444158 0.473211 0.062809
0.472650 0.466263 0.062436
0.485108 0.443412 0.067792
0.512219 0.435867 0.067629
0.534987 0.428652 0.067770
0.554655 0.422509 0.067864
0.572560 0.417580 0.067740
0.589567 0.413769 0.067350
0.606224 0.410909 0.066707
0.622871 0.408825 0.065854
0.639711 0.407363 0.064842
0.656857 0.406387 0.063727
0.674363 0.405787 0.062561
0.692245 0.405474 0.061390
0.710493 0.405372 0.060256
0.729084 0.405424 0.059193
0.747983 0.405581 0.058230
0.767151 0.405804 0.057391
0.786545 0.406063 0.056694
0.800119 0.407056 0.062427
0.205966 0.564096 0.058647
0.232759 0.561125 0.057874
0.254459 0.555485 0.057758
0.271583 0.547662 0.058159
0.284897 0.538129 0.059075
0.295284 0.527357 0.060551
0.303647 0.515827 0.062600
0.310860 0.504031 0.065147
0.317742 0.492457 0.068016
0.326529 0.482687 0.070396
0.341283 0.477518 0.070667
0.362334 0.476566 0.068870
0.390185 0.479321 0.065469
0.425502 0.485304 0.061270
0.467204 0.493356 0.057605
0.492063 0.482937 0.058036
0.503873 0.459702 0.061792
0.530958 0.452235 0.061658
0.554138 0.445136 0.061705
0.574394 0.439065 0.061717
0.592892 0.434163 0.061580
0.610417 0.430351 0.061267
0.627479 0.427483 0.060788
0.644403 0.425398 0.060179
0.661393 0.423952 0.059483
0.678565 0.423018 0.058746
0.695984 0.422487 0.058011
0.713672 0.422270 0.057319
0.731629 0.422296 0.056704
0.749838 0.422504 0.056196
0.768272 0.422844 0.055820
0.786897 0.423277 0.055595
0.795534 0.424499 0.066195
0.209915 0.583739 0.056140
0.236697 0.580930 0.055816
0.258550 0.575783 0.055751
0.275977 0.568692 0.055845
0.289679 0.560029 0.056140
0.300451 0.550170 0.056735
0.309112 0.539497 0.057722
0.316461 0.528409 0.059134
0.323250 0.517310 0.060918
0.330316 0.506699 0.062896
0.341694 0.499312 0.063928
0.358964 0.495961 0.063461
0.382305 0.496213 0.061706
0.412121 0.499650 0.059192
0.448849 0.505873 0.056754
0.490350 0.513496 0.055555
0.511509 0.499741 0.055791
0.522717 0.476253 0.057687
0.549659 0.468877 0.057600
0.573089 0.461902 0.057602
0.593770 0.455921 0.057579
0.612718 0.451065 0.057475
0.630639 0.447272 0.057279
0.648003 0.444411 0.057003
0.665118 0.442338 0.056676
0.682180 0.440916 0.056334
0.699311 0.440024 0.056015
0.716577 0.439559 0.055754
0.734008 0.439433 0.055585
0.751606 0.439555 0.055498
0.769354 0.439809 0.055409
0.787239 0.440135 0.055313
0.790594 0.441007 0.070952
0.215038 0.603030 0.055434
0.241559 0.600264 0.055349
0.263424 0.595501 0.055319
0.281151 0.589080 0.055339
0.295324 0.581278 0.055400
0.306564 0.572346 0.055490
0.315524 0.562540 0.055617
0.323010 0.552210 0.055994
0.329749 0.541702 0.056710
0.336395 0.531359 0.057726
0.344796 0.522327 0.058730
0.358677 0.516942 0.058945
0.378197 0.515011 0.058307
0.403522 0.516177 0.057109
0.434925 0.520089 0.055922
0.472549 0.526343 0.055437
0.512662 0.532800 0.055112
0.530647 0.516353 0.055314
0.541529 0.492986 0.055696
0.568216 0.485719 0.055671
0.591739 0.478881 0.055666
0.612688 0.473004 0.055654
0.631942 0.468213 0.055625
0.650131 0.464455 0.055583
0.667686 0.461615 0.055543
0.684886 0.459544 0.055495
0.701918 0.458100 0.055438
0.718901 0.457152 0.055370
0.735906 0.456589 0.055292
0.752976 0.456314 0.055206
0.770131 0.456244 0.055112
0.786090 0.456336 0.056438
0.785362 0.456473 0.076107
0.220147 0.621423 0.055080
0.246192 0.618598 0.054983
0.267962 0.614118 0.054942
0.285922 0.608253 0.054953
0.300582 0.601226 0.055007
0.312481 0.593233 0.055094
0.322174 0.584462 0.055205
0.330225 0.575113 0.055328
0.337204 0.565408 0.055456
0.343695 0.555598 0.055582
0.350480 0.546083 0.055871
0.361182 0.539027 0.056121
0.377295 0.535229 0.056050
0.398783 0.534401 0.055738
0.425739 0.536229 0.055501
0.457976 0.540162 0.055276
0.495145 0.545558 0.054963
0.533415 0.550618 0.054608
0.548734 0.532012 0.054914
0.559929 0.509507 0.055282
0.586254 0.502336 0.055270
0.609737 0.495629 0.055265
0.630813 0.489845 0.055257
0.650227 0.485085 0.055239
0.668541 0.481294 0.055209
0.686146 0.478360 0.055166
0.703312 0.476153 0.055111
0.720221 0.474544 0.055045
0.736996 0.473415 0.054968
0.753716 0.472663 0.054881
0.770430 0.472197 0.054786
0.780421 0.471593 0.062286
0.779901 0.471034 0.081502
0.224939 0.638817 0.054687
0.250503 0.635925 0.054580
0.272127 0.631660 0.054529
0.290226 0.626243 0.054530
0.305255 0.619850 0.054575
0.317683 0.612636 0.054656
0.327996 0.604747 0.054763
0.336682 0.596334 0.054888
0.344237 0.587561 0.055020
0.351158 0.578615 0.055153
0.357950 0.569706 0.055279
0.366121 0.561634 0.055376
0.379123 0.556317 0.055400
0.397109 0.553717 0.055354
0.419979 0.553532 0.055238
0.447612 0.555371 0.055049
0.479841 0.558786 0.054781
0.516172 0.563211 0.054432
0.552555 0.566902 0.054064
0.565763 0.546710 0.054474
0.577292 0.525095 0.054882
0.603223 0.518012 0.054869
0.626594 0.511420 0.054861
0.647712 0.505712 0.054849
0.667207 0.500968 0.054827
0.685582 0.497134 0.054792
0.703196 0.494109 0.054743
0.720301 0.491774 0.054682
0.737077 0.490011 0.054609
0.753647 0.488712 0.054525
0.770095 0.487781 0.054431
0.774521 0.486078 0.068129
0.774255 0.484827 0.086981
0.229431 0.655258 0.054263
0.254515 0.652296 0.054148
0.275953 0.648198 0.054088
0.294119 0.643141 0.054079
0.309417 0.637268 0.054114
0.322264 0.630700 0.054186
0.333087 0.623553 0.054286
0.342313 0.615941 0.054406
0.350376 0.607988 0.054539
0.357709 0.599833 0.054676
0.364748 0.591634 0.054810
0.371982 0.583591 0.054934
0.382336 0.577204 0.055001
0.397262 0.573196 0.054993
0.416657 0.571372 0.054912
0.440410 0.571455 0.054760
0.468390 0.573108 0.054534
0.500421 0.575956 0.054231
0.535750 0.579454 0.053858
0.568502 0.580025 0.053564
0.581798 0.560510 0.054002
0.593634 0.539760 0.054442
0.619156 0.532767 0.054428
0.642358 0.526279 0.054418
0.663452 0.520635 0.054403
0.682968 0.515903 0.054376
0.701355 0.512029 0.054337
0.718942 0.508919 0.054284
0.735968 0.506465 0.054218
0.752605 0.504560 0.054139
0.767895 0.502989 0.055344
0.768415 0.499943 0.073801
0.768450 0.497986 0.092394
0.233645 0.670805 0.053815
0.258256 0.667779 0.053694
0.279478 0.663813 0.053626
0.297653 0.659049 0.053607
0.313141 0.653601 0.053632
0.326315 0.647568 0.053693
0.337551 0.641040 0.053784
0.347230 0.634107 0.053897
0.355733 0.626864 0.054025
0.363441 0.619413 0.054161
0.370735 0.611874 0.054298
0.378000 0.604378 0.054430
0.386364 0.597433 0.054536
0.398692 0.592408 0.054568
0.415138 0.589318 0.054525
0.435597 0.587977 0.054412
0.459954 0.588137 0.054228
0.488072 0.589512 0.053971
0.519782 0.591799 0.053643
0.554027 0.594465 0.053258
0.583572 0.592364 0.053049
0.596921 0.573491 0.053507
0.609016 0.553558 0.053971
0.634120 0.546656 0.053956
0.657110 0.540264 0.053944
0.678128 0.534679 0.053926
0.697615 0.529957 0.053897
0.715975 0.526046 0.053854
0.733510 0.522860 0.053797
0.750442 0.520300 0.053727
0.761176 0.517207 0.060740
0.762117 0.513337 0.079140
0.762504 0.510642 0.097593
0.237608 0.685535 0.053350
0.261756 0.682458 0.053224
0.282744 0.678602 0.053149
0.300883 0.674079 0.053122
0.316498 0.668982 0.053136
0.329921 0.663390 0.053187
0.341490 0.657377 0.053266
0.351544 0.651014 0.053370
0.360422 0.644374 0.053490
0.368462 0.637536 0.053621
0.376000 0.630590 0.053756
0.383375 0.623636 0.053889
0.390949 0.616794 0.054014
0.401048 0.611078 0.054087
0.414966 0.607048 0.054084
0.432602 0.604587 0.054010
0.453851 0.603522 0.053866
0.478598 0.603639 0.053654
0.506711 0.604705 0.053375
0.538038 0.606482 0.053030
0.571185 0.608444 0.052646
0.597886 0.604042 0.052528
0.611230 0.585745 0.052998
0.623518 0.566562 0.053478
0.648199 0.559751 0.053462
0.670946 0.553451 0.053449
0.691847 0.547920 0.053428
0.711268 0.543209 0.053396
0.729572 0.539268 0.053351
0.747036 0.536017 0.053291
0.754204 0.531164 0.065495
0.755632 0.526402 0.083991
0.756423 0.522923 0.102436
0.241353 0.699541 0.052874
0.265052 0.696430 0.052745
0.285796 0.692671 0.052666
0.303867 0.688352 0.052631
0.319558 0.683547 0.052636
0.333168 0.678321 0.052675
0.345002 0.672735 0.052743
0.355364 0.666846 0.052835
0.364557 0.660713 0.052945
0.372883 0.654399 0.053068
0.380644 0.647971 0.053197
0.388139 0.641506 0.053328
0.395668 0.635089 0.053454
0.404089 0.629041 0.053560
0.415818 0.624343 0.053595
0.431012 0.621031 0.053560
0.449573 0.618989 0.053457
0.471401 0.618064 0.053288
0.496385 0.618080 0.053055
0.524408 0.618853 0.052761
0.555346 0.620208 0.052409
0.587437 0.621620 0.052035
0.611582 0.615197 0.052009
0.624841 0.597384 0.052482
0.637237 0.578860 0.052971
0.661497 0.572143 0.052955
0.683980 0.565931 0.052940
0.704736 0.560452 0.052917
0.724064 0.555756 0.052883
0.742292 0.551793 0.052836
0.746971 0.545021 0.069446
0.748954 0.539281 0.088203
0.750205 0.534954 0.106784
0.244916 0.712930 0.052394
0.268186 0.709810 0.052265
0.288683 0.706144 0.052182
0.306664 0.702003 0.052141
0.322393 0.697446 0.052137
0.336142 0.692526 0.052166
0.348185 0.687293 0.052222
0.358797 0.681796 0.052302
0.368252 0.676084 0.052400
0.376822 0.670208 0.052513
0.384780 0.664222 0.052634
0.392392 0.658186 0.052758
0.399926 0.652164 0.052882
0.407661 0.646232 0.052999
0.417471 0.641079 0.053070
0.430532 0.637140 0.053072
0.446750 0.634342 0.053007
0.466032 0.632579 0.052879
0.488285 0.631720 0.052691
0.513410 0.631627 0.052445
0.541313 0.632165 0.052144
0.571862 0.633207 0.051795
0.603024 0.634245 0.051441
0.624817 0.625980 0.051502
0.637891 0.608535 0.051969
0.650291 0.590558 0.052457
0.674138 0.583936 0.052442
0.696345 0.577811 0.052426
0.716937 0.572386 0.052402
0.735846 0.567645 0.052788
0.739467 0.558945 0.072439
0.742075 0.552116 0.091632
0.743845 0.546861 0.110501
0.248337 0.725827 0.051918
0.271202 0.722725 0.051790
0.291458 0.719158 0.051706
0.309336 0.715180 0.051660
0.325078 0.710838 0.051648
0.338928 0.706176 0.051667
0.351136 0.701237 0.051712
0.361952 0.696063 0.051780
0.371623 0.690697 0.051866
0.380399 0.685183 0.051966
0.388525 0.679565 0.052076
0.396244 0.673892 0.052192
0.403797 0.668214 0.052309
0.411423 0.662589 0.052423
0.419788 0.657224 0.052520
0.430965 0.652836 0.052555
0.445121 0.649466 0.052527
0.462166 0.647042 0.052438
0.482018 0.645473 0.052292
0.504594 0.644656 0.052090
0.529817 0.644490 0.051837
0.557617 0.644884 0.051539
0.587792 0.645743 0.051204
0.618219 0.646599 0.050876
0.637763 0.636560 0.051014
0.650531 0.619342 0.051467
0.662815 0.601779 0.051947
