assets/luts/moa_korean_travel_pop.cube
TITLE "MOA Korean Travel Pop"
LUT_3D_SIZE 9
DOMAIN_MIN 0.0 0.0 0.0
DOMAIN_MAX 1.0 1.0 1.0
0.026145 0.025777 0.025541
0.160852 0.023500 0.023878
0.293501 0.023500 0.024242
0.426148 0.023496 0.024604
0.558427 0.022675 0.024149
0.690514 0.020540 0.022382
0.822975 0.017264 0.019480
0.956284 0.013025 0.015619
1.000000 0.013789 0.016703
0.083823 0.314502 0.006930
0.289770 0.253255 0.006934
0.400655 0.176110 0.013334
0.484528 0.151351 0.013311
0.600187 0.139770 0.010151
0.722426 0.131954 0.005772
0.849354 0.125336 0.000576
0.979865 0.119082 0.000000
1.000000 0.132492 0.013732
0.097834 0.437102 0.000000
0.194786 0.332192 0.000000
0.410645 0.355400 0.000000
0.565457 0.300136 0.000000
0.659226 0.268394 0.000000
0.763221 0.253181 0.000000
0.882554 0.242886 0.000000
1.000000 0.233667 0.000000
1.000000 0.256076 0.021028
0.113961 0.566028 0.000000
0.233119 0.504328 0.000000
0.313553 0.444638 0.000000
0.538847 0.464145 0.000000
0.708253 0.417467 0.000000
0.822200 0.384705 0.000000
0.933213 0.367773 0.000000
1.000000 0.358697 0.000000
1.000000 0.381820 0.036757
0.138494 0.701230 0.000000
0.268063 0.661976 0.000000
0.326236 0.586513 0.000000
0.471381 0.591311 0.000000
0.673351 0.580000 0.000000
0.845768 0.537637 0.000000
0.972407 0.505722 0.000000
1.000000 0.488645 0.000000
1.000000 0.498867 0.075360
0.171423 0.833525 0.000000
0.304742 0.806345 0.000000
0.376613 0.750619 0.000000
0.450277 0.706603 0.000000
0.636942 0.736392 0.000000
0.803529 0.693463 0.000000
0.972529 0.653131 0.000000
1.000000 0.617551 0.000000
1.000000 0.602103 0.110426
0.203385 0.959095 0.000000
0.337160 0.938541 0.000000
0.419610 0.896549 0.000000
0.478619 0.847633 0.000000
0.590274 0.835758 0.000000
0.793470 0.870126 0.000000
0.927518 0.801552 0.000000
1.000000 0.747644 0.000000
1.000000 0.698333 0.129693
0.255289 1.000000 0.000000
0.376198 1.000000 0.000000
0.458830 1.000000 0.000000
0.521934 0.991502 0.000000
0.594080 0.958711 0.000000
0.734451 0.965203 0.000000
0.949761 0.997722 0.000000
1.000000 0.901384 0.000000
1.000000 0.798429 0.127525
0.356813 1.000000 0.125834
0.449920 1.000000 0.115025
0.514198 1.000000 0.087997
0.565469 1.000000 0.051719
0.618006 1.000000 0.013510
0.709904 1.000000 0.000640
0.846801 0.998277 0.020169
0.997501 0.997501 0.061290
0.999351 0.917451 0.100215
0.023500 0.052051 0.289779
0.156149 0.023500 0.155196
0.288799 0.023500 0.155196
0.421388 0.023399 0.155109
0.553489 0.022169 0.154045
0.685521 0.019679 0.151890
0.818028 0.016103 0.148797
0.951461 0.011617 0.144916
1.000000 0.007964 0.141755
0.014184 0.263713 0.218996
0.173449 0.152306 0.138726
0.311796 0.132074 0.131309
0.449335 0.123124 0.122874
0.587264 0.113734 0.113928
0.726006 0.103871 0.104492
0.865889 0.093550 0.094594
0.998358 0.090663 0.092065
1.000000 0.129222 0.130834
0.001318 0.359738 0.133734
0.185370 0.450182 0.095797
0.426062 0.383273 0.093345
0.567737 0.283473 0.076386
0.660095 0.245531 0.072783
0.785652 0.223463 0.064222
0.917263 0.207707 0.055112
1.000000 0.217556 0.078409
1.000000 0.256225 0.134689
0.000000 0.511491 0.065405
0.188464 0.611778 0.046315
0.314288 0.482824 0.072282
0.583717 0.514422 0.045914
0.776251 0.429294 0.015581
0.878624 0.376651 0.011986
0.987411 0.349630 0.010062
1.000000 0.359218 0.075330
1.000000 0.390877 0.155539
0.000000 0.665754 0.000000
0.205641 0.770550 0.016483
0.360060 0.691313 0.033940
0.459121 0.616936 0.047329
0.739042 0.646268 0.019554
0.945763 0.572147 0.000000
1.000000 0.515573 0.005159
1.000000 0.504959 0.115561
1.000000 0.519100 0.190819
0.000000 0.813543 0.000000
0.226011 0.918716 0.000000
0.391577 0.866037 0.008804
0.467849 0.770784 0.033953
0.636876 0.776630 0.029898
0.883597 0.769505 0.000000
1.000000 0.682385 0.034428
1.000000 0.631317 0.154709
1.000000 0.627915 0.234497
0.008262 0.948367 0.000000
0.274830 1.000000 0.029063
0.418793 1.000000 0.003647
0.508742 0.945294 0.010657
0.596076 0.887340 0.027210
0.813007 0.929084 0.011473
1.000000 0.873755 0.004005
1.000000 0.752651 0.162355
1.000000 0.723608 0.262008
0.071066 1.000000 0.000000
0.376193 1.000000 0.164773
0.482079 1.000000 0.146310
0.549217 1.000000 0.103082
0.608336 0.982954 0.071748
0.724618 0.977279 0.065874
0.921295 0.997326 0.085294
1.000000 0.889589 0.139135
1.000000 0.819228 0.264272
0.219374 1.000000 0.115722
0.457768 1.000000 0.260680
0.544463 1.000000 0.246750
0.600718 1.000000 0.213048
0.647190 1.000000 0.169883
0.712170 0.999343 0.136405
0.834489 0.998027 0.146430
0.992495 0.997500 0.189606
0.998207 0.933907 0.234723
0.023500 0.066171 0.421475
0.158544 0.023500 0.295234
0.288799 0.023500 0.286892
0.421232 0.023136 0.286626
0.553166 0.021462 0.285404
0.685170 0.018586 0.283303
0.817765 0.014683 0.280454
0.951378 0.009930 0.276982
1.000000 0.006122 0.274202
0.007851 0.287765 0.437819
0.128228 0.162110 0.443060
0.306456 0.130454 0.303927
0.443261 0.122183 0.280415
0.580673 0.113190 0.266778
0.719066 0.103620 0.255271
0.858708 0.093586 0.244411
0.995077 0.087400 0.236505
1.000000 0.123234 0.259076
0.000000 0.385206 0.315074
0.083443 0.415707 0.355076
0.308287 0.265459 0.237952
0.449533 0.233224 0.230815
0.589526 0.222424 0.220861
0.730920 0.211791 0.210787
0.866023 0.208145 0.207601
0.992456 0.214180 0.214076
1.000000 0.250735 0.250985
0.000000 0.476653 0.248843
0.067100 0.519648 0.233204
0.294918 0.605892 0.188611
0.581211 0.530572 0.186325
0.722662 0.402069 0.167397
0.814022 0.357790 0.166532
0.901384 0.355546 0.199453
1.000000 0.356035 0.212902
1.000000 0.391321 0.268943
0.000000 0.615709 0.202094
0.034740 0.699307 0.144238
0.311053 0.766382 0.157037
0.447874 0.633739 0.179742
0.738049 0.663365 0.157310
0.908225 0.562574 0.149172
0.939814 0.521314 0.215412
1.000000 0.509282 0.229776
1.000000 0.530766 0.302137
0.000000 0.766209 0.155225
0.009580 0.875926 0.055210
0.344440 0.886736 0.161538
0.491362 0.835110 0.151820
0.598171 0.763472 0.165667
0.871489 0.778078 0.145922
0.953185 0.676566 0.238535
1.000000 0.648034 0.281145
1.000000 0.650632 0.349617
0.000000 0.910667 0.110433
0.018324 1.000000 0.003689
0.417840 0.932344 0.243646
0.532876 0.910669 0.226141
0.592704 0.868514 0.196143
0.744466 0.870464 0.195692
0.919372 0.830220 0.226245
1.000000 0.768246 0.306322
1.000000 0.749747 0.389504
0.000000 1.000000 0.064222
0.198328 1.000000 0.147385
0.477115 1.000000 0.299358
0.576010 1.000000 0.273696
0.634783 0.986790 0.231362
0.710330 0.967205 0.207169
0.886489 0.982254 0.223494
0.999090 0.905760 0.273611
1.000000 0.841730 0.400005
0.089952 1.000000 0.140631
0.319856 1.000000 0.247993
0.558413 1.000000 0.394866
0.636935 0.999259 0.376507
0.683866 0.998859 0.333594
0.727854 0.998565 0.282813
0.825482 0.997803 0.273153
0.976543 0.997500 0.315552
0.997593 0.950827 0.369120
0.023500 0.080292 0.553171
0.155613 0.023500 0.460858
0.288798 0.023499 0.418587
0.420984 0.022717 0.418122
0.552781 0.020617 0.416872
0.684782 0.017376 0.414942
0.817485 0.013167 0.412436
0.951292 0.008166 0.409458
1.000000 0.004218 0.407108
0.007472 0.276090 0.578430
0.101719 0.155409 0.601524
0.287252 0.124107 0.451243
0.442247 0.120584 0.438780
0.579828 0.111403 0.420320
0.718454 0.101668 0.406737
0.858383 0.091505 0.394950
0.995066 0.085257 0.385258
1.000000 0.121364 0.394622
0.000000 0.454972 0.547319
0.052405 0.424315 0.622812
0.218458 0.259088 0.594956
0.443068 0.230202 0.438479
0.582850 0.220769 0.397907
0.723977 0.210964 0.378282
0.861803 0.205425 0.365982
0.989370 0.210927 0.363260
1.000000 0.244995 0.382778
0.000000 0.510997 0.414217
0.033943 0.571908 0.474633
0.164991 0.576389 0.500351
0.445280 0.379349 0.337004
0.591487 0.335712 0.331141
0.729734 0.331206 0.328080
0.857402 0.338965 0.336687
0.985934 0.347852 0.346161
1.000000 0.382493 0.381333
0.000000 0.612132 0.361596
0.027205 0.670547 0.375042
0.169448 0.674410 0.353624
0.423160 0.748715 0.310679
0.732973 0.677390 0.298529
0.819531 0.541002 0.335189
0.897955 0.510246 0.345904
1.000000 0.504844 0.361102
1.000000 0.531603 0.412105
0.000000 0.744073 0.328734
0.018263 0.818866 0.313163
0.153699 0.846647 0.266749
0.477602 0.828682 0.356592
0.578160 0.753306 0.323828
0.814518 0.754037 0.342146
0.934873 0.683476 0.380471
1.000000 0.657160 0.393018
1.000000 0.665473 0.452912
0.000000 0.882687 0.295091
0.004539 0.972652 0.246900
0.230546 0.918677 0.264824
0.524179 0.919201 0.388619
0.622942 0.887143 0.359880
0.710217 0.853447 0.333842
0.907749 0.838974 0.371261
1.000000 0.787025 0.438452
1.000000 0.775661 0.509087
0.000000 1.000000 0.256424
0.108016 1.000000 0.256925
0.288073 1.000000 0.275436
0.577851 0.999816 0.433374
0.667496 0.993003 0.401688
0.715827 0.964542 0.356937
0.853778 0.967148 0.358696
0.998044 0.922337 0.407880
0.999691 0.866631 0.534257
0.059531 1.000000 0.277262
0.216900 1.000000 0.300333
0.418941 1.000000 0.377946
0.659070 0.998417 0.528766
0.726541 0.997932 0.503504
0.762997 0.997822 0.447491
0.823249 0.997610 0.403944
0.961242 0.997500 0.438497
0.997500 0.968232 0.503614
0.023299 0.094225 0.684802
0.141875 0.023500 0.615273
0.289354 0.023378 0.558571
0.420646 0.022147 0.549661
0.552336 0.019643 0.548508
0.684358 0.016056 0.546856
0.817187 0.011561 0.544786
0.951202 0.006332 0.542378
1.000000 0.002258 0.540502
0.004985 0.278557 0.713525
0.079215 0.151822 0.755614
0.267754 0.109332 0.632767
0.426245 0.114944 0.577422
0.578941 0.109526 0.574443
0.717821 0.099650 0.558837
0.858052 0.089379 0.546164
0.995054 0.083093 0.534705
1.000000 0.119504 0.530755
0.000000 0.445192 0.696239
0.031179 0.390232 0.793667
0.193302 0.253678 0.754305
0.407532 0.223636 0.591107
0.581670 0.218564 0.576451
0.723249 0.208882 0.546865
0.861466 0.203490 0.527750
0.989348 0.209252 0.516806
1.000000 0.243773 0.521813
0.000000 0.620043 0.670240
0.000000 0.646551 0.771552
0.141317 0.561852 0.785267
0.309301 0.357127 0.751608
0.584746 0.332356 0.577492
0.724511 0.328631 0.520882
0.853320 0.336487 0.503813
0.982692 0.344865 0.499738
1.000000 0.377113 0.515125
0.000000 0.644550 0.520790
0.000883 0.730641 0.599167
0.133456 0.736252 0.626254
0.262873 0.743131 0.653606
0.588544 0.505765 0.452122
0.718336 0.470607 0.464397
0.845593 0.479303 0.475093
0.971272 0.489262 0.485962
1.000000 0.518092 0.515548
0.000000 0.752668 0.478126
0.001653 0.830185 0.511936
0.139173 0.824881 0.508844
0.325632 0.784386 0.491223
0.583035 0.818254 0.499069
0.804972 0.764443 0.485529
0.903467 0.675799 0.505728
0.985829 0.652639 0.509898
1.000000 0.667749 0.553717
0.000000 0.874333 0.451453
0.000000 0.956130 0.454488
0.200434 0.899849 0.456417
0.365972 0.894944 0.450142
0.628998 0.908347 0.530737
0.700635 0.851126 0.480557
0.897912 0.849009 0.514080
1.000000 0.803805 0.561847
1.000000 0.797148 0.614135
0.000000 1.000000 0.421117
0.079611 1.000000 0.422620
0.237891 1.000000 0.426928
0.407025 0.997189 0.434890
0.680464 0.994806 0.570648
0.752715 0.974986 0.529758
0.826115 0.952810 0.491828
0.989218 0.933225 0.550606
0.998086 0.894739 0.665468
0.040097 1.000000 0.413457
0.186540 1.000000 0.431244
0.340709 1.000000 0.454760
0.516027 1.000000 0.504751
0.760123 0.997541 0.662836
0.811576 0.997500 0.625615
0.838649 0.997500 0.551568
0.947714 0.997500 0.558266
0.997500 0.985726 0.638142
0.022439 0.107564 0.816364
0.125457 0.023500 0.761406
0.284735 0.023083 0.708195
0.420238 0.021434 0.681493
0.551835 0.018546 0.680367
0.683902 0.014633 0.679093
0.816875 0.009871 0.677542
0.951109 0.004434 0.675771
1.000000 0.000248 0.674408
0.001940 0.284107 0.845598
0.058659 0.149761 0.907676
0.234674 0.091354 0.806942
0.415345 0.106374 0.727005
0.565565 0.103703 0.713987
0.717171 0.097575 0.711606
0.857715 0.087217 0.698079
0.995042 0.080916 0.684860
1.000000 0.117660 0.667475
0.000000 0.442388 0.838700
0.007538 0.374565 0.957591
0.175601 0.254031 0.905207
0.380410 0.206806 0.779256
0.554811 0.213116 0.719520
0.722527 0.206818 0.716351
0.861136 0.201590 0.690325
0.989326 0.207630 0.671031
1.000000 0.242613 0.661328
0.000000 0.617397 0.823388
0.000000 0.608885 0.947387
0.150535 0.516862 0.927199
0.350992 0.403883 0.840434
0.531505 0.332020 0.729196
0.723894 0.327126 0.716766
0.852973 0.335402 0.674251
0.982168 0.344031 0.657368
1.000000 0.376590 0.655559
0.000000 0.782622 0.796408
0.000000 0.848025 0.913710
0.121764 0.785575 0.912243
0.338653 0.676409 0.853718
0.492208 0.528569 0.825755
0.712761 0.466876 0.703927
0.840944 0.476662 0.652259
0.967532 0.486103 0.640813
1.000000 0.512692 0.648130
0.000000 0.778852 0.630403
0.000000 0.881031 0.718788
0.110075 0.883948 0.743551
0.302558 0.829971 0.732001
0.451702 0.814965 0.744868
0.700749 0.652622 0.600408
0.828089 0.619235 0.612444
0.950648 0.626768 0.621835
1.000000 0.648312 0.644433
0.000000 0.886729 0.590696
0.000000 0.981098 0.637731
0.179374 0.914534 0.630590
0.331722 0.892473 0.632205
0.490310 0.874755 0.627382
0.731974 0.901032 0.669004
0.890875 0.861104 0.653719
0.980161 0.806841 0.675245
1.000000 0.802631 0.698108
0.000000 1.000000 0.565813
0.072030 1.000000 0.579463
0.213834 1.000000 0.587147
0.370022 0.985633 0.593933
0.536720 0.978610 0.605371
0.785479 0.986679 0.712246
0.823960 0.949536 0.638701
0.981254 0.944809 0.692905
0.997500 0.925881 0.788166
0.032409 1.000000 0.543114
0.170949 1.000000 0.561157
0.312494 1.000000 0.579855
0.461875 1.000000 0.603389
0.630993 0.998301 0.647903
0.861718 0.997500 0.797338
0.888085 0.997500 0.736725
0.938075 0.997500 0.676655
0.997500 0.997500 0.772670
0.020957 0.120368 0.948125
0.108664 0.023500 0.902822
0.274359 0.022694 0.855828
0.418591 0.020551 0.821481
0.551281 0.017333 0.812500
0.683415 0.013114 0.811695
0.816548 0.008105 0.810739
0.951013 0.002480 0.809666
1.000000 0.000000 0.808848
0.000000 0.290910 0.977307
0.049960 0.156908 1.000000
0.197576 0.073168 0.972789
0.398378 0.092314 0.892726
0.554963 0.097555 0.853514
0.705427 0.091610 0.852266
0.857374 0.085028 0.850714
0.995031 0.078734 0.835730
1.000000 0.115836 0.804775
0.000000 0.445991 0.979292
0.047452 0.382524 1.000000
0.245049 0.321777 0.958167
0.366733 0.230481 0.909261
0.537413 0.212250 0.864187
0.698759 0.204880 0.856287
0.860813 0.199735 0.853688
0.989305 0.206070 0.825904
1.000000 0.241520 0.801290
0.000000 0.615253 0.970364
0.021734 0.577902 1.000000
0.238566 0.525412 0.978869
0.381212 0.442136 0.945624
0.512835 0.351655 0.881543
0.682641 0.337096 0.847965
0.852517 0.334369 0.845071
0.981536 0.343263 0.815089
1.000000 0.376132 0.795845
0.000000 0.785661 0.947244
0.007027 0.790330 1.000000
0.223689 0.708995 0.966641
0.385885 0.654730 0.953498
0.525192 0.568855 0.927270
0.663186 0.479728 0.843616
0.839796 0.476011 0.831954
0.966168 0.485417 0.799009
1.000000 0.511987 0.786522
0.000000 0.924020 0.905907
0.000000 0.993653 1.000000
0.199700 0.897376 0.947701
0.358605 0.844576 0.935023
0.520274 0.786649 0.924456
0.662529 0.689199 0.904602
0.822985 0.614841 0.814011
0.946807 0.622971 0.777908
1.000000 0.642840 0.775140
0.000000 0.906619 0.735403
0.000000 1.000000 0.824249
0.182008 0.939901 0.801903
0.332388 0.923084 0.813835
0.480570 0.907863 0.826620
0.625871 0.895068 0.840680
0.806502 0.784555 0.741481
0.930225 0.759820 0.752957
1.000000 0.775505 0.770325
0.000000 1.000000 0.697187
0.086607 1.000000 0.715788
0.218047 1.000000 0.733503
0.353797 0.996628 0.746906
0.501558 0.977990 0.755280
0.656362 0.963840 0.764124
0.888194 0.984737 0.848692
0.978156 0.960037 0.830549
0.997500 0.949303 0.879373
0.037026 1.000000 0.661140
0.171002 1.000000 0.681867
0.304835 1.000000 0.702120
0.440305 1.000000 0.722480
0.582053 0.998449 0.745791
0.744928 0.997503 0.787710
0.963344 0.997500 0.931866
0.950221 0.997500 0.820625
0.997500 0.997500 0.907199
0.021852 0.135034 1.000000
0.092052 0.023482 1.000000
0.260887 0.022243 1.000000
0.412611 0.019598 0.965610
0.550459 0.016002 0.946293
0.682898 0.011504 0.944702
0.816209 0.006268 0.944409
0.950914 0.000475 0.944085
1.000000 0.000000 0.943840
0.023218 0.311166 1.000000
0.165353 0.260126 1.000000
0.223769 0.135490 1.000000
0.386804 0.113522 1.000000
0.543775 0.097292 0.994602
0.693880 0.088851 0.988787
0.844055 0.082485 0.988708
0.995019 0.076555 0.987319
1.000000 0.114039 0.942647
0.005968 0.459690 1.000000
0.166056 0.432213 1.000000
0.284729 0.366959 1.000000
0.362904 0.255444 1.000000
0.524004 0.228637 0.999750
0.679964 0.213821 0.983098
0.834317 0.208646 0.982867
0.989285 0.204577 0.981391
1.000000 0.240486 0.941618
0.000000 0.612471 1.000000
0.155375 0.579629 1.000000
0.305671 0.554166 1.000000
0.416405 0.484350 1.000000
0.507795 0.380325 1.000000
0.666141 0.350679 0.981988
0.824183 0.344272 0.976107
0.980802 0.342569 0.972776
1.000000 0.375745 0.935892
0.000000 0.774537 1.000000
0.143841 0.731376 1.000000
0.299005 0.697883 1.000000
0.443170 0.671860 1.000000
0.562325 0.612044 1.000000
0.655083 0.509562 0.986564
0.808982 0.486174 0.962267
0.964752 0.484706 0.956703
1.000000 0.511269 0.924506
0.000000 0.931267 1.000000
0.127864 0.884526 1.000000
0.283045 0.844905 1.000000
0.427067 0.812587 1.000000
0.572544 0.782153 1.000000
0.699513 0.731669 0.993314
0.789963 0.628626 0.947379
0.945172 0.621895 0.937041
1.000000 0.641908 0.911086
0.000000 1.000000 1.000000
0.111592 1.000000 1.000000
0.261947 0.992731 1.000000
0.402799 0.962914 1.000000
0.545811 0.931239 1.000000
0.703909 0.893618 0.989255
0.830173 0.846405 0.974233
0.926551 0.755475 0.917946
1.000000 0.770187 0.899659
0.000000 1.000000 0.838357
0.099473 1.000000 0.851464
0.245409 1.000000 0.865326
0.380645 1.000000 0.886147
0.515556 0.998566 0.907443
0.662579 0.985780 0.922119
0.806352 0.977158 0.939552
0.915944 0.910369 0.884570
0.997523 0.905839 0.899348
0.053129 1.000000 0.765046
0.187102 1.000000 0.787253
0.319118 1.000000 0.810187
0.449418 0.999706 0.833566
0.578930 0.998137 0.857063
0.709623 0.997506 0.881387
0.852503 0.997500 0.914018
0.997500 0.997500 0.997500
0.997500 0.997500 0.997500
0.138095 0.239085 1.000000
0.162394 0.118952 1.000000
0.281522 0.082335 1.000000
0.410985 0.048373 1.000000
0.547023 0.022561 1.000000
0.682484 0.010212 1.000000
0.815940 0.004815 1.000000
0.950837 0.000000 1.000000
1.000000 0.000000 1.000000
0.142040 0.379554 1.000000
0.255709 0.344413 1.000000
0.286845 0.229473 1.000000
0.405633 0.187742 1.000000
0.537418 0.151404 1.000000
0.675630 0.128706 1.000000
0.812075 0.121943 1.000000
0.949789 0.116460 1.000000
1.000000 0.112680 1.000000
0.138262 0.503246 1.000000
0.270380 0.492173 1.000000
0.383353 0.458584 1.000000
0.414312 0.342469 1.000000
0.532480 0.293896 1.000000
0.667952 0.257393 1.000000
0.808371 0.245385 1.000000
0.948882 0.241888 1.000000
1.000000 0.239727 1.000000
0.128554 0.617604 1.000000
0.272595 0.612091 1.000000
0.408935 0.607953 1.000000
0.518261 0.578039 1.000000
0.548893 0.463174 1.000000
0.665560 0.406907 1.000000
0.804238 0.378080 1.000000
0.944199 0.376282 1.000000
1.000000 0.375459 1.000000
0.121301 0.737981 1.000000
0.264724 0.723418 1.000000
0.406996 0.715778 1.000000
0.544307 0.716516 1.000000
0.648569 0.692583 1.000000
0.679654 0.581850 1.000000
0.796221 0.522746 1.000000
0.933307 0.512231 1.000000
1.000000 0.510709 1.000000
0.111592 0.857672 1.000000
0.253457 0.837797 1.000000
0.394977 0.821820 1.000000
0.535745 0.812842 1.000000
0.674443 0.817099 1.000000
0.774775 0.803541 1.000000
0.797998 0.686955 1.000000
0.919824 0.643163 1.000000
1.000000 0.641203 1.000000
0.099647 0.975061 1.000000
0.239470 0.952659 1.000000
0.379508 0.932238 1.000000
0.519941 0.915394 1.000000
0.660900 0.905686 1.000000
0.802120 0.911993 0.998303
0.904041 0.918150 0.997563
0.909709 0.779351 1.000000
1.000000 0.769604 1.000000
0.086196 1.000000 0.986017
0.224173 1.000000 1.000000
0.362112 1.000000 1.000000
0.500617 0.998407 0.998407
0.640605 0.997554 0.997554
0.783303 0.993936 0.997500
0.929924 0.997500 0.997500
0.997500 0.997500 0.997500
0.997504 0.901017 0.997504
0.070180 1.000000 0.871014
0.206307 1.000000 0.891395
0.341689 1.000000 0.912203
0.476658 0.998899 0.933613
0.611621 0.997709 0.955814
0.746994 0.997500 0.978923
0.882496 0.997500 0.997500
0.997500 0.997500 0.997500
0.997500 0.997500 0.997500
