assets/luts/moa_korean_travel_pop.cube
TITLE "MOA Korean Travel Pop"
LUT_3D_SIZE 33
DOMAIN_MIN 0.0 0.0 0.0
DOMAIN_MAX 1.0 1.0 1.0
0.026145 0.025777 0.025541
0.061365 0.023500 0.023604
0.094527 0.023500 0.023695
0.127690 0.023500 0.023786
0.160852 0.023500 0.023878
0.194014 0.023500 0.023969
0.227177 0.023500 0.024060
0.260339 0.023500 0.024151
0.293501 0.023500 0.024242
0.326664 0.023500 0.024334
0.359826 0.023500 0.024425
0.392988 0.023500 0.024516
0.426148 0.023496 0.024604
0.459271 0.023424 0.024622
0.492351 0.023261 0.024551
0.525400 0.023011 0.024392
0.558427 0.022675 0.024149
0.591443 0.022258 0.023823
0.624457 0.021761 0.023418
0.657477 0.021187 0.022937
0.690514 0.020540 0.022382
0.723574 0.019821 0.021756
0.756666 0.019033 0.021062
0.789797 0.018180 0.020302
0.822975 0.017264 0.019480
0.856206 0.016288 0.018598
0.889498 0.015254 0.017658
0.922855 0.014166 0.016665
0.956284 0.013025 0.015619
0.989789 0.011835 0.014525
1.000000 0.010599 0.013384
1.000000 0.009699 0.012579
1.000000 0.013789 0.016703
0.070038 0.222944 0.019070
0.199121 0.175972 0.019816
0.207766 0.100876 0.023390
0.191389 0.072682 0.023500
0.207631 0.063950 0.023500
0.229941 0.059848 0.023500
0.255888 0.057658 0.023500
0.284030 0.056362 0.023500
0.313549 0.055527 0.023499
0.343941 0.054910 0.023455
0.374905 0.054377 0.023338
0.406268 0.053867 0.023144
0.437918 0.053346 0.022873
0.469783 0.052793 0.022525
0.501815 0.052196 0.022100
0.533983 0.051548 0.021600
0.566267 0.050845 0.021028
0.598651 0.050085 0.020384
0.631128 0.049268 0.019672
0.663692 0.048393 0.018895
0.696340 0.047462 0.018053
0.729073 0.046475 0.017150
0.761889 0.045434 0.016189
0.794790 0.044342 0.015171
0.827778 0.043200 0.014100
0.860855 0.042009 0.012978
0.894024 0.040773 0.011808
0.927287 0.039494 0.010592
0.960646 0.038174 0.009333
0.994106 0.036815 0.008033
1.000000 0.035419 0.006696
1.000000 0.034553 0.005903
1.000000 0.041476 0.013279
0.075209 0.253709 0.015710
0.097450 0.149525 0.023036
0.229698 0.202156 0.016356
0.280440 0.161071 0.019009
0.272853 0.127258 0.021714
0.274680 0.110020 0.022558
0.290317 0.101118 0.022730
0.313993 0.095787 0.022663
0.339602 0.092157 0.022496
0.366624 0.089548 0.022243
0.394768 0.087560 0.021910
0.423783 0.085953 0.021500
0.453473 0.084580 0.021013
0.483696 0.083348 0.020453
0.514344 0.082198 0.019822
0.545341 0.081090 0.019121
0.576628 0.079999 0.018353
0.608163 0.078906 0.017520
0.639914 0.077800 0.016626
0.671858 0.076673 0.015672
0.703977 0.075519 0.014661
0.736257 0.074336 0.013596
0.768688 0.073121 0.012480
0.801265 0.071874 0.011315
0.833980 0.070594 0.010104
0.866830 0.069282 0.008850
0.899812 0.067939 0.007555
0.932925 0.066566 0.006222
0.966167 0.065165 0.004854
0.999537 0.063737 0.003453
1.000000 0.062284 0.002023
1.000000 0.061597 0.001405
1.000000 0.071729 0.012909
0.079758 0.284174 0.011620
0.121519 0.227950 0.017056
0.130342 0.172142 0.021563
0.259845 0.227849 0.012007
0.321035 0.201408 0.013120
0.330871 0.171385 0.016434
0.336966 0.152200 0.018259
0.347670 0.140158 0.019093
0.364905 0.132455 0.019323
0.387675 0.127138 0.019194
0.414147 0.123051 0.018850
0.441653 0.119792 0.018385
0.469863 0.117123 0.017818
0.498712 0.114862 0.017160
0.528122 0.112886 0.016419
0.558018 0.111106 0.015602
0.588334 0.109462 0.014715
0.619017 0.107909 0.013761
0.650023 0.106418 0.012746
0.681317 0.104966 0.011674
0.712871 0.103536 0.010548
0.744661 0.102117 0.009372
0.776670 0.100701 0.008148
0.808882 0.099281 0.006881
0.841285 0.097855 0.005573
0.873871 0.096419 0.004228
0.906630 0.094971 0.002848
0.939557 0.093511 0.001437
0.972646 0.092039 0.000000
1.000000 0.090555 0.000000
1.000000 0.089060 0.000000
1.000000 0.088593 0.000000
1.000000 0.102052 0.013063
0.083823 0.314502 0.006930
0.130292 0.279540 0.010138
0.132343 0.212118 0.018348
0.179530 0.217163 0.016345
0.289770 0.253255 0.006934
0.353093 0.234003 0.007001
0.374667 0.208140 0.009957
0.387563 0.189238 0.012095
0.400655 0.176110 0.013334
0.416367 0.166911 0.013920
0.435768 0.160328 0.014024
0.458690 0.155369 0.013787
0.484528 0.151351 0.013311
0.512563 0.147847 0.012670
0.541341 0.144804 0.011920
0.570552 0.142143 0.011077
0.600187 0.139770 0.010151
0.630221 0.137612 0.009151
0.660625 0.135615 0.008084
0.691369 0.133739 0.006956
0.722426 0.131954 0.005772
0.753773 0.130236 0.004538
0.785388 0.128569 0.003257
0.817253 0.126939 0.001936
0.849354 0.125336 0.000576
0.881676 0.123754 0.000000
0.914208 0.122186 0.000000
0.946941 0.120630 0.000000
0.979865 0.119082 0.000000
1.000000 0.117540 0.000000
1.000000 0.116004 0.000000
1.000000 0.115766 0.000000
1.000000 0.132492 0.013732
0.087536 0.344840 0.001768
0.134742 0.320795 0.003455
0.148733 0.269882 0.010742
0.157493 0.230273 0.015589
0.227834 0.259589 0.008796
0.319659 0.278559 0.001304
0.382585 0.263188 0.000731
0.411787 0.240744 0.003070
0.430532 0.222705 0.005128
0.447127 0.209294 0.006490
0.464385 0.199364 0.007245
0.483331 0.191913 0.007529
0.504626 0.186203 0.007432
0.528322 0.181654 0.007042
0.554166 0.177836 0.006432
0.581834 0.174446 0.005659
0.610995 0.171283 0.004766
0.640785 0.168389 0.003784
0.670887 0.165770 0.002727
0.701308 0.163368 0.001601
0.732040 0.161139 0.000416
0.763073 0.159047 0.000000
0.794393 0.157064 0.000000
0.825986 0.155170 0.000000
0.857839 0.153347 0.000000
0.889938 0.151583 0.000000
0.922272 0.149866 0.000000
0.954829 0.148190 0.000000
0.987600 0.146548 0.000000
1.000000 0.144936 0.000000
1.000000 0.143566 0.000000
1.000000 0.143315 0.000000
1.000000 0.163089 0.014901
0.091027 0.375314 0.000000
0.137837 0.357597 0.000000
0.158994 0.318261 0.002672
0.164269 0.272438 0.009698
0.192787 0.263092 0.009826
0.273859 0.298791 0.000165
0.349677 0.303924 0.000000
0.411437 0.290798 0.000000
0.445678 0.271001 0.000000
0.469124 0.253943 0.000000
0.489065 0.240580 0.000000
0.508471 0.230282 0.000000
0.528538 0.222299 0.000301
0.549798 0.216026 0.000293
0.572689 0.210999 0.000000
0.597317 0.206842 0.000000
0.623583 0.203264 0.000000
0.651314 0.200049 0.000000
0.680321 0.197043 0.000000
0.710424 0.194135 0.000000
0.741104 0.191379 0.000000
0.772036 0.188837 0.000000
0.803227 0.186472 0.000000
0.834679 0.184254 0.000000
0.866386 0.182158 0.000000
0.898342 0.180166 0.000000
0.930539 0.178262 0.000000
0.962969 0.176433 0.000000
0.995621 0.174669 0.000000
1.000000 0.172962 0.000000
1.000000 0.171794 0.000000
1.000000 0.174984 0.000000
1.000000 0.193873 0.016539
0.094419 0.406037 0.000000
0.140546 0.392331 0.000000
0.166094 0.361011 0.000000
0.176912 0.321735 0.001176
0.187893 0.291380 0.005686
0.231556 0.299205 0.002247
0.317635 0.335566 0.000000
0.379966 0.329496 0.000000
0.440388 0.317735 0.000000
0.478048 0.299967 0.000000
0.505216 0.283849 0.000000
0.528144 0.270688 0.000000
0.549716 0.260215 0.000000
0.571270 0.251890 0.000000
0.593414 0.245219 0.000000
0.616460 0.239807 0.000000
0.640718 0.235336 0.000000
0.666296 0.231546 0.000000
0.693164 0.228228 0.000000
0.721228 0.225222 0.000000
0.750372 0.222408 0.000000
0.780476 0.219696 0.000000
0.811426 0.217019 0.000000
0.842920 0.214420 0.000000
0.874631 0.211998 0.000000
0.906563 0.209729 0.000000
0.938719 0.207592 0.000000
0.971096 0.205571 0.000000
1.000000 0.203649 0.000000
1.000000 0.201817 0.000000
1.000000 0.200784 0.000000
1.000000 0.207401 0.000000
1.000000 0.224865 0.018602
0.097834 0.437102 0.000000
0.143267 0.426122 0.000000
0.171648 0.400534 0.000000
0.186815 0.366996 0.000000
0.194786 0.332192 0.000000
0.218224 0.319867 0.000000
0.271729 0.335845 0.000000
0.359671 0.370822 0.000000
0.410645 0.355400 0.000000
0.469768 0.344500 0.000000
0.509810 0.328295 0.000000
0.539931 0.313025 0.000000
0.565457 0.300136 0.000000
0.589079 0.289605 0.000000
0.612173 0.281060 0.000000
0.635440 0.274103 0.000000
0.659226 0.268394 0.000000
0.683733 0.263657 0.000000
0.709185 0.259665 0.000000
0.735681 0.256225 0.000000
0.763221 0.253181 0.000000
0.791755 0.250411 0.000000
0.821210 0.247817 0.000000
0.851504 0.245328 0.000000
0.882554 0.242886 0.000000
0.914283 0.240449 0.000000
0.946511 0.238041 0.000000
0.978939 0.235785 0.000000
1.000000 0.233667 0.000000
1.000000 0.231674 0.000000
1.000000 0.230683 0.000000
1.000000 0.240039 0.000000
1.000000 0.256076 0.021028
0.101386 0.468584 0.000000
0.146206 0.459563 0.000000
0.176509 0.438216 0.000000
0.194955 0.409328 0.000000
0.205729 0.377561 0.000000
0.218240 0.352654 0.000000
0.252270 0.352372 0.000000
0.312696 0.372471 0.000000
0.400856 0.405471 0.000000
0.441809 0.381740 0.000000
0.499737 0.371401 0.000000
0.541478 0.356413 0.000000
0.573959 0.341889 0.000000
0.601722 0.329301 0.000000
0.627229 0.318786 0.000000
0.651832 0.310105 0.000000
0.676273 0.302943 0.000000
0.700960 0.297008 0.000000
0.726107 0.292056 0.000000
0.751852 0.287886 0.000000
0.778362 0.284326 0.000000
0.805723 0.281229 0.000000
0.833948 0.278474 0.000000
0.863010 0.275963 0.000000
0.892863 0.273618 0.000000
0.923448 0.271377 0.000000
0.954705 0.269192 0.000000
0.986574 0.267027 0.000000
1.000000 0.264851 0.000000
1.000000 0.262751 0.000000
1.000000 0.261617 0.000000
1.000000 0.272923 0.000000
1.000000 0.287509 0.023739
0.105188 0.500541 0.000000
0.149495 0.492996 0.000000
0.181168 0.474888 0.000000
0.202136 0.449769 0.000000
0.215546 0.421158 0.000000
0.225240 0.392720 0.000000
0.246768 0.379967 0.000000
0.288736 0.386821 0.000000
0.354330 0.409135 0.000000
0.440218 0.438519 0.000000
0.473534 0.408604 0.000000
0.530380 0.398635 0.000000
0.573353 0.384608 0.000000
0.607735 0.370738 0.000000
0.637418 0.358454 0.000000
0.664630 0.348006 0.000000
0.690664 0.339251 0.000000
0.716274 0.331946 0.000000
0.741900 0.325842 0.000000
0.767797 0.320723 0.000000
0.794104 0.316404 0.000000
0.820920 0.312736 0.000000
0.848372 0.309583 0.000000
0.876531 0.306830 0.000000
0.905415 0.304378 0.000000
0.935011 0.302149 0.000000
0.965288 0.300077 0.000000
0.996204 0.298110 0.000000
1.000000 0.296207 0.000000
1.000000 0.294579 0.000000
1.000000 0.294293 0.000000
1.000000 0.306065 0.000000
1.000000 0.319165 0.026641
0.109345 0.533015 0.000000
0.153241 0.526624 0.000000
0.185935 0.511061 0.000000
0.208887 0.489032 0.000000
0.224534 0.463256 0.000000
0.235701 0.436362 0.000000
0.249203 0.414945 0.000000
0.278809 0.411104 0.000000
0.327036 0.422435 0.000000
0.396650 0.446011 0.000000
0.475508 0.467693 0.000000
0.505870 0.436056 0.000000
0.561737 0.426337 0.000000
0.605610 0.413077 0.000000
0.641534 0.399778 0.000000
0.672861 0.387796 0.000000
0.701599 0.377446 0.000000
0.728965 0.368665 0.000000
0.755701 0.361266 0.000000
0.782265 0.355040 0.000000
0.808934 0.349794 0.000000
0.835874 0.345361 0.000000
0.863182 0.341602 0.000000
0.890929 0.338397 0.000000
0.919211 0.335639 0.000000
0.948088 0.333234 0.000000
0.977579 0.331101 0.000000
1.000000 0.329174 0.000000
1.000000 0.327398 0.000000
1.000000 0.326117 0.000000
1.000000 0.328694 0.000000
1.000000 0.339072 0.000000
1.000000 0.350764 0.030560
0.113961 0.566028 0.000000
0.157533 0.560567 0.000000
0.191022 0.547055 0.000000
0.215573 0.527595 0.000000
0.233119 0.504328 0.000000
0.245950 0.479353 0.000000
0.256759 0.454997 0.000000
0.277408 0.442505 0.000000
0.313553 0.444638 0.000000
0.366888 0.458935 0.000000
0.439702 0.483265 0.000000
0.511004 0.497248 0.000000
0.538847 0.464145 0.000000
0.593816 0.454593 0.000000
0.638345 0.441956 0.000000
0.675522 0.429158 0.000000
0.708253 0.417467 0.000000
0.738345 0.407240 0.000000
0.766930 0.398469 0.000000
0.794730 0.391015 0.000000
0.822200 0.384705 0.000000
0.849634 0.379368 0.000000
0.877214 0.374852 0.000000
0.905054 0.371025 0.000000
0.933213 0.367773 0.000000
0.961729 0.364998 0.000000
0.990673 0.362611 0.000000
1.000000 0.360530 0.000000
1.000000 0.358697 0.000000
1.000000 0.357557 0.000000
1.000000 0.362519 0.000000
1.000000 0.371495 0.006077
1.000000 0.381820 0.036757
0.119134 0.599586 0.000000
0.162455 0.594893 0.000000
0.196586 0.583069 0.000000
0.222452 0.565776 0.000000
0.241623 0.544726 0.000000
0.255989 0.521617 0.000000
0.267541 0.498093 0.000000
0.281710 0.479111 0.000000
0.308929 0.473555 0.000000
0.350550 0.479870 0.000000
0.408139 0.496227 0.000000
0.483202 0.520789 0.000000
0.546486 0.526945 0.000000
0.572375 0.492813 0.000000
0.626435 0.483325 0.000000
0.671397 0.471190 0.000000
0.709591 0.458847 0.000000
0.743524 0.447451 0.000000
0.774808 0.437370 0.000000
0.804488 0.428640 0.000000
0.833248 0.421159 0.000000
0.861535 0.414783 0.000000
0.889643 0.409363 0.000000
0.917761 0.404758 0.000000
0.946012 0.400845 0.000000
0.974467 0.397518 0.000000
1.000000 0.394687 0.000000
1.000000 0.392275 0.000000
1.000000 0.390397 0.000000
1.000000 0.389466 0.000000
1.000000 0.395596 0.000000
1.000000 0.403218 0.014461
1.000000 0.412232 0.044845
0.124920 0.633490 0.000000
0.168009 0.629335 0.000000
0.202655 0.618928 0.000000
0.229646 0.603589 0.000000
0.250263 0.584627 0.000000
0.266054 0.563353 0.000000
0.278693 0.541118 0.000000
0.290255 0.519628 0.000000
0.310432 0.507608 0.000000
0.343218 0.507082 0.000000
0.389515 0.516436 0.000000
0.450558 0.534135 0.000000
0.526402 0.557952 0.000000
0.581844 0.556671 0.000000
0.606032 0.521720 0.000000
0.659164 0.512250 0.000000
0.704344 0.500528 0.000000
0.743304 0.488591 0.000000
0.778207 0.477480 0.000000
0.810489 0.467560 0.000000
0.841102 0.458895 0.000000
0.870690 0.451413 0.000000
0.899683 0.444997 0.000000
0.928374 0.439515 0.000000
0.956957 0.434842 0.000000
0.985562 0.430863 0.000000
1.000000 0.427480 0.000000
1.000000 0.424607 0.000000
1.000000 0.422485 0.000000
1.000000 0.423183 0.000000
1.000000 0.427910 0.000000
1.000000 0.434202 0.024241
1.000000 0.441940 0.054381
0.131347 0.667395 0.000000
0.174217 0.663672 0.000000
0.209261 0.654442 0.000000
0.237169 0.640770 0.000000
0.259032 0.623708 0.000000
0.276161 0.604314 0.000000
0.289969 0.583645 0.000000
0.301897 0.562763 0.000000
0.316549 0.545656 0.000000
0.342310 0.539253 0.000000
0.379883 0.542447 0.000000
0.430004 0.553818 0.000000
0.493472 0.571976 0.000000
0.569194 0.594711 0.000000
0.617049 0.586410 0.000000
0.639715 0.550797 0.000000
0.691917 0.541335 0.000000
0.737134 0.529960 0.000000
0.776637 0.518386 0.000000
0.812293 0.507546 0.000000
0.845380 0.497796 0.000000
0.876767 0.489214 0.000000
0.907050 0.481757 0.000000
0.936642 0.475326 0.000000
0.965826 0.469807 0.000000
0.994799 0.465088 0.000000
1.000000 0.461064 0.000000
1.000000 0.457719 0.000000
1.000000 0.455115 0.000000
1.000000 0.456183 0.000000
1.000000 0.459483 0.005202
1.000000 0.464444 0.034914
1.000000 0.470904 0.064875
0.138494 0.701230 0.000000
0.181151 0.697860 0.000000
0.216497 0.689617 0.000000
0.245153 0.677370 0.000000
0.268063 0.661976 0.000000
0.286356 0.644293 0.000000
0.301254 0.625184 0.000000
0.314004 0.605521 0.000000
0.326236 0.586513 0.000000
0.346152 0.575128 0.000000
0.376693 0.572920 0.000000
0.418242 0.578703 0.000000
0.471381 0.591311 0.000000
0.536623 0.609591 0.000000
0.611383 0.630934 0.000000
0.651944 0.616011 0.000000
0.673351 0.580000 0.000000
0.724610 0.570544 0.000000
0.769706 0.559464 0.000000
0.809555 0.548218 0.000000
0.845768 0.537637 0.000000
0.879482 0.528060 0.000000
0.911485 0.519576 0.000000
0.942331 0.512157 0.000000
0.972407 0.505722 0.000000
1.000000 0.500169 0.000000
1.000000 0.495394 0.000000
1.000000 0.491492 0.000000
1.000000 0.488645 0.000000
1.000000 0.488473 0.000000
1.000000 0.490253 0.015963
1.000000 0.493776 0.045594
1.000000 0.498867 0.075360
0.146435 0.734922 0.000000
0.188870 0.731837 0.000000
0.224425 0.724424 0.000000
0.253699 0.713408 0.000000
0.277497 0.699486 0.000000
0.296799 0.683356 0.000000
0.312679 0.665729 0.000000
0.326230 0.647323 0.000000
0.338551 0.628862 0.000000
0.353663 0.613584 0.000000
0.378371 0.606794 0.000000
0.412986 0.607709 0.000000
0.457853 0.615348 0.000000
0.513380 0.628733 0.000000
0.579581 0.646689 0.000000
0.652368 0.666086 0.000000
0.686155 0.645064 0.000000
0.706689 0.609053 0.000000
0.756970 0.599525 0.000000
0.801824 0.588661 0.000000
0.841873 0.577691 0.000000
0.878494 0.567342 0.000000
0.912697 0.557921 0.000000
0.945195 0.549519 0.000000
0.976501 0.542121 0.000000
1.000000 0.535658 0.000000
1.000000 0.530041 0.000000
1.000000 0.525537 0.000000
1.000000 0.521712 0.000000
1.000000 0.519824 0.000000
1.000000 0.520033 0.025946
1.000000 0.522102 0.055578
1.000000 0.525836 0.085287
0.154870 0.768294 0.000000
0.196847 0.765369 0.000000
0.232475 0.758628 0.000000
0.262288 0.748674 0.000000
0.286979 0.736087 0.000000
0.307351 0.721427 0.000000
0.324278 0.705256 0.000000
0.338677 0.688142 0.000000
0.351515 0.670675 0.000000
0.364242 0.653837 0.000000
0.383927 0.643202 0.000000
0.412747 0.639920 0.000000
0.450824 0.643167 0.000000
0.498356 0.652071 0.000000
0.555299 0.665587 0.000000
0.621588 0.682707 0.000000
0.692219 0.700246 0.000000
0.719707 0.673583 0.000000
0.739473 0.637627 0.000000
0.788834 0.628033 0.000000
0.833393 0.617342 0.000000
0.873545 0.606604 0.000000
0.910466 0.596454 0.000000
0.945055 0.587170 0.000000
0.977961 0.578844 0.000000
1.000000 0.571466 0.000000
1.000000 0.565051 0.000000
1.000000 0.559851 0.000000
1.000000 0.554057 0.000000
1.000000 0.550384 0.005220
1.000000 0.548978 0.035002
1.000000 0.549571 0.064751
1.000000 0.551942 0.094503
0.163202 0.801154 0.000000
0.204725 0.798353 0.000000
0.240368 0.792170 0.000000
0.270604 0.783113 0.000000
0.296038 0.771664 0.000000
0.317364 0.758295 0.000000
0.335338 0.743472 0.000000
0.350753 0.727667 0.000000
0.364430 0.711359 0.000000
0.377203 0.695039 0.000000
0.392670 0.681388 0.000000
0.416490 0.674526 0.000000
0.448756 0.673884 0.000000
0.489490 0.678700 0.000000
0.538733 0.688164 0.000000
0.596483 0.701444 0.000000
0.662549 0.717672 0.000000
0.731088 0.733568 0.000000
0.752665 0.701623 0.000000
0.771736 0.665749 0.000000
0.820237 0.656099 0.000000
0.864464 0.645550 0.000000
0.904644 0.635008 0.000000
0.941778 0.625029 0.000000
0.976670 0.615867 0.000000
1.000000 0.607609 0.000000
1.000000 0.600427 0.000000
1.000000 0.594328 0.000000
1.000000 0.585918 0.000000
1.000000 0.580357 0.012879
1.000000 0.577266 0.043014
1.000000 0.576337 0.073006
1.000000 0.577318 0.102914
0.171423 0.833525 0.000000
0.212507 0.830826 0.000000
0.248121 0.825115 0.000000
0.278689 0.816818 0.000000
0.304742 0.806345 0.000000
0.326885 0.794093 0.000000
0.345779 0.780457 0.000000
0.362116 0.765832 0.000000
0.376613 0.750619 0.000000
0.389997 0.735226 0.000000
0.403439 0.720402 0.000000
0.422977 0.710579 0.000000
0.450277 0.706603 0.000000
0.485313 0.707866 0.000000
0.528099 0.713708 0.000000
0.578649 0.723445 0.000000
0.636942 0.736392 0.000000
0.702482 0.751698 0.000000
0.766527 0.763597 0.000000
0.785107 0.729250 0.000000
0.803529 0.693463 0.000000
0.851226 0.683767 0.000000
0.895098 0.673337 0.000000
0.935250 0.662960 0.000000
0.972529 0.653131 0.000000
1.000000 0.644076 0.000000
1.000000 0.636141 0.000000
1.000000 0.628298 0.000000
1.000000 0.617551 0.000000
1.000000 0.609960 0.019219
1.000000 0.605082 0.049866
1.000000 0.602560 0.080241
1.000000 0.602103 0.110426
0.179541 0.865448 0.000000
0.220202 0.862838 0.000000
0.255756 0.857529 0.000000
0.286582 0.849885 0.000000
0.313151 0.840252 0.000000
0.335997 0.828971 0.000000
0.355698 0.816378 0.000000
0.372866 0.802808 0.000000
0.388130 0.788600 0.000000
0.402132 0.774100 0.000000
0.415523 0.759657 0.000000
0.431472 0.747491 0.000000
0.454546 0.740727 0.000000
0.484751 0.738941 0.000000
0.522072 0.741597 0.000000
0.566514 0.748132 0.000000
0.618078 0.757973 0.000000
0.676741 0.770558 0.000000
0.741564 0.784980 0.000000
0.799264 0.791046 0.000000
0.817123 0.756544 0.000000
0.834915 0.720825 0.000000
0.881865 0.711094 0.000000
0.925373 0.700764 0.000000
0.965456 0.690531 0.000000
1.000000 0.680831 0.000000
1.000000 0.672181 0.000000
1.000000 0.662560 0.000000
1.000000 0.649226 0.000000
1.000000 0.639422 0.024117
1.000000 0.632622 0.055449
1.000000 0.628407 0.086356
1.000000 0.626442 0.116949
0.187565 0.896973 0.000000
0.227822 0.894447 0.000000
0.263293 0.889489 0.000000
0.294321 0.882410 0.000000
0.321323 0.873506 0.000000
0.344773 0.863070 0.000000
0.365185 0.851393 0.000000
0.383100 0.838762 0.000000
0.399075 0.825468 0.000000
0.413679 0.811805 0.000000
0.427491 0.798071 0.000000
0.441533 0.784887 0.000000
0.460960 0.775806 0.000000
0.487021 0.771425 0.000000
0.519667 0.771308 0.000000
0.558887 0.774991 0.000000
0.604683 0.781997 0.000000
0.657055 0.791851 0.000000
0.715990 0.804104 0.000000
0.779993 0.817727 0.000000
0.831663 0.818269 0.000000
0.848816 0.783594 0.000000
0.865976 0.747903 0.000000
0.912234 0.738148 0.000000
0.955379 0.727907 0.000000
0.995365 0.717797 0.000000
1.000000 0.708511 0.000000
1.000000 0.697475 0.000000
1.000000 0.681242 0.000000
1.000000 0.668990 0.027454
1.000000 0.660092 0.059652
1.000000 0.654055 0.091252
1.000000 0.650485 0.122394
0.195507 0.928164 0.000000
0.235382 0.925723 0.000000
0.270756 0.921078 0.000000
0.301940 0.914494 0.000000
0.329309 0.906228 0.000000
0.353284 0.896532 0.000000
0.374323 0.885661 0.000000
0.392908 0.873863 0.000000
0.409537 0.861393 0.000000
0.424720 0.848502 0.000000
0.438970 0.835448 0.000000
0.452807 0.822490 0.000000
0.469087 0.811513 0.000000
0.491548 0.804932 0.000000
0.520154 0.802418 0.000000
0.554869 0.803588 0.000000
0.595688 0.808043 0.000000
0.642616 0.815386 0.000000
0.695663 0.825230 0.000000
0.754838 0.837221 0.000000
0.817989 0.850161 0.000000
0.863867 0.845398 0.000000
0.880303 0.810503 0.000000
0.896807 0.774780 0.000000
0.942428 0.765011 0.000000
0.985219 0.754849 0.000000
1.000000 0.745072 0.000000
1.000000 0.733448 0.000000
1.000000 0.713924 0.000000
1.000000 0.698933 0.029112
1.000000 0.687717 0.062370
1.000000 0.679691 0.094831
1.000000 0.674392 0.126670
0.203385 0.959095 0.000000
0.242900 0.956746 0.000000
0.278170 0.952387 0.000000
0.309478 0.946245 0.000000
0.337160 0.938541 0.000000
0.361593 0.929499 0.000000
0.383189 0.919339 0.000000
0.402379 0.908282 0.000000
0.419610 0.896549 0.000000
0.435339 0.884363 0.000000
0.450030 0.871947 0.000000
0.464148 0.859524 0.000000
0.478619 0.847633 0.000000
0.497916 0.839186 0.000000
0.522989 0.834607 0.000000
0.553782 0.833576 0.000000
0.590274 0.835758 0.000000
0.632468 0.840820 0.000000
0.680379 0.848433 0.000000
0.734033 0.858293 0.000000
0.793470 0.870126 0.000000
0.855792 0.882522 0.000000
0.896031 0.872573 0.000000
0.911713 0.837384 0.000000
0.927518 0.801552 0.000000
0.972559 0.791778 0.000000
1.000000 0.781769 0.000000
1.000000 0.770948 0.000000
1.000000 0.747644 0.000000
1.000000 0.729548 0.028977
1.000000 0.715741 0.063497
1.000000 0.705518 0.096999
1.000000 0.698333 0.129693
0.211215 0.989853 0.000000
0.250396 0.987609 0.000000
0.285562 0.983518 0.000000
0.316971 0.977776 0.000000
0.344925 0.970577 0.000000
0.369765 0.962116 0.000000
0.391859 0.952587 0.000000
0.411597 0.942189 0.000000
0.429382 0.931117 0.000000
0.445627 0.919567 0.000000
0.460751 0.907739 0.000000
0.475177 0.895828 0.000000
0.489327 0.884034 0.000000
0.505825 0.874006 0.000000
0.527776 0.867645 0.000000
0.555120 0.864689 0.000000
0.587819 0.864859 0.000000
0.625867 0.867869 0.000000
0.669278 0.873442 0.000000
0.718084 0.881316 0.000000
0.772335 0.891257 0.000000
0.832034 0.903035 0.000000
0.893666 0.915066 0.000000
0.928328 0.899947 0.000000
0.943191 0.864367 0.000000
0.958235 0.828327 0.000000
1.000000 0.818557 0.000000
1.000000 0.809344 0.000000
1.000000 0.782824 0.000000
1.000000 0.761173 0.026936
1.000000 0.744435 0.062932
1.000000 0.731760 0.097661
1.000000 0.722492 0.131374
0.219220 1.000000 0.000000
0.258098 1.000000 0.000000
0.293103 1.000000 0.000000
0.324463 1.000000 0.000000
0.352655 1.000000 0.000000
0.377860 0.994531 0.000000
0.400405 0.985568 0.000000
0.420644 0.975758 0.000000
0.438941 0.965277 0.000000
0.455673 0.954302 0.000000
0.471220 0.943010 0.000000
0.485965 0.931576 0.000000
0.500295 0.920179 0.000000
0.515067 0.909298 0.000000
0.534227 0.901386 0.000000
0.558507 0.896745 0.000000
0.587853 0.895133 0.000000
0.622244 0.896307 0.000000
0.661690 0.900030 0.000000
0.706220 0.906078 0.000000
0.755890 0.914248 0.000000
0.810779 0.924369 0.000000
0.870720 0.936192 0.000000
0.931898 0.948067 0.000000
0.960941 0.927684 0.000000
0.974894 0.891589 0.000000
0.989100 0.855228 0.000000
