assets/luts/moa_clear_sky.cube
TITLE "MOA Clear Sky"
LUT_3D_SIZE 33
DOMAIN_MIN 0.0 0.0 0.0
DOMAIN_MAX 1.0 1.0 1.0
0.076000 0.076000 0.076000
0.108142 0.076000 0.076000
0.140283 0.076000 0.076000
0.172425 0.076000 0.076000
0.204566 0.076000 0.076000
0.236708 0.076000 0.076000
0.268849 0.076000 0.076000
0.300991 0.076000 0.076000
0.333132 0.076000 0.076000
0.365274 0.076000 0.076000
0.397415 0.076000 0.076000
0.429557 0.076000 0.076000
0.461698 0.076000 0.076000
0.493840 0.076000 0.076000
0.525981 0.076000 0.076000
0.558123 0.076000 0.076000
0.590264 0.076000 0.076000
0.622406 0.076000 0.076000
0.654517 0.075920 0.075920
0.686551 0.075594 0.075594
0.718533 0.075023 0.075023
0.750491 0.074217 0.074217
0.782452 0.073183 0.073183
0.814441 0.071929 0.071929
0.846482 0.070464 0.070464
0.878599 0.068795 0.068795
0.910812 0.066931 0.066931
0.943145 0.064879 0.064879
0.975615 0.062648 0.062648
1.000000 0.060246 0.060246
1.000000 0.057681 0.057681
1.000000 0.054961 0.054961
1.000000 0.053941 0.053941
0.120512 0.311369 0.064313
0.230489 0.223847 0.074707
0.145006 0.111211 0.076000
0.172425 0.108969 0.076000
0.204566 0.108969 0.076000
0.236708 0.108969 0.076000
0.268849 0.108969 0.076000
0.300991 0.108969 0.076000
0.333132 0.108969 0.076000
0.365274 0.108969 0.076000
0.397415 0.108969 0.076000
0.429557 0.108969 0.076000
0.461698 0.108969 0.076000
0.493840 0.108969 0.076000
0.525977 0.108962 0.075993
0.558029 0.108780 0.075804
0.589983 0.108358 0.075366
0.621870 0.107705 0.074689
0.653717 0.106827 0.073779
0.685551 0.105734 0.072645
0.717398 0.104432 0.071295
0.749284 0.102929 0.069737
0.781231 0.101234 0.067979
0.813261 0.099354 0.066029
0.845397 0.097297 0.063896
0.877659 0.095070 0.061587
0.910065 0.092682 0.059110
0.942634 0.090140 0.056474
0.975382 0.087452 0.053686
1.000000 0.084625 0.050756
1.000000 0.081669 0.047690
1.000000 0.078590 0.044497
1.000000 0.077449 0.043313
0.119534 0.338313 0.055112
0.153288 0.213545 0.076000
0.258451 0.250390 0.069405
0.217970 0.169501 0.076000
0.209289 0.144012 0.076000
0.236708 0.141938 0.076000
0.268849 0.141938 0.076000
0.300991 0.141938 0.076000
0.333132 0.141938 0.076000
0.365274 0.141938 0.076000
0.397415 0.141938 0.076000
0.429519 0.141881 0.075939
0.461487 0.141601 0.075637
0.493341 0.141093 0.075090
0.525113 0.140366 0.074307
0.556829 0.139426 0.073295
0.588518 0.138282 0.072063
0.620206 0.136940 0.070618
0.651918 0.135409 0.068969
0.683679 0.133695 0.067123
0.715510 0.131806 0.065090
0.747435 0.129751 0.062876
0.779473 0.127535 0.060491
0.811644 0.125168 0.057941
0.843967 0.122656 0.055236
0.876459 0.120006 0.052383
0.909136 0.117227 0.049390
0.942013 0.114326 0.046266
0.975104 0.111310 0.043018
1.000000 0.108187 0.039655
1.000000 0.104964 0.036185
1.000000 0.101649 0.032615
1.000000 0.100430 0.031303
0.116857 0.364583 0.043912
0.172885 0.297409 0.063835
0.186311 0.236242 0.074773
0.284089 0.274559 0.060570
0.275255 0.220634 0.073618
0.262447 0.188083 0.075987
0.273572 0.176812 0.076000
0.300989 0.174905 0.075997
0.333012 0.174758 0.075833
0.364875 0.174389 0.075420
0.396610 0.173805 0.074766
0.428247 0.173013 0.073879
0.459814 0.172020 0.072766
0.491340 0.170833 0.071437
0.522852 0.169460 0.069899
0.554374 0.167907 0.068161
0.585932 0.166183 0.066230
0.617549 0.164293 0.064114
0.649247 0.162247 0.061822
0.681047 0.160050 0.059361
0.712970 0.157709 0.056741
0.745034 0.155233 0.053968
0.777257 0.152629 0.051051
0.809656 0.149902 0.047998
0.842246 0.147062 0.044817
0.875042 0.144115 0.041516
0.908057 0.141067 0.038104
0.941303 0.137928 0.034588
0.974791 0.134703 0.030976
1.000000 0.131399 0.027277
1.000000 0.128025 0.023498
1.000000 0.124588 0.019649
1.000000 0.123331 0.018242
0.112902 0.390650 0.031116
0.171288 0.348144 0.044037
0.184250 0.274063 0.069050
0.228156 0.276301 0.065196
0.308216 0.297155 0.048811
0.315366 0.257767 0.063007
0.310460 0.228604 0.070697
0.317121 0.213554 0.072895
0.335727 0.207073 0.073031
0.362792 0.204645 0.072182
0.394004 0.203392 0.070770
0.425322 0.201995 0.069140
0.456638 0.200430 0.067314
0.487978 0.198702 0.065299
0.519365 0.196819 0.063102
0.550822 0.194788 0.060733
0.582371 0.192616 0.058200
0.614032 0.190310 0.055509
0.645825 0.187876 0.052671
0.677768 0.185322 0.049691
0.709878 0.182655 0.046580
0.742171 0.179881 0.043344
0.774661 0.177007 0.039992
0.807363 0.174041 0.036532
0.840290 0.170989 0.032971
0.873452 0.167858 0.029319
0.906860 0.164655 0.025583
0.940524 0.161387 0.021772
0.974451 0.158062 0.017892
1.000000 0.154685 0.013953
1.000000 0.151264 0.009963
1.000000 0.147806 0.005929
1.000000 0.146549 0.004463
0.108072 0.416922 0.017129
0.164800 0.386666 0.024782
0.190440 0.328314 0.050511
0.207084 0.290305 0.062898
0.265501 0.311163 0.048222
0.331556 0.318900 0.034736
0.347254 0.287583 0.047895
0.349616 0.261868 0.058177
0.356899 0.246007 0.062824
0.372077 0.237112 0.064158
0.394142 0.232281 0.063641
0.421418 0.229469 0.061985
0.452151 0.227380 0.059611
0.483435 0.225240 0.057006
0.514822 0.222974 0.054248
0.546332 0.220589 0.051345
0.577983 0.218091 0.048305
0.609793 0.215488 0.045136
0.641779 0.212785 0.041847
0.673955 0.209990 0.038445
0.706336 0.207110 0.034939
0.738934 0.204150 0.031336
0.771763 0.201117 0.027646
0.804833 0.198019 0.023874
0.838153 0.194861 0.020031
0.871732 0.191651 0.016124
0.905577 0.188395 0.012161
0.939696 0.185100 0.008150
0.974092 0.181772 0.004099
1.000000 0.178417 0.000017
1.000000 0.175044 0.000000
1.000000 0.171658 0.000000
1.000000 0.170432 0.000000
0.102762 0.443754 0.002354
0.157370 0.420586 0.006428
0.189464 0.374300 0.027596
0.205122 0.326554 0.049367
0.234475 0.317221 0.049636
0.298692 0.341379 0.027847
0.354752 0.340434 0.018953
0.375461 0.313927 0.030394
0.383366 0.290704 0.041301
0.392676 0.274847 0.047546
0.407039 0.264712 0.050169
0.426691 0.258315 0.050411
0.450884 0.254111 0.049095
0.478723 0.251034 0.046734
0.509395 0.248404 0.043668
0.541063 0.245778 0.040327
0.572916 0.243067 0.036878
0.604967 0.240277 0.033327
0.637231 0.237413 0.029683
0.669720 0.234483 0.025955
0.702444 0.231493 0.022151
0.735415 0.228449 0.018278
0.768641 0.225358 0.014344
0.802130 0.222226 0.010359
0.835890 0.219058 0.006329
0.869925 0.215863 0.002263
0.904240 0.212645 0.000000
0.938839 0.209412 0.000000
0.973723 0.206169 0.000000
1.000000 0.202924 0.000000
1.000000 0.199682 0.000000
1.000000 0.196449 0.000000
1.000000 0.195285 0.000000
0.097350 0.471440 0.000000
0.150132 0.452849 0.000000
0.185149 0.414558 0.005118
0.205236 0.369618 0.027592
0.224600 0.342256 0.039113
0.262699 0.345830 0.031274
0.329434 0.369212 0.006561
0.378360 0.362316 0.002068
0.402277 0.338863 0.011660
0.414329 0.317325 0.022045
0.425871 0.301573 0.028952
0.440581 0.290692 0.032496
0.459293 0.283237 0.033510
0.481827 0.277998 0.032729
0.507690 0.274082 0.030688
0.536353 0.270872 0.027769
0.567336 0.267959 0.024246
0.599690 0.265080 0.020413
0.632307 0.262153 0.016512
0.665175 0.259184 0.012554
0.698305 0.256178 0.008547
0.731702 0.253142 0.004500
0.765373 0.250081 0.000421
0.799323 0.247002 0.000000
0.833556 0.243911 0.000000
0.868074 0.240813 0.000000
0.902880 0.237716 0.000000
0.937973 0.234624 0.000000
0.973353 0.231545 0.000000
1.000000 0.228483 0.000000
1.000000 0.225446 0.000000
1.000000 0.222439 0.000000
1.000000 0.221361 0.000000
0.092204 0.500219 0.000000
0.143579 0.484844 0.000000
0.180016 0.452277 0.000000
0.203644 0.412234 0.003254
0.220782 0.376419 0.021154
0.246905 0.364980 0.023245
0.291573 0.374796 0.009889
0.359649 0.396694 0.000000
0.402853 0.385024 0.000000
0.429001 0.363635 0.000000
0.444239 0.343247 0.001767
0.457881 0.327541 0.008609
0.473434 0.316103 0.012600
0.492019 0.307857 0.014187
0.513794 0.301821 0.013932
0.538544 0.297231 0.012318
0.565934 0.293531 0.009718
0.595617 0.290328 0.006419
0.627272 0.287352 0.002639
0.660435 0.284427 0.000000
0.694018 0.281488 0.000000
0.727884 0.278541 0.000000
0.762036 0.275590 0.000000
0.796476 0.272641 0.000000
0.831205 0.269701 0.000000
0.866223 0.266775 0.000000
0.901529 0.263869 0.000000
0.937119 0.260989 0.000000
0.972991 0.258140 0.000000
1.000000 0.255328 0.000000
1.000000 0.252559 0.000000
1.000000 0.249838 0.000000
1.000000 0.248869 0.000000
0.087675 0.530269 0.000000
0.138035 0.517314 0.000000
0.175235 0.489102 0.000000
0.200944 0.452979 0.000000
0.218898 0.415678 0.000000
0.239313 0.393384 0.008098
0.271299 0.390997 0.003915
0.321754 0.404517 0.000000
0.390491 0.424962 0.000000
0.428619 0.408955 0.000000
0.456444 0.389054 0.000000
0.474224 0.369499 0.000000
0.489776 0.353788 0.000000
0.506380 0.341883 0.000000
0.525290 0.332992 0.000000
0.546869 0.326308 0.000000
0.571086 0.321165 0.000000
0.597754 0.317056 0.000000
0.626628 0.313610 0.000000
0.657461 0.310555 0.000000
0.690016 0.307701 0.000000
0.724052 0.304914 0.000000
0.758710 0.302141 0.000000
0.793658 0.299391 0.000000
0.828894 0.296667 0.000000
0.864415 0.293975 0.000000
0.900218 0.291321 0.000000
0.936297 0.288711 0.000000
0.972645 0.286149 0.000000
1.000000 0.283641 0.000000
1.000000 0.281194 0.000000
1.000000 0.278811 0.000000
1.000000 0.277967 0.000000
0.084105 0.561713 0.000000
0.133777 0.550677 0.000000
0.171458 0.525942 0.000000
0.198501 0.493137 0.000000
0.218042 0.457674 0.000000
0.235450 0.427876 0.000000
0.260526 0.415977 0.000000
0.297944 0.419339 0.000000
0.353926 0.435638 0.000000
0.422689 0.454699 0.000000
0.455961 0.434427 0.000000
0.485129 0.415674 0.000000
0.505018 0.396783 0.000000
0.522310 0.381064 0.000000
0.540047 0.368765 0.000000
0.559539 0.359333 0.000000
0.581273 0.352103 0.000000
0.605347 0.346495 0.000000
0.631676 0.342044 0.000000
0.660099 0.338397 0.000000
0.690426 0.335287 0.000000
0.722462 0.332515 0.000000
0.756023 0.329938 0.000000
0.790936 0.327448 0.000000
0.826676 0.324995 0.000000
0.862694 0.322591 0.000000
0.898981 0.320240 0.000000
0.935527 0.317948 0.000000
0.972323 0.315720 0.000000
1.000000 0.313562 0.000000
1.000000 0.311478 0.000000
1.000000 0.309474 0.000000
1.000000 0.308771 0.000000
0.081820 0.594616 0.000000
0.131066 0.585165 0.000000
0.169113 0.563312 0.000000
0.197106 0.533427 0.000000
0.217742 0.499914 0.000000
0.234185 0.467116 0.000000
0.254823 0.447360 0.000000
0.284541 0.442425 0.000000
0.327260 0.449949 0.000000
0.388198 0.468392 0.000000
0.456698 0.486318 0.000000
0.485098 0.461672 0.000000
0.515390 0.443872 0.000000
0.537087 0.425571 0.000000
0.555976 0.409886 0.000000
0.574873 0.397281 0.000000
0.595095 0.387401 0.000000
0.617205 0.379714 0.000000
0.641390 0.373714 0.000000
0.667642 0.368978 0.000000
0.695862 0.365168 0.000000
0.725907 0.362025 0.000000
0.757617 0.359346 0.000000
0.790833 0.356980 0.000000
0.825396 0.354810 0.000000
0.861161 0.352750 0.000000
0.897847 0.350746 0.000000
0.934829 0.348811 0.000000
0.972035 0.346953 0.000000
1.000000 0.345179 0.000000
1.000000 0.343487 0.000000
1.000000 0.341835 0.000000
1.000000 0.341246 0.000000
0.081133 0.628982 0.000000
0.130145 0.620836 0.000000
0.168530 0.601488 0.000000
0.197268 0.574238 0.000000
0.218712 0.542708 0.000000
0.235498 0.510242 0.000000
0.252668 0.483933 0.000000
0.277254 0.471935 0.000000
0.311677 0.472102 0.000000
0.359636 0.482989 0.000000
0.424534 0.502903 0.000000
0.492657 0.519916 0.000000
0.516163 0.490848 0.000000
0.547420 0.473889 0.000000
0.570699 0.456163 0.000000
0.591065 0.440587 0.000000
0.611115 0.427780 0.000000
0.632147 0.417557 0.000000
0.654769 0.409501 0.000000
0.679228 0.403180 0.000000
0.705573 0.398210 0.000000
0.733753 0.394274 0.000000
0.763662 0.391118 0.000000
0.795169 0.388542 0.000000
0.828134 0.386387 0.000000
0.862417 0.384530 0.000000
0.897878 0.382877 0.000000
0.934328 0.381328 0.000000
0.971484 0.379782 0.000000
1.000000 0.378249 0.000000
1.000000 0.376747 0.000000
1.000000 0.375284 0.000000
1.000000 0.374766 0.000000
0.082231 0.663825 0.000000
0.131029 0.656509 0.000000
0.169725 0.639588 0.000000
0.199242 0.615401 0.000000
0.221454 0.586240 0.000000
0.238669 0.554873 0.000000
0.253809 0.525056 0.000000
0.274351 0.506811 0.000000
0.303058 0.500590 0.000000
0.342252 0.504808 0.000000
0.395327 0.518595 0.000000
0.462828 0.539042 0.000000
0.529088 0.553921 0.000000
0.548577 0.521427 0.000000
0.580855 0.505470 0.000000
0.605778 0.488567 0.000000
0.627650 0.473312 0.000000
0.648870 0.460457 0.000000
0.670747 0.450004 0.000000
0.693955 0.441675 0.000000
0.718782 0.435107 0.000000
0.745320 0.429958 0.000000
0.773537 0.425923 0.000000
0.803319 0.422740 0.000000
0.834521 0.420194 0.000000
0.866982 0.418113 0.000000
0.900540 0.416359 0.000000
0.935035 0.414825 0.000000
0.970313 0.413427 0.000000
1.000000 0.412101 0.000000
1.000000 0.410796 0.000000
1.000000 0.409516 0.000000
1.000000 0.409066 0.000000
0.085303 0.698208 0.000000
0.133870 0.691537 0.000000
0.172724 0.676628 0.000000
0.202815 0.655276 0.000000
0.225855 0.629218 0.000000
0.243782 0.600246 0.000000
0.258485 0.570244 0.000000
0.275301 0.546396 0.000000
0.299554 0.534469 0.000000
0.332529 0.532830 0.000000
0.376481 0.540446 0.000000
0.433903 0.556126 0.000000
0.501401 0.574905 0.000000
0.565380 0.587724 0.000000
0.581047 0.552207 0.000000
0.614086 0.537255 0.000000
0.640515 0.521363 0.000000
0.663969 0.506782 0.000000
0.686546 0.494256 0.000000
0.709437 0.483871 0.000000
0.733292 0.475442 0.000000
0.758434 0.468691 0.000000
0.784981 0.463327 0.000000
0.812933 0.459084 0.000000
0.842216 0.455728 0.000000
0.872720 0.453060 0.000000
0.904308 0.450919 0.000000
0.936841 0.449172 0.000000
0.970173 0.447712 0.000000
1.000000 0.446453 0.000000
1.000000 0.445328 0.000000
1.000000 0.444285 0.000000
1.000000 0.443947 0.000000
0.090601 0.731912 0.000000
0.138895 0.725739 0.000000
0.177780 0.712511 0.000000
0.208233 0.693620 0.000000
0.231836 0.670379 0.000000
0.250367 0.644147 0.000000
0.265560 0.616373 0.000000
0.279982 0.589877 0.000000
0.300400 0.573009 0.000000
0.328504 0.566087 0.000000
0.365616 0.567960 0.000000
0.413418 0.577460 0.000000
0.473612 0.593411 0.000000
0.539817 0.610109 0.000000
0.601116 0.620949 0.000000
0.613353 0.583004 0.000000
0.646817 0.568998 0.000000
0.674351 0.554094 0.000000
0.699036 0.540235 0.000000
0.722696 0.528135 0.000000
0.746404 0.517939 0.000000
0.770773 0.509535 0.000000
0.796123 0.502711 0.000000
0.822595 0.497228 0.000000
0.850213 0.492855 0.000000
0.878932 0.489385 0.000000
0.908665 0.486638 0.000000
0.939300 0.484463 0.000000
0.970713 0.482732 0.000000
1.000000 0.481343 0.000000
1.000000 0.480174 0.000000
1.000000 0.479091 0.000000
1.000000 0.478892 0.000000
0.098127 0.764647 0.000000
0.145765 0.758760 0.000000
0.184604 0.746943 0.000000
0.215542 0.730274 0.000000
0.239700 0.709648 0.000000
0.258624 0.686038 0.000000
0.274113 0.660609 0.000000
0.287678 0.634582 0.000000
0.304651 0.614081 0.000000
0.328655 0.602700 0.000000
0.360411 0.599566 0.000000
0.401054 0.603734 0.000000
0.451863 0.614224 0.000000
0.513684 0.629872 0.000000
0.577116 0.643893 0.000000
0.633621 0.650995 0.000000
0.644988 0.613316 0.000000
0.678650 0.600279 0.000000
0.707009 0.586447 0.000000
0.732638 0.573426 0.000000
0.757121 0.561876 0.000000
0.781429 0.551989 0.000000
0.806134 0.543722 0.000000
0.831550 0.536923 0.000000
0.857825 0.531395 0.000000
0.884998 0.526932 0.000000
0.913046 0.523334 0.000000
0.941906 0.520425 0.000000
0.971497 0.518045 0.000000
1.000000 0.516061 0.000000
1.000000 0.514360 0.000000
1.000000 0.512846 0.000000
1.000000 0.512510 0.000000
0.105902 0.795749 0.000000
0.152532 0.789975 0.000000
0.191200 0.779278 0.000000
0.222711 0.764513 0.000000
0.248030 0.746387 0.000000
0.268220 0.725551 0.000000
0.284414 0.702684 0.000000
0.297966 0.678631 0.000000
0.312024 0.656131 0.000000
0.332352 0.641281 0.000000
0.359694 0.634040 0.000000
0.394721 0.633677 0.000000
0.438324 0.639394 0.000000
0.491207 0.650235 0.000000
0.552069 0.664077 0.000000
0.611763 0.675043 0.000000
0.662760 0.677745 0.000000
0.674794 0.641897 0.000000
0.708486 0.629743 0.000000
0.737465 0.616967 0.000000
0.763856 0.604873 0.000000
0.789012 0.594019 0.000000
0.813788 0.584584 0.000000
0.838711 0.576553 0.000000
0.864087 0.569810 0.000000
0.890078 0.564198 0.000000
0.916750 0.559550 0.000000
0.944110 0.555698 0.000000
0.972125 0.552491 0.000000
1.000000 0.549792 0.000000
1.000000 0.547483 0.000000
1.000000 0.545543 0.000000
1.000000 0.544531 0.000000
0.113380 0.825151 0.000000
0.159001 0.819446 0.000000
0.197378 0.809632 0.000000
0.229233 0.796396 0.000000
0.255408 0.780304 0.000000
0.276820 0.761868 0.000000
0.294433 0.741606 0.000000
0.309252 0.720087 0.000000
0.322462 0.698111 0.000000
0.339430 0.680793 0.000000
0.362869 0.670295 0.000000
0.393222 0.666163 0.000000
0.430884 0.667685 0.000000
0.476099 0.673926 0.000000
0.528960 0.683820 0.000000
0.587632 0.695348 0.000000
0.643991 0.703850 0.000000
0.690217 0.702920 0.000000
0.702787 0.668749 0.000000
0.736345 0.657342 0.000000
0.765687 0.645459 0.000000
0.792591 0.634164 0.000000
0.818213 0.623930 0.000000
0.843308 0.614918 0.000000
0.868357 0.607128 0.000000
0.893653 0.600475 0.000000
0.919366 0.594831 0.000000
0.945579 0.590058 0.000000
0.972321 0.586018 0.000000
0.999583 0.582579 0.000000
1.000000 0.579625 0.000000
1.000000 0.577583 0.000000
1.000000 0.574915 0.000000
0.120567 0.852990 0.000000
0.165194 0.847338 0.000000
0.203194 0.838233 0.000000
0.235217 0.826229 0.000000
0.262005 0.811786 0.000000
0.284358 0.795320 0.000000
0.303110 0.777239 0.000000
0.319122 0.757978 0.000000
0.333283 0.738025 0.000000
0.348223 0.719612 0.000000
0.368547 0.706846 0.000000
0.394806 0.699655 0.000000
0.427332 0.697570 0.000000
0.466376 0.699927 0.000000
0.512081 0.705933 0.000000
0.564478 0.714728 0.000000
0.620711 0.724132 0.000000
0.674171 0.730721 0.000000
0.716256 0.726784 0.000000
0.729171 0.694064 0.000000
0.762472 0.683292 0.000000
0.791979 0.672163 0.000000
0.819191 0.661553 0.000000
0.845107 0.651862 0.000000
0.870394 0.643238 0.000000
0.895490 0.635688 0.000000
0.920674 0.629145 0.000000
0.946117 0.623510 0.000000
0.971914 0.618666 0.000000
0.998110 0.614497 0.000000
1.000000 0.610892 0.000000
1.000000 0.608893 0.000000
1.000000 0.603706 0.000000
0.127483 0.879450 0.000000
0.171143 0.873860 0.000000
0.208711 0.865341 0.000000
0.240771 0.854337 0.000000
0.267981 0.841229 0.000000
0.291045 0.826367 0.000000
0.310695 0.810084 0.000000
0.327680 0.792726 0.000000
0.342767 0.774667 0.000000
0.357032 0.756599 0.000000
0.374914 0.742355 0.000000
0.397930 0.732941 0.000000
0.426368 0.728068 0.000000
0.460462 0.727280 0.000000
0.500378 0.729997 0.000000
0.546204 0.735569 0.000000
0.597965 0.743339 0.000000
0.651732 0.750945 0.000000
0.702753 0.756136 0.000000
0.741211 0.749667 0.000000
0.754217 0.718100 0.000000
0.787180 0.707874 0.000000
0.816703 0.697382 0.000000
0.844067 0.687356 0.000000
0.870142 0.678140 0.000000
0.895521 0.669866 0.000000
0.920604 0.662547 0.000000
0.945657 0.656132 0.000000
0.970847 0.650539 0.000000
0.996279 0.645672 0.000000
1.000000 0.641557 0.000000
1.000000 0.637952 0.000000
1.000000 0.631017 0.000000
0.134156 0.904763 0.000000
0.176889 0.899267 0.000000
0.213996 0.891249 0.000000
0.246001 0.881069 0.000000
0.273488 0.869047 0.000000
0.297081 0.855481 0.000000
0.317429 0.840659 0.000000
0.335192 0.824869 0.000000
0.351043 0.808410 0.000000
0.365664 0.791610 0.000000
0.381610 0.776474 0.000000
0.402022 0.765498 0.000000
0.427168 0.758527 0.000000
0.457259 0.755254 0.000000
0.492463 0.755267 0.000000
0.532900 0.758083 0.000000
0.578647 0.763202 0.000000
0.629636 0.770099 0.000000
0.681207 0.776371 0.000000
0.730268 0.780654 0.000000
0.765478 0.771961 0.000000
0.778265 0.741181 0.000000
0.810849 0.731430 0.000000
0.840288 0.721480 0.000000
0.867691 0.711954 0.000000
0.893827 0.703152 0.000000
0.919229 0.695194 0.000000
0.944265 0.688098 0.000000
0.969185 0.681824 0.000000
0.994156 0.676305 0.000000
1.000000 0.672363 0.000000
1.000000 0.665030 0.000000
1.000000 0.657010 0.000000
0.140628 0.929210 0.000000
0.182487 0.923857 0.000000
0.219128 0.916294 0.000000
0.251018 0.906808 0.000000
0.278676 0.895673 0.000000
0.302658 0.883151 0.000000
0.323542 0.869500 0.000000
0.341918 0.854972 0.000000
0.358385 0.839824 0.000000
0.373544 0.824319 0.000000
0.388461 0.809128 0.000000
0.406741 0.797071 0.000000
0.429199 0.788549 0.000000
0.456019 0.783353 0.000000
0.487361 0.781192 0.000000
0.523356 0.781717 0.000000
0.564114 0.784552 0.000000
0.609740 0.789344 0.000000
0.659877 0.795598 0.000000
0.709734 0.801070 0.000000
0.757336 0.804908 0.000000
0.789522 0.794124 0.000000
0.801728 0.763699 0.000000
0.833928 0.754371 0.000000
0.863225 0.744888 0.000000
0.890599 0.735792 0.000000
0.916738 0.727354 0.000000
0.942127 0.719684 0.000000
0.967107 0.712805 0.000000
0.991917 0.706686 0.000000
0.994306 0.701930 0.000000
0.997760 0.690954 0.000000
1.000000 0.681889 0.000000
0.146948 0.953117 0.000000
0.187999 0.947975 0.000000
0.224190 0.940849 0.000000
0.255935 0.931969 0.000000
0.283694 0.921570 0.000000
0.307963 0.909889 0.000000
0.329259 0.897164 0.000000
0.348115 0.883630 0.000000
0.365070 0.869518 0.000000
0.380662 0.855055 0.000000
0.395435 0.840480 0.000000
0.411922 0.827651 0.000000
0.432145 0.817978 0.000000
0.456257 0.811305 0.000000
0.484403 0.807423 0.000000
0.516716 0.806080 0.000000
0.553319 0.807000 0.000000
0.594343 0.809921 0.000000
0.639952 0.814636 0.000000
0.689335 0.820588 0.000000
0.737996 0.825778 0.000000
0.784656 0.829616 0.000000
0.813878 0.816679 0.000000
0.825087 0.786112 0.000000
0.856932 0.777170 0.000000
0.886074 0.768097 0.000000
0.913392 0.759379 0.000000
0.939513 0.751266 0.000000
0.964886 0.743865 0.000000
0.979989 0.737914 0.000000
0.983184 0.728132 0.000000
0.986921 0.716011 0.000000
0.989907 0.705886 0.000000
0.153180 0.976860 0.000000
0.193501 0.972011 0.000000
0.229279 0.965332 0.000000
0.260876 0.957005 0.000000
0.288696 0.947232 0.000000
0.313183 0.936232 0.000000
0.334802 0.924233 0.000000
0.354036 0.911462 0.000000
0.371374 0.898137 0.000000
0.387307 0.884473 0.000000
0.402323 0.870674 0.000000
0.417537 0.857444 0.000000
0.435857 0.846876 0.000000
0.457690 0.839052 0.000000
0.483161 0.833810 0.000000
0.512396 0.830960 0.000000
0.545522 0.830303 0.000000
0.582681 0.831649 0.000000
0.624052 0.834851 0.000000
0.669884 0.839839 0.000000
0.718748 0.845898 0.000000
0.766764 0.851306 0.000000
0.813018 0.855575 0.000000
0.839145 0.840216 0.000000
0.848892 0.808948 0.000000
0.880446 0.800369 0.000000
0.909458 0.791665 0.000000
0.936734 0.783288 0.000000
0.962857 0.775474 0.000000
0.968716 0.769614 0.000000
0.973155 0.753916 0.000000
0.977016 0.740515 0.000000
0.980218 0.729258 0.000000
0.160741 0.980427 0.000000
0.200612 0.976904 0.000000
0.235952 0.973872 0.000000
0.267056 0.971283 0.000000
0.294273 0.969085 0.000000
0.318506 0.962749 0.000000
0.340390 0.951316 0.000000
0.359930 0.939113 0.000000
0.377574 0.926360 0.000000
0.393773 0.913265 0.000000
0.408975 0.900023 0.000000
0.423669 0.886859 0.000000
0.440319 0.875509 0.000000
0.460193 0.866739 0.000000
0.483391 0.860394 0.000000
0.510025 0.856323 0.000000
0.540220 0.854375 0.000000
0.574122 0.854415 0.000000
0.611913 0.856344 0.000000
0.653841 0.860126 0.000000
0.700263 0.865827 0.000000
0.748942 0.872430 0.000000
0.796893 0.878547 0.000000
0.843297 0.883667 0.000000
0.865993 0.865390 0.000000
0.873765 0.832798 0.000000
0.905123 0.824573 0.000000
0.934070 0.816215 0.000000
0.957637 0.808355 0.000000
0.960178 0.797395 0.000000
0.964411 0.779700 0.000000
0.968213 0.764804 0.000000
0.971486 0.752280 0.001555
0.175660 0.978672 0.000000
0.213570 0.975415 0.000000
0.246461 0.972756 0.000000
0.275169 0.970583 0.000000
0.302321 0.968448 0.000000
0.326535 0.966568 0.000000
0.347784 0.964966 0.000000
0.366472 0.963597 0.000000
0.383946 0.954892 0.000000
0.400357 0.942163 0.000000
0.415698 0.929269 0.000000
0.430380 0.916392 0.000000
0.445623 0.904331 0.000000
0.463767 0.894695 0.000000
0.484996 0.887402 0.000000
0.509403 0.882310 0.000000
0.537105 0.879294 0.000000
0.568245 0.878253 0.000000
0.603003 0.879124 0.000000
0.641622 0.881898 0.000000
0.684440 0.886653 0.000000
0.731837 0.893534 0.000000
0.780832 0.901170 0.000000
0.829324 0.908475 0.000000
0.876456 0.914856 0.000000
0.895162 0.892921 0.000000
0.900396 0.858321 0.000000
