assets/luts/moa_clear_sky.cube
TITLE "MOA Clear Sky"
LUT_3D_SIZE 5
DOMAIN_MIN 0.0 0.0 0.0
DOMAIN_MAX 1.0 1.0 1.0
0.076000 0.076000 0.076000
0.333132 0.076000 0.076000
0.590264 0.076000 0.076000
0.846482 0.070464 0.070464
1.000000 0.053941 0.053941
0.092204 0.500219 0.000000
0.402853 0.385024 0.000000
0.565934 0.293531 0.009718
0.831205 0.269701 0.000000
1.000000 0.248869 0.000000
0.098127 0.764647 0.000000
0.304651 0.614081 0.000000
0.644988 0.613316 0.000000
0.857825 0.531395 0.000000
1.000000 0.512510 0.000000
0.153180 0.976860 0.000000
0.371374 0.898137 0.000000
0.545522 0.830303 0.000000
0.848892 0.808948 0.000000
0.980218 0.729258 0.000000
0.326302 0.961126 0.134466
0.462169 0.953986 0.082397
0.554204 0.951132 0.000000
0.763778 0.946041 0.000000
0.946000 0.930760 0.045010
0.076000 0.133511 0.512860
0.333132 0.076000 0.342589
0.590119 0.075672 0.342356
0.845624 0.065269 0.334954
1.000000 0.045379 0.320803
0.000000 0.470825 0.389905
0.219400 0.334010 0.383129
0.671412 0.206533 0.211798
0.956211 0.168522 0.172924
1.000000 0.241583 0.244842
0.000000 0.653144 0.210320
0.214407 0.884660 0.031993
0.725746 0.709786 0.087845
0.930596 0.520098 0.085567
1.000000 0.508725 0.209440
0.000000 0.935264 0.100586
0.346297 0.958699 0.184219
0.538102 0.893474 0.109131
0.871492 0.851420 0.151402
0.968146 0.738172 0.240790
0.078516 0.980443 0.152471
0.523781 0.947421 0.405895
0.624085 0.946230 0.323231
0.754979 0.946000 0.251456
0.946000 0.946000 0.317946
0.076000 0.168607 0.779449
0.333896 0.076000 0.619732
0.589195 0.073588 0.608159
0.844529 0.058640 0.601836
1.000000 0.035855 0.592199
0.000000 0.502142 0.787817
0.139546 0.252043 0.951209
0.652977 0.191287 0.687836
0.955477 0.154593 0.579654
1.000000 0.234875 0.547099
0.000000 0.731264 0.593487
0.000000 0.886317 0.740718
0.347598 0.584674 0.686278
0.915460 0.420193 0.431715
1.000000 0.504332 0.510785
0.000000 0.903267 0.470887
0.103010 0.939148 0.445263
0.558087 0.916689 0.488102
0.842578 0.847786 0.449683
0.961464 0.737065 0.472486
0.014514 0.978068 0.419909
0.312760 0.955201 0.455901
0.724823 0.946000 0.678223
0.774254 0.946000 0.533974
0.946000 0.946000 0.590883
0.071053 0.199438 1.000000
0.315932 0.076000 0.929247
0.587487 0.069737 0.874926
0.843227 0.050757 0.872374
1.000000 0.025550 0.868985
0.000000 0.506845 1.000000
0.218951 0.341199 1.000000
0.555921 0.185878 0.990703
0.936228 0.147138 0.980329
1.000000 0.228875 0.854905
0.000000 0.840516 1.000000
0.188357 0.746132 1.000000
0.472014 0.565430 1.000000
0.880886 0.421984 0.934269
1.000000 0.499737 0.806521
0.000000 0.948712 0.776263
0.140483 0.957920 0.826851
0.414189 0.935100 0.859450
0.657610 0.767882 0.815142
0.956019 0.731765 0.740571
0.036606 0.969270 0.663759
0.285021 0.952389 0.698517
0.540547 0.946000 0.737416
0.926652 0.946000 0.946000
0.946000 0.946000 0.863820
0.179483 0.311448 1.000000
0.323392 0.146974 1.000000
0.581354 0.074054 1.000000
0.842086 0.043844 1.000000
1.000000 0.017073 1.000000
0.146521 0.567546 1.000000
0.398819 0.509237 1.000000
0.537200 0.306723 1.000000
0.824436 0.240414 1.000000
1.000000 0.224676 1.000000
0.126158 0.767045 1.000000
0.408484 0.738067 1.000000
0.637307 0.707250 0.990542
0.785739 0.518187 1.000000
1.000000 0.496052 1.000000
0.116130 0.947804 0.958999
0.380963 0.905013 0.951196
0.642116 0.882919 0.946096
0.871904 0.909547 0.946000
0.952295 0.728914 0.952295
0.094295 0.960162 0.859912
0.356698 0.947434 0.896325
0.619413 0.946000 0.942710
0.882667 0.946000 0.946000
0.946000 0.946000 0.946000
