assets/luts/moa_city_night_warm.cube
TITLE "MOA City Night Warm"
LUT_3D_SIZE 9
DOMAIN_MIN 0.0 0.0 0.0
DOMAIN_MAX 1.0 1.0 1.0
0.000000 0.000000 0.000000
0.059345 0.000000 0.000000
0.210428 0.000000 0.000000
0.361511 0.000000 0.000000
0.512594 0.000000 0.000000
0.663677 0.000000 0.000000
0.816624 0.000000 0.000000
0.974480 0.000000 0.000000
1.000000 0.000000 0.000000
0.000000 0.007706 0.000000
0.155176 0.116936 0.000000
0.359287 0.068025 0.000000
0.483314 0.031659 0.000000
0.618023 0.011965 0.000000
0.760594 0.000644 0.000000
0.912329 0.000000 0.000000
1.000000 0.000000 0.000000
1.000000 0.061774 0.000000
0.000000 0.153466 0.000000
0.013620 0.154563 0.000000
0.324982 0.263676 0.000000
0.556465 0.240026 0.000000
0.713567 0.209528 0.000000
0.866540 0.188369 0.000000
1.000000 0.171924 0.000000
1.000000 0.157862 0.000000
1.000000 0.240040 0.000000
0.000000 0.309583 0.000000
0.014207 0.314326 0.000000
0.209688 0.353625 0.000000
0.515899 0.428620 0.000000
0.756247 0.410932 0.000000
0.937657 0.386261 0.000000
1.000000 0.367111 0.000000
1.000000 0.359001 0.000000
1.000000 0.402149 0.024226
0.000000 0.484586 0.000000
0.014958 0.492149 0.000000
0.185180 0.499191 0.000000
0.443399 0.574899 0.000000
0.695668 0.584773 0.000000
0.916252 0.558703 0.000000
1.000000 0.532648 0.000000
1.000000 0.516301 0.000000
1.000000 0.526018 0.045395
0.000000 0.672656 0.000000
0.015524 0.678082 0.000000
0.189820 0.679303 0.000000
0.376052 0.686791 0.000000
0.631537 0.732369 0.000000
0.830033 0.702596 0.000000
1.000000 0.673780 0.000000
1.000000 0.645186 0.000000
1.000000 0.626083 0.053066
0.000000 0.841376 0.000000
0.015301 0.833222 0.000000
0.184634 0.823771 0.000000
0.349705 0.813453 0.000000
0.545071 0.823253 0.000000
0.783601 0.853898 0.000000
0.947637 0.805860 0.000000
1.000000 0.771903 0.000000
1.000000 0.717689 0.046914
0.000000 0.971431 0.000000
0.014693 0.958500 0.000000
0.176941 0.945682 0.000000
0.335012 0.933494 0.000000
0.496715 0.926654 0.000000
0.701999 0.947601 0.000000
0.950040 0.994992 0.000000
1.000000 0.925403 0.000000
1.000000 0.817176 0.026808
0.000000 1.000000 0.000000
0.014201 1.000000 0.000000
0.171448 1.000000 0.000000
0.325951 1.000000 0.000000
0.479005 1.000000 0.000000
0.653158 1.000000 0.000000
0.847761 1.000000 0.000000
1.000000 1.000000 0.000000
1.000000 0.948404 0.000000
0.000000 0.000000 0.004029
0.013483 0.000000 0.004029
0.164566 0.000000 0.004029
0.315649 0.000000 0.004029
0.466732 0.000000 0.004029
0.618160 0.000000 0.004166
0.773697 0.000000 0.005265
0.934875 0.000000 0.006817
1.000000 0.000000 0.015345
0.000000 0.007706 0.000000
0.084955 0.000000 0.000000
0.263896 0.000000 0.000000
0.438904 0.000000 0.000000
0.613130 0.000000 0.000000
0.788468 0.000000 0.000000
0.966039 0.000000 0.000000
1.000000 0.000000 0.000000
1.000000 0.055903 0.064599
0.000000 0.153750 0.004049
0.000000 0.198594 0.000000
0.429230 0.356972 0.000000
0.709012 0.207595 0.000000
0.830395 0.121793 0.000000
0.969176 0.077334 0.000000
1.000000 0.073564 0.000000
1.000000 0.139182 0.000000
1.000000 0.237868 0.112953
0.000000 0.311042 0.004201
0.000000 0.378573 0.000000
0.185838 0.387041 0.000000
0.670567 0.561641 0.000000
0.941036 0.447409 0.000000
1.000000 0.367111 0.000000
1.000000 0.321355 0.000000
1.000000 0.352078 0.015581
1.000000 0.416294 0.166460
0.000000 0.487031 0.004424
0.000000 0.577457 0.000000
0.167596 0.586122 0.000000
0.438620 0.638455 0.000000
0.827248 0.697572 0.000000
1.000000 0.605203 0.000000
1.000000 0.543464 0.000000
1.000000 0.526018 0.045395
1.000000 0.548284 0.191099
0.000000 0.674815 0.004617
0.000000 0.771814 0.000000
0.146105 0.764383 0.000000
0.361218 0.753930 0.000000
0.656101 0.819402 0.000000
0.945814 0.802793 0.000000
1.000000 0.719640 0.000000
1.000000 0.656825 0.052554
1.000000 0.649034 0.202156
0.000000 0.838947 0.004604
0.000000 0.922449 0.000000
0.122549 0.907317 0.000000
0.325118 0.892060 0.000000
0.534983 0.893578 0.000000
0.849618 0.972303 0.000000
1.000000 0.909001 0.000000
1.000000 0.781877 0.035082
1.000000 0.737397 0.197098
0.000000 0.967334 0.004432
0.000000 1.000000 0.000000
0.104650 1.000000 0.000000
0.296586 1.000000 0.000000
0.485529 1.000000 0.000000
0.711380 1.000000 0.000000
0.952722 1.000000 0.000000
1.000000 0.948404 0.000000
1.000000 0.833607 0.175637
0.000000 1.000000 0.004279
0.014149 1.000000 0.004228
0.170922 1.000000 0.004185
0.325207 1.000000 0.004151
0.478385 1.000000 0.004130
0.639255 1.000000 0.009870
0.831436 1.000000 0.046652
1.000000 1.000000 0.096717
1.000000 0.962581 0.138418
0.000000 0.000000 0.145659
0.013483 0.000000 0.145659
0.164566 0.000000 0.145659
0.315649 0.000000 0.145659
0.466732 0.000000 0.145659
0.617937 0.000000 0.145688
0.771886 0.000000 0.146225
0.930731 0.000000 0.147361
1.000000 0.000000 0.148143
0.000000 0.036090 0.145659
0.000000 0.000000 0.208897
0.238971 0.000000 0.209939
0.377460 0.000000 0.140005
0.539422 0.000000 0.118092
0.708799 0.000000 0.100657
0.882440 0.000000 0.084904
1.000000 0.000000 0.098470
1.000000 0.014759 0.162967
0.000000 0.154074 0.138098
0.000000 0.213156 0.193471
0.283900 0.098394 0.080572
0.465633 0.065179 0.058465
0.649301 0.040100 0.037670
0.835705 0.016735 0.017748
0.987906 0.044618 0.046937
1.000000 0.134569 0.138176
1.000000 0.224007 0.226807
0.000000 0.312551 0.152609
0.000000 0.382324 0.152902
0.122803 0.405682 0.082815
0.681841 0.582721 0.010172
1.000000 0.372593 0.000000
1.000000 0.260198 0.000000
1.000000 0.288095 0.068209
1.000000 0.333460 0.164486
1.000000 0.414625 0.285825
0.000000 0.489445 0.160704
0.000000 0.581583 0.135131
0.105301 0.605333 0.071422
0.377559 0.607808 0.071714
0.850343 0.726277 0.000000
1.000000 0.591256 0.000000
1.000000 0.534259 0.121779
1.000000 0.524854 0.186946
1.000000 0.563975 0.326361
0.000000 0.676583 0.167338
0.000000 0.771363 0.116491
0.086763 0.779925 0.055880
0.328159 0.767331 0.054978
0.593808 0.792812 0.030670
0.995359 0.850892 0.000000
1.000000 0.698493 0.119679
1.000000 0.667080 0.202438
1.000000 0.672002 0.343243
0.000000 0.836357 0.165918
0.000000 0.918926 0.094681
0.071741 0.916990 0.043688
0.290558 0.900400 0.042897
0.502007 0.885121 0.042169
0.782481 0.926668 0.032087
1.000000 0.886432 0.060163
1.000000 0.792659 0.186209
1.000000 0.760150 0.343734
0.000000 0.963212 0.159515
0.000000 1.000000 0.079640
0.083528 1.000000 0.058816
0.277437 1.000000 0.058072
0.468143 0.996050 0.057549
0.672799 1.000000 0.057670
0.930125 1.000000 0.102711
1.000000 0.949993 0.153578
1.000000 0.853290 0.324542
0.000000 1.000000 0.154086
0.014100 1.000000 0.152322
0.170437 1.000000 0.150855
0.324561 1.000000 0.149771
0.477936 1.000000 0.149155
0.632183 1.000000 0.149046
0.814393 1.000000 0.176628
1.000000 1.000000 0.233414
1.000000 0.976757 0.283341
0.000000 0.000000 0.287288
0.009533 0.000000 0.287288
0.164566 0.000000 0.287288
0.315649 0.000000 0.287288
0.466732 0.000000 0.287288
0.618360 0.000000 0.287541
0.773478 0.000000 0.289000
0.933701 0.000000 0.291573
1.000000 0.000000 0.293260
0.000000 0.050282 0.287288
0.000000 0.000000 0.370315
0.170986 0.000000 0.345941
0.414343 0.000000 0.374407
0.563778 0.000000 0.312197
0.718035 0.000000 0.284012
0.886445 0.000000 0.267137
1.000000 0.000000 0.267753
1.000000 0.008251 0.307596
0.000000 0.192010 0.292412
0.000000 0.209325 0.401785
0.055756 0.059881 0.396071
0.451180 0.030966 0.401220
0.583406 0.062267 0.286729
0.757012 0.055958 0.258485
0.931730 0.055515 0.246549
1.000000 0.082950 0.259813
1.000000 0.175583 0.327053
0.000000 0.313962 0.288916
0.000000 0.403310 0.372570
0.080400 0.434595 0.400091
0.510277 0.222080 0.194393
0.703329 0.186581 0.172924
0.870220 0.199958 0.190881
1.000000 0.232684 0.226572
1.000000 0.307503 0.303942
1.000000 0.392861 0.389268
0.000000 0.491796 0.317022
0.000000 0.584410 0.349028
0.090995 0.609382 0.318968
0.291103 0.625541 0.216986
0.854957 0.740855 0.104379
1.000000 0.537951 0.162491
1.000000 0.493011 0.248909
1.000000 0.509907 0.337078
1.000000 0.565454 0.441217
0.000000 0.677926 0.330702
0.000000 0.768881 0.324681
0.074693 0.778824 0.278322
0.253972 0.779894 0.199392
0.532584 0.762507 0.194947
0.925300 0.809137 0.159812
1.000000 0.697248 0.272485
1.000000 0.672002 0.343243
1.000000 0.692156 0.472830
0.000000 0.833619 0.326175
0.000000 0.914072 0.291472
0.065875 0.910795 0.247894
0.252036 0.888831 0.208890
0.473269 0.872950 0.205158
0.716596 0.884514 0.198035
1.000000 0.898061 0.204318
1.000000 0.804356 0.336712
1.000000 0.786955 0.486113
0.000000 0.959083 0.313269
0.000000 1.000000 0.263784
0.080166 1.000000 0.240189
0.255401 0.992599 0.218323
0.448673 0.983297 0.216277
0.641458 0.978900 0.215310
0.903030 1.000000 0.229241
1.000000 0.951707 0.313511
1.000000 0.877420 0.474533
0.000000 1.000000 0.302749
0.014053 1.000000 0.299437
0.169995 1.000000 0.296766
0.324017 1.000000 0.294904
0.477667 1.000000 0.294019
0.632183 1.000000 0.293969
0.797361 1.000000 0.304833
0.993123 1.000000 0.366513
1.000000 0.990934 0.428264
0.000000 0.000000 0.428918
0.002450 0.000000 0.428918
0.164566 0.000000 0.428918
0.315649 0.000000 0.428918
0.466732 0.000000 0.428918
0.619071 0.000000 0.429789
0.775373 0.000000 0.432530
0.936965 0.000000 0.436836
1.000000 0.000000 0.439556
0.000000 0.060780 0.429037
0.000000 0.000000 0.531734
0.140082 0.000000 0.501315
0.354150 0.000000 0.518662
0.592363 0.000000 0.540797
0.751911 0.000000 0.486848
0.909723 0.000000 0.454329
1.000000 0.000000 0.443660
1.000000 0.008293 0.461622
0.000000 0.215601 0.440818
0.000000 0.183254 0.570502
0.035394 0.052809 0.558621
0.339106 0.065020 0.533129
0.639277 0.006884 0.578975
0.792230 0.021936 0.484601
0.946205 0.046010 0.450418
1.000000 0.083081 0.448595
1.000000 0.172891 0.484642
0.000000 0.364002 0.460589
0.000000 0.437390 0.604093
0.002981 0.397882 0.646925
0.170806 0.168603 0.605729
0.697638 0.136875 0.621748
0.814678 0.205382 0.457225
0.971420 0.238295 0.441759
1.000000 0.260519 0.444995
1.000000 0.344210 0.494733
0.000000 0.493864 0.458540
0.000000 0.610505 0.567332
0.063531 0.636968 0.592804
0.212555 0.655980 0.604747
0.738593 0.381998 0.344990
0.886557 0.400126 0.378499
1.000000 0.424649 0.409135
1.000000 0.465586 0.454404
1.000000 0.537436 0.527820
0.000000 0.678821 0.489707
0.000000 0.767852 0.530203
0.074301 0.774738 0.510629
0.232921 0.773651 0.457042
0.457115 0.752709 0.365642
0.900098 0.801490 0.330334
1.000000 0.677710 0.412110
1.000000 0.664568 0.491752
1.000000 0.700925 0.584853
0.000000 0.830749 0.485298
0.000000 0.909169 0.486141
0.065490 0.905470 0.455278
0.241101 0.882400 0.414636
0.430066 0.861738 0.369045
0.662563 0.847278 0.362852
0.995347 0.891410 0.373773
1.000000 0.814781 0.494123
1.000000 0.817654 0.621390
0.000000 0.954962 0.465698
0.000000 1.000000 0.446253
0.079834 1.000000 0.423110
0.249744 0.987335 0.397903
0.425155 0.970699 0.375182
0.621755 0.965941 0.373343
0.848655 0.986726 0.380352
1.000000 0.954483 0.472164
1.000000 0.906126 0.625192
0.000000 1.000000 0.450338
0.014010 1.000000 0.445671
0.169601 1.000000 0.442040
0.323582 1.000000 0.439697
0.477586 1.000000 0.438892
0.632183 1.000000 0.438892
0.786779 1.000000 0.438892
0.978019 1.000000 0.493650
1.000000 1.000000 0.573187
0.000000 0.000000 0.570547
0.000000 0.000000 0.570547
0.162065 0.000000 0.570547
0.315649 0.000000 0.570547
0.466797 0.000000 0.570627
0.620055 0.000000 0.572616
0.777553 0.000000 0.576969
0.940502 0.000000 0.583274
1.000000 0.000000 0.587137
0.000000 0.070226 0.571570
0.000000 0.000000 0.693152
0.107019 0.000000 0.663908
0.323479 0.000000 0.657897
0.539402 0.000000 0.692236
0.775065 0.000000 0.711363
0.938524 0.000000 0.662396
1.000000 0.000000 0.623605
1.000000 0.008336 0.617234
0.000000 0.234019 0.591857
0.000000 0.163585 0.732585
0.015008 0.044293 0.721181
0.292562 0.050741 0.690588
0.545270 0.026271 0.725694
0.833788 0.000000 0.761328
0.991448 0.000000 0.679703
1.000000 0.084537 0.642858
1.000000 0.173575 0.647225
0.000000 0.395740 0.621297
0.000000 0.426149 0.790731
0.000000 0.345823 0.820927
0.153570 0.167263 0.772466
0.537724 0.196237 0.754629
0.891294 0.126438 0.808483
1.000000 0.201963 0.675864
1.000000 0.254284 0.646680
1.000000 0.343355 0.656683
0.000000 0.554226 0.646933
0.000000 0.661631 0.810871
0.000000 0.654637 0.851007
0.118161 0.595393 0.896320
0.364759 0.350206 0.805820
0.900679 0.325508 0.807224
0.976778 0.415279 0.636732
1.000000 0.436476 0.615544
1.000000 0.493809 0.635091
0.000000 0.679278 0.633530
0.000000 0.786099 0.732687
0.042362 0.796272 0.743772
0.194348 0.796705 0.743984
0.375955 0.770419 0.715233
0.838785 0.581236 0.538510
0.961397 0.586940 0.561593
1.000000 0.602847 0.583772
1.000000 0.666002 0.650934
0.000000 0.827917 0.634993
0.000000 0.908921 0.675691
0.062403 0.902374 0.659335
0.239686 0.877218 0.627911
0.411289 0.855287 0.583600
0.614677 0.836106 0.524774
0.972685 0.886100 0.540741
1.000000 0.821408 0.649789
1.000000 0.843378 0.738438
0.000000 0.950890 0.615993
0.000000 1.000000 0.627196
0.079530 1.000000 0.604709
0.248956 0.984222 0.581321
0.416954 0.965753 0.554968
0.595948 0.953066 0.531451
0.801715 0.952612 0.531198
1.000000 0.959117 0.628580
1.000000 0.941852 0.774590
0.000000 1.000000 0.596935
0.013969 1.000000 0.591130
0.169257 1.000000 0.586809
0.323262 1.000000 0.584308
0.477586 1.000000 0.583815
0.632183 1.000000 0.583815
0.786779 1.000000 0.583815
0.959795 1.000000 0.611397
1.000000 1.000000 0.718110
0.000000 0.000000 0.712176
0.000000 0.000000 0.712176
0.156666 0.000000 0.712176
0.315649 0.000000 0.712176
0.467085 0.000000 0.712715
0.621300 0.000000 0.716193
0.779999 0.000000 0.722458
0.944291 0.000000 0.730995
1.000000 0.000000 0.736096
0.000000 0.079325 0.715356
0.000000 0.000000 0.854570
0.073731 0.000000 0.826543
0.300462 0.000000 0.809220
0.502162 0.000000 0.831131
0.727474 0.000000 0.868302
0.944785 0.000000 0.871238
1.000000 0.000000 0.805956
1.000000 0.008379 0.774426
0.000000 0.249276 0.745402
0.000000 0.156481 0.878523
0.000000 0.037719 0.881599
0.249128 0.027360 0.854411
0.500712 0.038078 0.865223
0.753628 0.000000 0.918961
1.000000 0.000000 0.940435
1.000000 0.086503 0.840874
1.000000 0.174224 0.810905
0.000000 0.422649 0.784939
0.000000 0.410803 0.946022
0.000000 0.313018 0.987254
0.181115 0.203614 0.913378
0.484084 0.215787 0.895679
0.757966 0.192043 0.936865
1.000000 0.159493 0.963939
1.000000 0.256272 0.857906
1.000000 0.342648 0.818008
0.000000 0.589663 0.815601
0.000000 0.654323 0.989718
0.000000 0.627642 1.000000
0.151147 0.532598 1.000000
0.389845 0.390235 0.951369
0.739070 0.410028 0.922800
1.000000 0.355283 0.948760
1.000000 0.415140 0.822971
1.000000 0.491788 0.789498
0.000000 0.732988 0.817633
0.000000 0.831849 0.957976
0.000000 0.825334 0.979059
0.160435 0.782033 0.962948
0.340751 0.716976 0.954139
0.592512 0.563412 0.922098
0.975992 0.527962 0.881191
1.000000 0.582451 0.757328
1.000000 0.625424 0.756309
0.000000 0.825228 0.771733
0.000000 0.923360 0.862163
0.030191 0.922357 0.863628
0.207470 0.896219 0.842339
0.382053 0.871114 0.820675
0.554518 0.847214 0.794916
0.898445 0.736080 0.694220
1.000000 0.745238 0.719012
1.000000 0.797011 0.776614
0.000000 0.947131 0.754992
0.000000 1.000000 0.802247
0.073656 1.000000 0.782641
0.246319 0.983252 0.763025
0.416194 0.963992 0.741899
0.583996 0.948384 0.715370
0.774030 0.939569 0.689164
1.000000 0.967468 0.780519
1.000000 0.986013 0.910943
0.000000 1.000000 0.739925
0.013933 1.000000 0.735140
0.168965 1.000000 0.731215
0.323063 1.000000 0.728903
0.477586 1.000000 0.728739
0.632183 1.000000 0.728739
0.786779 1.000000 0.728739
0.941376 1.000000 0.728739
1.000000 1.000000 0.863033
0.000000 0.000000 0.853806
0.000000 0.000000 0.853806
0.149930 0.000000 0.853806
0.313823 0.000000 0.853806
0.467592 0.000000 0.855379
0.622789 0.000000 0.860680
0.782694 0.000000 0.869125
0.948309 0.000000 0.880096
1.000000 0.000000 0.886514
0.000000 0.088332 0.860783
0.000000 0.000000 0.997600
0.040754 0.000000 0.988818
0.274027 0.000000 0.968167
0.479345 0.000000 0.975486
0.686741 0.000000 1.000000
0.904468 0.000000 1.000000
1.000000 0.000000 0.993264
1.000000 0.008422 0.933177
0.000000 0.263008 0.901508
0.000000 0.155632 1.000000
0.020767 0.067787 1.000000
0.232437 0.039553 0.992054
0.477378 0.060729 0.999913
0.697169 0.042457 1.000000
0.943293 0.008499 1.000000
1.000000 0.087746 1.000000
1.000000 0.174831 0.975560
0.000000 0.445419 0.950800
0.000000 0.402771 1.000000
0.017194 0.327894 1.000000
0.209584 0.240042 1.000000
0.456916 0.227207 1.000000
0.711496 0.240463 1.000000
0.960888 0.205600 1.000000
1.000000 0.257402 1.000000
1.000000 0.341740 0.978086
0.000000 0.619253 0.983451
0.000000 0.644559 1.000000
0.017097 0.596862 1.000000
0.192825 0.519479 1.000000
0.420287 0.431057 1.000000
0.691565 0.428944 1.000000
0.930207 0.405700 1.000000
1.000000 0.414179 1.000000
1.000000 0.489739 0.942560
0.000000 0.757535 0.971972
0.000000 0.818831 1.000000
0.017086 0.787946 1.000000
0.184200 0.746564 1.000000
0.374132 0.680498 1.000000
0.602659 0.591020 1.000000
0.860892 0.581587 0.996204
1.000000 0.553560 0.989681
1.000000 0.622958 0.903140
0.000000 0.868190 0.940617
0.000000 0.955960 1.000000
0.017944 0.935010 1.000000
0.190440 0.902884 1.000000
0.362842 0.866206 1.000000
0.536877 0.816462 0.992633
0.756785 0.720497 0.961643
1.000000 0.697030 0.930859
1.000000 0.753983 0.876770
0.000000 0.943658 0.884081
0.000000 1.000000 0.967110
0.049840 1.000000 0.960772
0.222614 1.000000 0.944707
0.394891 0.982099 0.930038
0.567457 0.964081 0.916066
0.740083 0.946212 0.898801
0.993314 0.904430 0.868184
1.000000 0.945129 0.919021
0.000000 1.000000 0.872325
0.013902 1.000000 0.868948
0.168741 1.000000 0.867874
0.322990 1.000000 0.869510
0.477586 1.000000 0.872311
0.632183 1.000000 0.873662
0.786779 1.000000 0.873662
0.941376 1.000000 0.873662
1.000000 1.000000 1.000000
0.000000 0.000000 0.995435
0.000000 0.000000 0.995435
0.142500 0.000000 0.995435
0.309537 0.000000 0.995492
0.468307 0.000000 0.998795
0.624509 0.000000 1.000000
0.785619 0.000000 1.000000
0.952536 0.000000 1.000000
1.000000 0.000000 1.000000
0.000000 0.097365 1.000000
0.011494 0.064532 1.000000
0.128596 0.005598 1.000000
0.306997 0.005668 1.000000
0.482433 0.005752 1.000000
0.651876 0.005842 1.000000
0.825075 0.005937 1.000000
1.000000 0.006034 1.000000
1.000000 0.008465 1.000000
0.000000 0.275990 1.000000
0.012129 0.248333 1.000000
0.174910 0.216013 1.000000
0.307621 0.161720 1.000000
0.500363 0.164713 1.000000
0.685993 0.167432 1.000000
0.866790 0.169831 1.000000
1.000000 0.171935 1.000000
1.000000 0.175383 1.000000
0.000000 0.464978 1.000000
0.012807 0.445731 1.000000
0.184727 0.419145 1.000000
0.357824 0.385318 1.000000
0.509444 0.337888 1.000000
0.708287 0.341009 1.000000
0.887714 0.341579 1.000000
1.000000 0.339921 1.000000
1.000000 0.340746 1.000000
0.000000 0.642748 1.000000
0.013031 0.628029 1.000000
0.186169 0.605859 1.000000
0.357795 0.576457 1.000000
0.528548 0.539908 1.000000
0.687920 0.501220 1.000000
0.862728 0.495081 1.000000
1.000000 0.488813 1.000000
1.000000 0.487670 1.000000
0.000000 0.778055 1.000000
0.012634 0.763199 1.000000
0.179431 0.745309 1.000000
0.343090 0.724026 1.000000
0.504689 0.696638 1.000000
0.665824 0.661311 1.000000
0.822110 0.630850 1.000000
0.977350 0.622433 1.000000
1.000000 0.620579 1.000000
0.000000 0.887295 1.000000
0.012163 0.872752 1.000000
0.172548 0.857076 1.000000
0.329630 0.841465 1.000000
0.484247 0.825024 1.000000
0.637740 0.804329 1.000000
0.792121 0.773039 1.000000
0.946848 0.752701 1.000000
1.000000 0.752909 1.000000
0.000000 0.985175 1.000000
0.011774 0.972942 1.000000
0.167636 0.960885 1.000000
0.321799 0.950990 1.000000
0.475521 0.943478 1.000000
0.629968 0.937730 1.000000
0.784564 0.929543 1.000000
0.940486 0.906225 1.000000
1.000000 0.899995 1.000000
0.000000 1.000000 0.997133
0.013877 1.000000 0.993840
0.168582 1.000000 0.993566
0.322990 1.000000 0.996808
0.477586 1.000000 1.000000
0.632183 1.000000 1.000000
0.786779 1.000000 1.000000
0.941376 1.000000 1.000000
1.000000 1.000000 1.000000
