assets/luts/moa_film_green.cube
TITLE "MOA Film Green"
LUT_3D_SIZE 9
DOMAIN_MIN 0.0 0.0 0.0
DOMAIN_MAX 1.0 1.0 1.0
0.247710 0.247710 0.247710
0.317466 0.245592 0.245592
0.386116 0.241372 0.241372
0.454549 0.235272 0.235272
0.523546 0.227513 0.227513
0.593787 0.218318 0.218318
0.665845 0.207907 0.207907
0.740188 0.196502 0.196502
0.817181 0.184326 0.184326
0.231713 0.364686 0.177013
0.332091 0.318471 0.195771
0.373782 0.291144 0.211464
0.433540 0.281928 0.202741
0.504251 0.271571 0.190952
0.577471 0.260626 0.178493
0.653502 0.249288 0.165586
0.732541 0.237750 0.152453
0.814681 0.226208 0.139315
0.212332 0.417485 0.127941
0.280791 0.366038 0.158945
0.375039 0.351974 0.144201
0.439437 0.325830 0.151443
0.491974 0.315701 0.145738
0.560497 0.307962 0.133413
0.640366 0.298898 0.120550
0.724883 0.289658 0.108344
0.812325 0.280996 0.096901
0.201368 0.485005 0.084692
0.274702 0.447337 0.093058
0.318143 0.406654 0.111191
0.431374 0.397745 0.094805
0.510995 0.371422 0.096385
0.571682 0.361071 0.091920
0.642041 0.357453 0.083051
0.722536 0.355360 0.073882
0.808928 0.352317 0.066208
0.205966 0.564096 0.058647
0.284897 0.538129 0.059075
0.317742 0.492457 0.068016
0.390185 0.479321 0.065469
0.503873 0.459702 0.061792
0.592892 0.434163 0.061580
0.661393 0.423952 0.059483
0.731629 0.422296 0.056704
0.795534 0.424499 0.066195
0.224939 0.638817 0.054687
0.305255 0.619850 0.054575
0.344237 0.587561 0.055020
0.379123 0.556317 0.055400
0.479841 0.558786 0.054781
0.577292 0.525095 0.054882
0.667207 0.500968 0.054827
0.737077 0.490011 0.054609
0.774255 0.484827 0.086981
0.241353 0.699541 0.052874
0.319558 0.683547 0.052636
0.364557 0.660713 0.052945
0.395668 0.635089 0.053454
0.449573 0.618989 0.053457
0.555346 0.620208 0.052409
0.637237 0.578860 0.052971
0.724064 0.555756 0.052883
0.750205 0.534954 0.106784
0.268971 0.723300 0.075487
0.337719 0.715582 0.066427
0.380029 0.711272 0.051077
0.410831 0.698171 0.051210
0.444809 0.678942 0.051521
0.512978 0.669912 0.051139
0.619076 0.670674 0.050144
0.686913 0.623372 0.050967
0.723820 0.583151 0.116606
0.323280 0.713624 0.158411
0.375712 0.707884 0.150769
0.409194 0.704755 0.133720
0.433653 0.702878 0.111307
0.457724 0.701114 0.087605
0.498881 0.697219 0.072956
0.570230 0.689856 0.076736
0.660394 0.681378 0.093855
0.695353 0.638533 0.109692
0.246414 0.251657 0.346058
0.316383 0.244364 0.317438
0.384664 0.239471 0.313131
0.452936 0.232774 0.307236
0.521954 0.224496 0.299949
0.592369 0.214856 0.291465
0.664728 0.204078 0.281978
0.739473 0.192383 0.271683
0.816940 0.179991 0.260776
0.228961 0.305370 0.304226
0.279593 0.306120 0.292856
0.382504 0.277882 0.276303
0.456079 0.265665 0.264250
0.531528 0.252752 0.251378
0.609204 0.239205 0.237841
0.689366 0.225135 0.223767
0.772197 0.210664 0.209287
0.816573 0.220938 0.219686
0.173941 0.376568 0.252720
0.246526 0.426310 0.175631
0.376070 0.362205 0.201811
0.432819 0.322921 0.212456
0.505247 0.308233 0.202294
0.589717 0.293847 0.188840
0.676602 0.280030 0.174993
0.766058 0.266622 0.161110
0.814359 0.276959 0.182535
0.114146 0.458612 0.161323
0.231623 0.519585 0.115624
0.317320 0.437906 0.151031
0.448361 0.421084 0.143894
0.525326 0.377997 0.145651
0.587044 0.362986 0.142457
0.667855 0.354086 0.133505
0.760726 0.343929 0.123047
0.809727 0.350108 0.156119
0.073648 0.548166 0.080571
0.238125 0.613233 0.085746
0.335046 0.561860 0.100414
0.384743 0.501823 0.119915
0.532669 0.493391 0.111244
0.624601 0.451981 0.104848
0.689340 0.434713 0.104145
0.750494 0.428827 0.113810
0.791412 0.430359 0.150004
0.087287 0.634375 0.055539
0.247196 0.689214 0.066828
0.348469 0.655107 0.077738
0.392906 0.602169 0.098895
0.476866 0.582077 0.105520
0.607085 0.558610 0.097179
0.703631 0.522309 0.089686
0.737711 0.500140 0.127972
0.766829 0.494191 0.166365
0.118393 0.704478 0.053832
0.274726 0.721945 0.092384
0.357133 0.712954 0.075710
0.405695 0.685249 0.076848
0.450364 0.649010 0.093456
0.554999 0.643818 0.091730
0.665758 0.609790 0.083978
0.715810 0.562383 0.138100
0.741331 0.543892 0.186970
0.156948 0.736766 0.067999
0.329294 0.712268 0.175121
0.389839 0.705831 0.162531
0.423944 0.703042 0.135540
0.453052 0.694713 0.113623
0.508030 0.682622 0.108316
0.608624 0.675404 0.117687
0.680891 0.629595 0.131942
0.715678 0.589760 0.198403
0.241548 0.723397 0.153819
0.376245 0.704434 0.239174
0.424230 0.699521 0.229371
0.452667 0.697243 0.208349
0.474063 0.695937 0.181919
0.501829 0.693920 0.157673
0.562530 0.688084 0.154355
0.649576 0.680191 0.170615
0.689576 0.643556 0.189760
0.244758 0.253857 0.417676
0.315161 0.242881 0.389780
0.383048 0.237356 0.385182
0.451202 0.230089 0.379656
0.520276 0.221317 0.372986
0.590896 0.211260 0.365338
0.663580 0.200141 0.356883
0.738743 0.188180 0.347788
0.816696 0.175600 0.338222
0.214910 0.316424 0.396295
0.286329 0.296001 0.398514
0.378338 0.272962 0.381518
0.453312 0.260969 0.358570
0.529296 0.247994 0.342686
0.607526 0.234335 0.328321
0.688279 0.220167 0.314341
0.771663 0.205671 0.300466
0.816337 0.216974 0.302957
0.188854 0.351036 0.348608
0.232890 0.353063 0.349646
0.292327 0.350611 0.321469
0.438174 0.302189 0.297958
0.518690 0.288489 0.285015
0.601814 0.274962 0.271707
0.687667 0.261534 0.258367
0.761828 0.257718 0.254730
0.814182 0.273759 0.271094
0.138372 0.410979 0.309139
0.164198 0.446229 0.274191
0.289659 0.516133 0.203045
0.447435 0.433622 0.226682
0.501845 0.371250 0.234395
0.582635 0.354025 0.227463
0.676315 0.340030 0.217788
0.756208 0.335203 0.221284
0.808557 0.348000 0.248748
0.085554 0.501354 0.247212
0.105114 0.572200 0.170033
0.296596 0.609286 0.173292
0.384813 0.525926 0.196714
0.532949 0.506343 0.198556
0.612250 0.452828 0.194269
0.667326 0.435298 0.201360
0.739451 0.428178 0.205499
0.788498 0.430722 0.238339
0.057745 0.601021 0.186814
0.079353 0.679364 0.089090
0.311686 0.668119 0.169962
0.402578 0.636210 0.165377
0.459111 0.583478 0.186887
0.604824 0.568156 0.179032
0.663833 0.518603 0.214722
0.722789 0.505022 0.215128
0.760248 0.500823 0.242540
0.054535 0.687368 0.141205
0.113686 0.741375 0.078204
0.350511 0.681734 0.220383
0.419852 0.666005 0.209385
0.453752 0.644262 0.193575
0.529585 0.629341 0.192565
0.633146 0.597297 0.208866
0.702706 0.566348 0.226966
0.732696 0.552247 0.262658
0.052982 0.747454 0.099875
0.220137 0.725406 0.166725
0.381834 0.703195 0.255460
0.437494 0.697776 0.238251
0.467018 0.691554 0.210369
0.502493 0.678025 0.195133
0.590716 0.669582 0.200762
0.670645 0.631696 0.218907
0.707707 0.596685 0.277518
0.137839 0.735825 0.148039
0.295502 0.713874 0.233875
0.428095 0.695911 0.318033
0.470847 0.691983 0.305479
0.493702 0.690611 0.279176
0.513267 0.689735 0.248184
0.557398 0.686119 0.232533
0.638834 0.679081 0.246064
0.684349 0.648932 0.268653
0.242539 0.255527 0.489355
0.312867 0.241083 0.467860
0.381276 0.235036 0.457609
0.449352 0.227225 0.452605
0.518518 0.217985 0.446686
0.589370 0.207537 0.439992
0.662402 0.196103 0.432667
0.738001 0.183904 0.424852
0.816450 0.171162 0.416689
0.208174 0.316621 0.476318
0.279265 0.292913 0.477879
0.362404 0.269392 0.462742
0.449608 0.256397 0.453916
0.526790 0.243319 0.435560
0.605626 0.229563 0.420369
0.687008 0.215318 0.406496
0.771040 0.200784 0.393201
0.816103 0.213052 0.387343
0.172812 0.359263 0.436063
0.230757 0.353852 0.446123
0.311102 0.328608 0.449728
0.432064 0.294878 0.438467
0.516189 0.282496 0.401105
0.600182 0.269526 0.380293
0.686335 0.256710 0.364116
0.761117 0.253666 0.354855
0.813997 0.271068 0.361110
0.139595 0.400639 0.396731
0.181965 0.409595 0.404635
0.247025 0.409969 0.403257
0.317060 0.412408 0.364734
0.506579 0.335778 0.327551
0.596023 0.323268 0.317000
0.672573 0.323100 0.317827
0.751702 0.324880 0.320087
0.807286 0.345772 0.341644
0.096018 0.467940 0.367911
0.135456 0.497970 0.362145
0.199302 0.532592 0.329667
0.357942 0.596649 0.269440
0.534025 0.521701 0.281030
0.583369 0.443319 0.289450
0.656248 0.425963 0.294699
0.734147 0.419788 0.302758
0.786056 0.428811 0.330066
0.061812 0.563909 0.330379
0.100136 0.617928 0.301749
0.168022 0.655973 0.236928
0.386590 0.631125 0.295476
0.452935 0.589071 0.279796
0.581399 0.563584 0.291278
0.648761 0.520316 0.301626
0.708518 0.506644 0.298277
0.755485 0.502965 0.319121
0.054865 0.657514 0.289168
0.078873 0.715833 0.230756
0.213053 0.688443 0.223249
0.407853 0.666975 0.310174
0.467950 0.647838 0.293510
0.512591 0.623973 0.279444
0.623069 0.600155 0.296943
0.689428 0.570277 0.311763
0.724889 0.559354 0.333107
0.053019 0.731773 0.243710
0.139141 0.732745 0.221722
0.266972 0.716785 0.244478
0.433175 0.694822 0.333964
0.483029 0.689020 0.312064
0.508562 0.674988 0.287307
0.574183 0.663886 0.282905
0.660911 0.634147 0.304427
0.700061 0.604066 0.353385
0.114877 0.734749 0.242772
0.213261 0.722869 0.250300
0.347677 0.704901 0.311028
0.479119 0.688231 0.395327
0.515302 0.685442 0.378816
0.532135 0.684966 0.345156
0.557213 0.683727 0.313541
0.628601 0.678019 0.320076
0.679747 0.654761 0.346606
0.239791 0.256710 0.561312
0.308213 0.239261 0.545234
0.379321 0.232508 0.530887
0.447393 0.224191 0.526152
0.516684 0.214510 0.521109
0.587797 0.203697 0.515478
0.661198 0.191975 0.509372
0.737247 0.179564 0.502907
0.816201 0.166686 0.496200
0.202714 0.315279 0.552284
0.272379 0.290352 0.556769
0.352387 0.266140 0.546016
0.437055 0.252109 0.536400
0.523632 0.238574 0.529254
0.603701 0.224729 0.513851
0.685730 0.210436 0.500093
0.770416 0.195894 0.487383
0.815871 0.209176 0.472830
0.160544 0.363690 0.523522
0.224488 0.352664 0.534536
0.304411 0.324385 0.536076
0.403031 0.292745 0.527451
0.511458 0.277418 0.518520
0.598100 0.264734 0.491404
0.685077 0.252235 0.471873
0.760528 0.249872 0.456556
0.813819 0.268503 0.452067
0.125703 0.409210 0.488061
0.178075 0.411610 0.504727
0.258384 0.405126 0.509436
0.344790 0.374651 0.515534
0.498976 0.327038 0.510020
0.594131 0.317631 0.457999
0.671474 0.319392 0.436753
0.750597 0.322179 0.428482
0.805754 0.344221 0.435427
0.093406 0.463790 0.458244
0.138867 0.483508 0.476774
0.212548 0.487916 0.480087
0.289029 0.492389 0.481547
0.368710 0.496619 0.432664
0.576774 0.402074 0.390481
0.654389 0.403500 0.395693
0.730283 0.407960 0.401410
0.783623 0.426600 0.421213
0.064161 0.542894 0.441036
0.113889 0.571829 0.447934
0.191412 0.585474 0.437401
0.280595 0.600086 0.406064
0.443513 0.618133 0.385050
0.571593 0.569637 0.380138
0.630132 0.515078 0.382348
0.699227 0.500977 0.384621
0.752351 0.500637 0.404674
0.055123 0.631762 0.416344
0.096940 0.670520 0.403647
0.196548 0.664761 0.379305
0.296594 0.664679 0.350563
0.463201 0.653509 0.396778
0.509893 0.624911 0.370942
0.613486 0.603710 0.382673
0.675780 0.573171 0.390338
0.718958 0.563526 0.398702
0.053307 0.709030 0.377251
0.116410 0.724246 0.353090
0.214318 0.715460 0.335023
0.315367 0.706668 0.325630
0.484757 0.685779 0.413232
0.526491 0.674304 0.389207
0.561069 0.658747 0.364901
0.651855 0.637148 0.388329
0.693010 0.611883 0.424754
0.090491 0.733440 0.347506
0.186432 0.722329 0.342776
0.283672 0.710794 0.347004
0.397860 0.696699 0.384929
0.529664 0.681576 0.471483
0.556900 0.680065 0.448402
0.568334 0.680331 0.404466
0.619794 0.676937 0.392995
0.675843 0.661158 0.423888
0.236543 0.257445 0.633749
0.302681 0.237369 0.621425
0.376278 0.229802 0.607222
0.445330 0.220997 0.600361
0.514779 0.210901 0.596312
0.586180 0.199749 0.591839
0.659970 0.187765 0.587032
0.736484 0.175168 0.581980
0.815951 0.162181 0.576771
0.197222 0.313767 0.628003
0.265529 0.287943 0.636007
0.342767 0.262724 0.628873
0.428143 0.247327 0.618943
0.512791 0.233857 0.613562
0.601096 0.219852 0.608127
0.684446 0.205534 0.595154
0.769794 0.191012 0.583019
0.815643 0.205354 0.559403
0.151323 0.365392 0.608931
0.217511 0.350308 0.621078
0.297247 0.321419 0.622226
0.388189 0.290573 0.616429
0.489528 0.273936 0.608709
0.594524 0.260092 0.602850
0.683844 0.247850 0.581326
0.759956 0.246188 0.559626
0.813650 0.266054 0.543902
0.113123 0.417660 0.582261
0.172655 0.415199 0.601564
0.256330 0.404071 0.605540
0.348389 0.375987 0.595670
0.453886 0.327002 0.603748
0.587794 0.314678 0.598253
0.670479 0.316624 0.557866
0.749439 0.319967 0.537919
0.804072 0.342798 0.529233
0.083824 0.474127 0.555574
0.136306 0.486185 0.580887
0.218880 0.484342 0.586655
0.323247 0.477448 0.578846
0.416576 0.452921 0.577356
0.566505 0.395027 0.580729
0.652132 0.399818 0.527938
0.727713 0.405825 0.512576
0.780830 0.425037 0.512643
0.062257 0.541355 0.534182
0.114609 0.566460 0.558144
0.194952 0.570338 0.561320
0.275237 0.571404 0.561059
0.366758 0.561684 0.549044
0.456499 0.552604 0.504551
0.626251 0.488407 0.476581
0.696647 0.488210 0.479975
0.749442 0.497646 0.491184
0.055155 0.619718 0.518929
0.106002 0.644494 0.529050
0.186189 0.643977 0.519373
0.277832 0.636571 0.501316
0.371921 0.636069 0.476105
0.515953 0.641988 0.479469
0.603113 0.607905 0.466118
0.661619 0.570948 0.460604
0.715794 0.562192 0.469358
0.053484 0.691530 0.492294
0.104711 0.710961 0.484107
0.196679 0.701256 0.466367
0.290598 0.692989 0.448026
0.390538 0.686608 0.435428
0.538300 0.674418 0.496003
0.562844 0.657380 0.455630
0.643786 0.641144 0.470186
0.687171 0.619296 0.488689
0.069081 0.731600 0.456732
0.160082 0.721303 0.446003
0.252532 0.710819 0.438066
0.348246 0.700071 0.438152
0.448469 0.689120 0.457890
0.580137 0.676123 0.547012
0.594020 0.676014 0.511217
0.614326 0.675692 0.466787
0.672709 0.668260 0.500805
0.232829 0.257773 0.706854
0.296805 0.235368 0.697055
0.371855 0.227064 0.684480
0.443031 0.217651 0.675706
0.512808 0.207166 0.672343
0.584522 0.195703 0.669119
0.658721 0.183482 0.665681
0.735713 0.170726 0.662093
0.815699 0.157655 0.658417
0.191462 0.312292 0.704673
0.258635 0.285572 0.715958
0.333395 0.259065 0.711097
0.419344 0.243074 0.702865
0.504299 0.228747 0.697963
0.591325 0.214813 0.694479
0.682409 0.200606 0.690927
0.769174 0.186151 0.680108
0.815419 0.201594 0.647041
0.143427 0.366028 0.693824
0.210368 0.347793 0.707726
0.300447 0.328165 0.687299
0.377609 0.293025 0.694602
0.475423 0.270671 0.696331
0.575281 0.257103 0.692959
0.679853 0.244523 0.689559
0.759403 0.242626 0.664012
0.813466 0.263723 0.636542
0.103309 0.423884 0.676109
0.166748 0.417301 0.696633
0.272845 0.408808 0.672783
0.353681 0.382225 0.674061
0.438000 0.338995 0.680168
0.550191 0.322920 0.679494
0.665959 0.314933 0.676551
0.748088 0.317856 0.647778
0.802255 0.341479 0.622891
0.074950 0.486434 0.655927
0.133685 0.492178 0.682356
0.241605 0.484605 0.665145
0.342076 0.479651 0.657202
0.425703 0.454708 0.657468
0.520661 0.405014 0.663722
0.645531 0.399046 0.657036
0.725038 0.404357 0.623575
0.777932 0.423484 0.603382
0.058477 0.551006 0.632756
0.114634 0.567831 0.660100
0.208560 0.561821 0.654411
0.308071 0.553048 0.643659
0.409384 0.546130 0.632349
0.496568 0.528495 0.628687
0.616572 0.482408 0.630385
0.693147 0.484583 0.590513
0.746104 0.495344 0.578073
0.055010 0.618070 0.609640
0.106025 0.641113 0.631631
0.185151 0.638867 0.628972
0.274211 0.627618 0.617564
0.361174 0.616399 0.605885
0.446083 0.605322 0.593271
0.529216 0.595021 0.562119
0.657443 0.556394 0.545621
0.713159 0.558786 0.551350
0.053423 0.684087 0.586300
0.099872 0.703014 0.594423
0.187414 0.691066 0.582277
0.273810 0.679941 0.568744
0.360800 0.670496 0.553354
0.454417 0.665345 0.538047
0.589683 0.666617 0.574411
0.635148 0.645034 0.550489
0.684238 0.621821 0.540238
0.055040 0.729097 0.560719
0.140641 0.719426 0.550206
0.226152 0.709898 0.539318
0.313342 0.700503 0.529245
0.405562 0.691092 0.524243
0.508554 0.681421 0.539372
0.631004 0.672051 0.622512
0.623945 0.673409 0.558292
0.669187 0.671100 0.580192
0.228680 0.257733 0.780796
0.290749 0.233244 0.772540
0.366567 0.224292 0.761948
0.439706 0.214227 0.753314
0.510776 0.203315 0.749251
0.582827 0.191566 0.747353
0.657453 0.179136 0.745346
0.734935 0.166246 0.743264
0.815447 0.153119 0.741144
0.185432 0.310866 0.782696
0.263417 0.293695 0.770117
0.328420 0.263230 0.775854
0.410244 0.242796 0.779464
0.496287 0.224525 0.780987
0.582511 0.210327 0.779586
0.672350 0.196251 0.777951
0.766297 0.182259 0.776326
0.815198 0.197905 0.735722
0.136167 0.366257 0.779187
0.225414 0.355110 0.760094
0.301927 0.332917 0.761127
0.372237 0.298389 0.766852
0.463368 0.276542 0.770275
0.558143 0.261570 0.770133
0.655296 0.250426 0.768549
0.756387 0.240207 0.767097
0.813114 0.261468 0.729785
0.095319 0.428695 0.769647
0.191410 0.422977 0.754996
0.279226 0.413992 0.752387
0.360163 0.391296 0.753195
0.433542 0.350415 0.758260
0.534991 0.330213 0.760896
0.639187 0.322953 0.758913
0.743857 0.316917 0.755045
0.800310 0.340270 0.716257
0.068220 0.496652 0.755110
0.159722 0.493764 0.751011
0.258114 0.490363 0.741876
0.353875 0.485649 0.734012
0.434981 0.464565 0.733732
0.511008 0.420525 0.741868
0.616385 0.408086 0.738358
0.719365 0.403860 0.730585
0.774956 0.421890 0.693349
0.056037 0.562769 0.731194
0.134178 0.565917 0.740283
0.233765 0.559492 0.728172
0.332118 0.554027 0.715163
0.426703 0.549388 0.702474
0.504629 0.531813 0.699796
0.585318 0.490756 0.707956
0.686248 0.483038 0.697487
0.742711 0.493114 0.664209
0.054674 0.624599 0.702697
0.113137 0.635842 0.720438
0.206301 0.625009 0.707924
0.298343 0.614427 0.695028
0.389922 0.604748 0.681661
0.481783 0.597847 0.667854
0.559951 0.586421 0.661235
0.649637 0.551877 0.661797
0.710065 0.556190 0.634363
0.053240 0.681437 0.672031
0.100064 0.699221 0.688869
0.186901 0.687183 0.676950
0.271768 0.675446 0.665295
0.354792 0.664103 0.653969
0.436152 0.653249 0.642981
0.516079 0.642987 0.632074
0.594773 0.633534 0.614154
0.683424 0.617183 0.608640
0.051850 0.725958 0.648493
0.134256 0.716591 0.640146
0.214564 0.707619 0.632151
0.293448 0.699167 0.624143
0.372535 0.691288 0.615624
0.455356 0.683903 0.607402
0.553438 0.676475 0.609287
0.668230 0.670140 0.670140
0.668345 0.670255 0.658027
0.241846 0.273109 0.820315
0.295292 0.245940 0.820936
0.363801 0.230909 0.820656
0.435253 0.214719 0.820368
0.508474 0.200079 0.819928
0.581257 0.187736 0.819312
0.656287 0.175138 0.818649
0.734224 0.162150 0.817966
0.815218 0.148994 0.817273
0.203731 0.321892 0.817832
0.274164 0.306050 0.817507
0.332915 0.278151 0.818184
0.406360 0.260287 0.817922
0.484065 0.242971 0.817550
0.562893 0.229369 0.816953
0.643096 0.217946 0.816269
0.726435 0.206854 0.815604
0.812789 0.196288 0.814971
0.165219 0.375689 0.815514
0.242058 0.365860 0.814975
0.318814 0.351013 0.814679
0.379537 0.318691 0.815227
0.459646 0.299232 0.815051
0.545023 0.283786 0.814678
0.631224 0.275170 0.814127
0.719893 0.267897 0.813621
0.810257 0.261458 0.812537
0.131838 0.435773 0.813792
0.217284 0.433785 0.812863
0.303058 0.428633 0.810637
0.384434 0.415764 0.808869
0.444817 0.378581 0.811658
0.530323 0.358591 0.810978
0.619974 0.349138 0.808274
0.708506 0.344848 0.803757
0.795849 0.341410 0.798132
0.105197 0.499670 0.808714
0.197589 0.499888 0.803023
0.291200 0.500643 0.795576
0.380549 0.498882 0.787648
0.459010 0.487420 0.783273
0.518074 0.450153 0.790334
0.603056 0.431761 0.787992
0.687646 0.426982 0.780297
0.769545 0.422379 0.771752
0.088023 0.563098 0.794980
0.182635 0.561571 0.786267
0.275546 0.560096 0.775836
0.365820 0.558912 0.763785
0.450794 0.557195 0.751224
0.521373 0.546512 0.745332
0.580249 0.512379 0.754735
0.659974 0.499267 0.748817
0.737029 0.492878 0.739140
0.074698 0.623441 0.774235
0.165438 0.617649 0.764202
0.254438 0.611996 0.753213
0.341686 0.606994 0.741172
0.426980 0.603505 0.727884
0.508443 0.602554 0.713612
0.573891 0.595911 0.706039
0.630815 0.563007 0.715532
0.704791 0.555670 0.706808
0.060576 0.680573 0.747022
0.146333 0.671967 0.737034
0.230123 0.663509 0.726968
0.312235 0.655451 0.716906
0.393241 0.648206 0.706852
0.474260 0.642711 0.696597
0.557226 0.642035 0.685438
0.626772 0.646171 0.676945
0.679328 0.616743 0.681271
0.052366 0.722915 0.722915
0.134395 0.713661 0.713661
0.214369 0.704852 0.704852
0.292509 0.696645 0.696645
0.369110 0.689197 0.689197
0.444543 0.682665 0.682665
0.519251 0.677204 0.677204
0.593751 0.672974 0.672974
0.668230 0.670140 0.670140
